tests/assets/LUTs/generated/contrast_s_curve_33.cube
# contrast_s_curve_33.cube
# Generated by generate-luts.py for CodeBrix.VideoPlayback.
# PUBLIC DOMAIN (CC0 1.0 Universal). No rights reserved.
# Definition: out = smoothstep(in) per channel, smoothstep(x) = x*x*(3 - 2*x).
TITLE "Contrast S Curve 33"
LUT_3D_SIZE 5
0.000000 0.000000 0.000000
0.156250 0.000000 0.000000
0.500000 0.000000 0.000000
0.843750 0.000000 0.000000
1.000000 0.000000 0.000000
0.000000 0.156250 0.000000
0.156250 0.156250 0.000000
0.500000 0.156250 0.000000
0.843750 0.156250 0.000000
1.000000 0.156250 0.000000
0.000000 0.500000 0.000000
0.156250 0.500000 0.000000
0.500000 0.500000 0.000000
0.843750 0.500000 0.000000
1.000000 0.500000 0.000000
0.000000 0.843750 0.000000
0.156250 0.843750 0.000000
0.500000 0.843750 0.000000
0.843750 0.843750 0.000000
1.000000 0.843750 0.000000
0.000000 1.000000 0.000000
0.156250 1.000000 0.000000
0.500000 1.000000 0.000000
0.843750 1.000000 0.000000
1.000000 1.000000 0.000000
0.000000 0.000000 0.156250
0.156250 0.000000 0.156250
0.500000 0.000000 0.156250
0.843750 0.000000 0.156250
1.000000 0.000000 0.156250
0.000000 0.156250 0.156250
0.156250 0.156250 0.156250
0.500000 0.156250 0.156250
0.843750 0.156250 0.156250
1.000000 0.156250 0.156250
0.000000 0.500000 0.156250
0.156250 0.500000 0.156250
0.500000 0.500000 0.156250
0.843750 0.500000 0.156250
1.000000 0.500000 0.156250
0.000000 0.843750 0.156250
0.156250 0.843750 0.156250
0.500000 0.843750 0.156250
0.843750 0.843750 0.156250
1.000000 0.843750 0.156250
0.000000 1.000000 0.156250
0.156250 1.000000 0.156250
0.500000 1.000000 0.156250
0.843750 1.000000 0.156250
1.000000 1.000000 0.156250
0.000000 0.000000 0.500000
0.156250 0.000000 0.500000
0.500000 0.000000 0.500000
0.843750 0.000000 0.500000
1.000000 0.000000 0.500000
0.000000 0.156250 0.500000
0.156250 0.156250 0.500000
0.500000 0.156250 0.500000
0.843750 0.156250 0.500000
1.000000 0.156250 0.500000
0.000000 0.500000 0.500000
0.156250 0.500000 0.500000
0.500000 0.500000 0.500000
0.843750 0.500000 0.500000
1.000000 0.500000 0.500000
0.000000 0.843750 0.500000
0.156250 0.843750 0.500000
0.500000 0.843750 0.500000
0.843750 0.843750 0.500000
1.000000 0.843750 0.500000
0.000000 1.000000 0.500000
0.156250 1.000000 0.500000
0.500000 1.000000 0.500000
0.843750 1.000000 0.500000
1.000000 1.000000 0.500000
0.000000 0.000000 0.843750
0.156250 0.000000 0.843750
0.500000 0.000000 0.843750
0.843750 0.000000 0.843750
1.000000 0.000000 0.843750
0.000000 0.156250 0.843750
0.156250 0.156250 0.843750
0.500000 0.156250 0.843750
0.843750 0.156250 0.843750
1.000000 0.156250 0.843750
0.000000 0.500000 0.843750
0.156250 0.500000 0.843750
0.500000 0.500000 0.843750
0.843750 0.500000 0.843750
1.000000 0.500000 0.843750
0.000000 0.843750 0.843750
0.156250 0.843750 0.843750
0.500000 0.843750 0.843750
0.843750 0.843750 0.843750
1.000000 0.843750 0.843750
0.000000 1.000000 0.843750
0.156250 1.000000 0.843750
0.500000 1.000000 0.843750
0.843750 1.000000 0.843750
1.000000 1.000000 0.843750
0.000000 0.000000 1.000000
0.156250 0.000000 1.000000
0.500000 0.000000 1.000000
0.843750 0.000000 1.000000
1.000000 0.000000 1.000000
0.000000 0.156250 1.000000
0.156250 0.156250 1.000000
0.500000 0.156250 1.000000
0.843750 0.156250 1.000000
1.000000 0.156250 1.000000
0.000000 0.500000 1.000000
0.156250 0.500000 1.000000
0.500000 0.500000 1.000000
0.843750 0.500000 1.000000
1.000000 0.500000 1.000000
0.000000 0.843750 1.000000
0.156250 0.843750 1.000000
0.500000 0.843750 1.000000
0.843750 0.843750 1.000000
1.000000 0.843750 1.000000
0.000000 1.000000 1.000000
0.156250 1.000000 1.000000
0.500000 1.000000 1.000000
0.843750 1.000000 1.000000
1.000000 1.000000 1.000000
