tests/assets/LUTs/generated/cool_33.cube
# cool_33.cube
# Generated by generate-luts.py for CodeBrix.VideoPlayback.
# PUBLIC DOMAIN (CC0 1.0 Universal). No rights reserved.
# Definition: out = clamp(in * (0.94, 1.00, 1.06)) per channel.
TITLE "Cool 33"
LUT_3D_SIZE 33
0.000000 0.000000 0.000000
0.029375 0.000000 0.000000
0.058750 0.000000 0.000000
0.088125 0.000000 0.000000
0.117500 0.000000 0.000000
0.146875 0.000000 0.000000
0.176250 0.000000 0.000000
0.205625 0.000000 0.000000
0.235000 0.000000 0.000000
0.264375 0.000000 0.000000
0.293750 0.000000 0.000000
0.323125 0.000000 0.000000
0.352500 0.000000 0.000000
0.381875 0.000000 0.000000
0.411250 0.000000 0.000000
0.440625 0.000000 0.000000
0.470000 0.000000 0.000000
0.499375 0.000000 0.000000
0.528750 0.000000 0.000000
0.558125 0.000000 0.000000
0.587500 0.000000 0.000000
0.616875 0.000000 0.000000
0.646250 0.000000 0.000000
0.675625 0.000000 0.000000
0.705000 0.000000 0.000000
0.734375 0.000000 0.000000
0.763750 0.000000 0.000000
0.793125 0.000000 0.000000
0.822500 0.000000 0.000000
0.851875 0.000000 0.000000
0.881250 0.000000 0.000000
0.910625 0.000000 0.000000
0.940000 0.000000 0.000000
0.000000 0.031250 0.000000
0.029375 0.031250 0.000000
0.058750 0.031250 0.000000
0.088125 0.031250 0.000000
0.117500 0.031250 0.000000
0.146875 0.031250 0.000000
0.176250 0.031250 0.000000
0.205625 0.031250 0.000000
0.235000 0.031250 0.000000
0.264375 0.031250 0.000000
0.293750 0.031250 0.000000
0.323125 0.031250 0.000000
0.352500 0.031250 0.000000
0.381875 0.031250 0.000000
0.411250 0.031250 0.000000
0.440625 0.031250 0.000000
0.470000 0.031250 0.000000
0.499375 0.031250 0.000000
0.528750 0.031250 0.000000
0.558125 0.031250 0.000000
0.587500 0.031250 0.000000
0.616875 0.031250 0.000000
0.646250 0.031250 0.000000
0.675625 0.031250 0.000000
0.705000 0.031250 0.000000
0.734375 0.031250 0.000000
0.763750 0.031250 0.000000
0.793125 0.031250 0.000000
0.822500 0.031250 0.000000
0.851875 0.031250 0.000000
0.881250 0.031250 0.000000
0.910625 0.031250 0.000000
0.940000 0.031250 0.000000
0.000000 0.062500 0.000000
0.029375 0.062500 0.000000
0.058750 0.062500 0.000000
0.088125 0.062500 0.000000
0.117500 0.062500 0.000000
0.146875 0.062500 0.000000
0.176250 0.062500 0.000000
0.205625 0.062500 0.000000
0.235000 0.062500 0.000000
0.264375 0.062500 0.000000
0.293750 0.062500 0.000000
0.323125 0.062500 0.000000
0.352500 0.062500 0.000000
0.381875 0.062500 0.000000
0.411250 0.062500 0.000000
0.440625 0.062500 0.000000
0.470000 0.062500 0.000000
0.499375 0.062500 0.000000
0.528750 0.062500 0.000000
0.558125 0.062500 0.000000
0.587500 0.062500 0.000000
0.616875 0.062500 0.000000
0.646250 0.062500 0.000000
0.675625 0.062500 0.000000
0.705000 0.062500 0.000000
0.734375 0.062500 0.000000
0.763750 0.062500 0.000000
0.793125 0.062500 0.000000
0.822500 0.062500 0.000000
0.851875 0.062500 0.000000
0.881250 0.062500 0.000000
0.910625 0.062500 0.000000
0.940000 0.062500 0.000000
0.000000 0.093750 0.000000
0.029375 0.093750 0.000000
0.058750 0.093750 0.000000
0.088125 0.093750 0.000000
0.117500 0.093750 0.000000
0.146875 0.093750 0.000000
0.176250 0.093750 0.000000
0.205625 0.093750 0.000000
0.235000 0.093750 0.000000
0.264375 0.093750 0.000000
0.293750 0.093750 0.000000
0.323125 0.093750 0.000000
0.352500 0.093750 0.000000
0.381875 0.093750 0.000000
0.411250 0.093750 0.000000
0.440625 0.093750 0.000000
0.470000 0.093750 0.000000
0.499375 0.093750 0.000000
0.528750 0.093750 0.000000
0.558125 0.093750 0.000000
0.587500 0.093750 0.000000
0.616875 0.093750 0.000000
0.646250 0.093750 0.000000
0.675625 0.093750 0.000000
0.705000 0.093750 0.000000
0.734375 0.093750 0.000000
0.763750 0.093750 0.000000
0.793125 0.093750 0.000000
0.822500 0.093750 0.000000
0.851875 0.093750 0.000000
0.881250 0.093750 0.000000
0.910625 0.093750 0.000000
0.940000 0.093750 0.000000
0.000000 0.125000 0.000000
0.029375 0.125000 0.000000
0.058750 0.125000 0.000000
0.088125 0.125000 0.000000
0.117500 0.125000 0.000000
0.146875 0.125000 0.000000
0.176250 0.125000 0.000000
0.205625 0.125000 0.000000
0.235000 0.125000 0.000000
0.264375 0.125000 0.000000
0.293750 0.125000 0.000000
0.323125 0.125000 0.000000
0.352500 0.125000 0.000000
0.381875 0.125000 0.000000
0.411250 0.125000 0.000000
0.440625 0.125000 0.000000
0.470000 0.125000 0.000000
0.499375 0.125000 0.000000
0.528750 0.125000 0.000000
0.558125 0.125000 0.000000
0.587500 0.125000 0.000000
0.616875 0.125000 0.000000
0.646250 0.125000 0.000000
0.675625 0.125000 0.000000
0.705000 0.125000 0.000000
0.734375 0.125000 0.000000
0.763750 0.125000 0.000000
0.793125 0.125000 0.000000
0.822500 0.125000 0.000000
0.851875 0.125000 0.000000
0.881250 0.125000 0.000000
0.910625 0.125000 0.000000
0.940000 0.125000 0.000000
0.000000 0.156250 0.000000
0.029375 0.156250 0.000000
0.058750 0.156250 0.000000
0.088125 0.156250 0.000000
0.117500 0.156250 0.000000
0.146875 0.156250 0.000000
0.176250 0.156250 0.000000
0.205625 0.156250 0.000000
0.235000 0.156250 0.000000
0.264375 0.156250 0.000000
0.293750 0.156250 0.000000
0.323125 0.156250 0.000000
0.352500 0.156250 0.000000
0.381875 0.156250 0.000000
0.411250 0.156250 0.000000
0.440625 0.156250 0.000000
0.470000 0.156250 0.000000
0.499375 0.156250 0.000000
0.528750 0.156250 0.000000
0.558125 0.156250 0.000000
0.587500 0.156250 0.000000
0.616875 0.156250 0.000000
0.646250 0.156250 0.000000
0.675625 0.156250 0.000000
0.705000 0.156250 0.000000
0.734375 0.156250 0.000000
0.763750 0.156250 0.000000
0.793125 0.156250 0.000000
0.822500 0.156250 0.000000
0.851875 0.156250 0.000000
0.881250 0.156250 0.000000
0.910625 0.156250 0.000000
0.940000 0.156250 0.000000
0.000000 0.187500 0.000000
0.029375 0.187500 0.000000
0.058750 0.187500 0.000000
0.088125 0.187500 0.000000
0.117500 0.187500 0.000000
0.146875 0.187500 0.000000
0.176250 0.187500 0.000000
0.205625 0.187500 0.000000
0.235000 0.187500 0.000000
0.264375 0.187500 0.000000
0.293750 0.187500 0.000000
0.323125 0.187500 0.000000
0.352500 0.187500 0.000000
0.381875 0.187500 0.000000
0.411250 0.187500 0.000000
0.440625 0.187500 0.000000
0.470000 0.187500 0.000000
0.499375 0.187500 0.000000
0.528750 0.187500 0.000000
0.558125 0.187500 0.000000
0.587500 0.187500 0.000000
0.616875 0.187500 0.000000
0.646250 0.187500 0.000000
0.675625 0.187500 0.000000
0.705000 0.187500 0.000000
0.734375 0.187500 0.000000
0.763750 0.187500 0.000000
0.793125 0.187500 0.000000
0.822500 0.187500 0.000000
0.851875 0.187500 0.000000
0.881250 0.187500 0.000000
0.910625 0.187500 0.000000
0.940000 0.187500 0.000000
0.000000 0.218750 0.000000
0.029375 0.218750 0.000000
0.058750 0.218750 0.000000
0.088125 0.218750 0.000000
0.117500 0.218750 0.000000
0.146875 0.218750 0.000000
0.176250 0.218750 0.000000
0.205625 0.218750 0.000000
0.235000 0.218750 0.000000
0.264375 0.218750 0.000000
0.293750 0.218750 0.000000
0.323125 0.218750 0.000000
0.352500 0.218750 0.000000
0.381875 0.218750 0.000000
0.411250 0.218750 0.000000
0.440625 0.218750 0.000000
0.470000 0.218750 0.000000
0.499375 0.218750 0.000000
0.528750 0.218750 0.000000
0.558125 0.218750 0.000000
0.587500 0.218750 0.000000
0.616875 0.218750 0.000000
0.646250 0.218750 0.000000
0.675625 0.218750 0.000000
0.705000 0.218750 0.000000
0.734375 0.218750 0.000000
0.763750 0.218750 0.000000
0.793125 0.218750 0.000000
0.822500 0.218750 0.000000
0.851875 0.218750 0.000000
0.881250 0.218750 0.000000
0.910625 0.218750 0.000000
0.940000 0.218750 0.000000
0.000000 0.250000 0.000000
0.029375 0.250000 0.000000
0.058750 0.250000 0.000000
0.088125 0.250000 0.000000
0.117500 0.250000 0.000000
0.146875 0.250000 0.000000
0.176250 0.250000 0.000000
0.205625 0.250000 0.000000
0.235000 0.250000 0.000000
0.264375 0.250000 0.000000
0.293750 0.250000 0.000000
0.323125 0.250000 0.000000
0.352500 0.250000 0.000000
0.381875 0.250000 0.000000
0.411250 0.250000 0.000000
0.440625 0.250000 0.000000
0.470000 0.250000 0.000000
0.499375 0.250000 0.000000
0.528750 0.250000 0.000000
0.558125 0.250000 0.000000
0.587500 0.250000 0.000000
0.616875 0.250000 0.000000
0.646250 0.250000 0.000000
0.675625 0.250000 0.000000
0.705000 0.250000 0.000000
0.734375 0.250000 0.000000
0.763750 0.250000 0.000000
0.793125 0.250000 0.000000
0.822500 0.250000 0.000000
0.851875 0.250000 0.000000
0.881250 0.250000 0.000000
0.910625 0.250000 0.000000
0.940000 0.250000 0.000000
0.000000 0.281250 0.000000
0.029375 0.281250 0.000000
0.058750 0.281250 0.000000
0.088125 0.281250 0.000000
0.117500 0.281250 0.000000
0.146875 0.281250 0.000000
0.176250 0.281250 0.000000
0.205625 0.281250 0.000000
0.235000 0.281250 0.000000
0.264375 0.281250 0.000000
0.293750 0.281250 0.000000
0.323125 0.281250 0.000000
0.352500 0.281250 0.000000
0.381875 0.281250 0.000000
0.411250 0.281250 0.000000
0.440625 0.281250 0.000000
0.470000 0.281250 0.000000
0.499375 0.281250 0.000000
0.528750 0.281250 0.000000
0.558125 0.281250 0.000000
0.587500 0.281250 0.000000
0.616875 0.281250 0.000000
0.646250 0.281250 0.000000
0.675625 0.281250 0.000000
0.705000 0.281250 0.000000
0.734375 0.281250 0.000000
0.763750 0.281250 0.000000
0.793125 0.281250 0.000000
0.822500 0.281250 0.000000
0.851875 0.281250 0.000000
0.881250 0.281250 0.000000
0.910625 0.281250 0.000000
0.940000 0.281250 0.000000
0.000000 0.312500 0.000000
0.029375 0.312500 0.000000
0.058750 0.312500 0.000000
0.088125 0.312500 0.000000
0.117500 0.312500 0.000000
0.146875 0.312500 0.000000
0.176250 0.312500 0.000000
0.205625 0.312500 0.000000
0.235000 0.312500 0.000000
0.264375 0.312500 0.000000
0.293750 0.312500 0.000000
0.323125 0.312500 0.000000
0.352500 0.312500 0.000000
0.381875 0.312500 0.000000
0.411250 0.312500 0.000000
0.440625 0.312500 0.000000
0.470000 0.312500 0.000000
0.499375 0.312500 0.000000
0.528750 0.312500 0.000000
0.558125 0.312500 0.000000
0.587500 0.312500 0.000000
0.616875 0.312500 0.000000
0.646250 0.312500 0.000000
0.675625 0.312500 0.000000
0.705000 0.312500 0.000000
0.734375 0.312500 0.000000
0.763750 0.312500 0.000000
0.793125 0.312500 0.000000
0.822500 0.312500 0.000000
0.851875 0.312500 0.000000
0.881250 0.312500 0.000000
0.910625 0.312500 0.000000
0.940000 0.312500 0.000000
0.000000 0.343750 0.000000
0.029375 0.343750 0.000000
0.058750 0.343750 0.000000
0.088125 0.343750 0.000000
0.117500 0.343750 0.000000
0.146875 0.343750 0.000000
0.176250 0.343750 0.000000
0.205625 0.343750 0.000000
0.235000 0.343750 0.000000
0.264375 0.343750 0.000000
0.293750 0.343750 0.000000
0.323125 0.343750 0.000000
0.352500 0.343750 0.000000
0.381875 0.343750 0.000000
0.411250 0.343750 0.000000
0.440625 0.343750 0.000000
0.470000 0.343750 0.000000
0.499375 0.343750 0.000000
0.528750 0.343750 0.000000
0.558125 0.343750 0.000000
0.587500 0.343750 0.000000
0.616875 0.343750 0.000000
0.646250 0.343750 0.000000
0.675625 0.343750 0.000000
0.705000 0.343750 0.000000
0.734375 0.343750 0.000000
0.763750 0.343750 0.000000
0.793125 0.343750 0.000000
0.822500 0.343750 0.000000
0.851875 0.343750 0.000000
0.881250 0.343750 0.000000
0.910625 0.343750 0.000000
0.940000 0.343750 0.000000
0.000000 0.375000 0.000000
0.029375 0.375000 0.000000
0.058750 0.375000 0.000000
0.088125 0.375000 0.000000
0.117500 0.375000 0.000000
0.146875 0.375000 0.000000
0.176250 0.375000 0.000000
0.205625 0.375000 0.000000
0.235000 0.375000 0.000000
0.264375 0.375000 0.000000
0.293750 0.375000 0.000000
0.323125 0.375000 0.000000
0.352500 0.375000 0.000000
0.381875 0.375000 0.000000
0.411250 0.375000 0.000000
0.440625 0.375000 0.000000
0.470000 0.375000 0.000000
0.499375 0.375000 0.000000
0.528750 0.375000 0.000000
0.558125 0.375000 0.000000
0.587500 0.375000 0.000000
0.616875 0.375000 0.000000
0.646250 0.375000 0.000000
0.675625 0.375000 0.000000
0.705000 0.375000 0.000000
0.734375 0.375000 0.000000
0.763750 0.375000 0.000000
0.793125 0.375000 0.000000
0.822500 0.375000 0.000000
0.851875 0.375000 0.000000
0.881250 0.375000 0.000000
0.910625 0.375000 0.000000
0.940000 0.375000 0.000000
0.000000 0.406250 0.000000
0.029375 0.406250 0.000000
0.058750 0.406250 0.000000
0.088125 0.406250 0.000000
0.117500 0.406250 0.000000
0.146875 0.406250 0.000000
0.176250 0.406250 0.000000
0.205625 0.406250 0.000000
0.235000 0.406250 0.000000
0.264375 0.406250 0.000000
0.293750 0.406250 0.000000
0.323125 0.406250 0.000000
0.352500 0.406250 0.000000
0.381875 0.406250 0.000000
0.411250 0.406250 0.000000
0.440625 0.406250 0.000000
0.470000 0.406250 0.000000
0.499375 0.406250 0.000000
0.528750 0.406250 0.000000
0.558125 0.406250 0.000000
0.587500 0.406250 0.000000
0.616875 0.406250 0.000000
0.646250 0.406250 0.000000
0.675625 0.406250 0.000000
0.705000 0.406250 0.000000
0.734375 0.406250 0.000000
0.763750 0.406250 0.000000
0.793125 0.406250 0.000000
0.822500 0.406250 0.000000
0.851875 0.406250 0.000000
0.881250 0.406250 0.000000
0.910625 0.406250 0.000000
0.940000 0.406250 0.000000
0.000000 0.437500 0.000000
0.029375 0.437500 0.000000
0.058750 0.437500 0.000000
0.088125 0.437500 0.000000
0.117500 0.437500 0.000000
0.146875 0.437500 0.000000
0.176250 0.437500 0.000000
0.205625 0.437500 0.000000
0.235000 0.437500 0.000000
0.264375 0.437500 0.000000
0.293750 0.437500 0.000000
0.323125 0.437500 0.000000
0.352500 0.437500 0.000000
0.381875 0.437500 0.000000
0.411250 0.437500 0.000000
0.440625 0.437500 0.000000
0.470000 0.437500 0.000000
0.499375 0.437500 0.000000
0.528750 0.437500 0.000000
0.558125 0.437500 0.000000
0.587500 0.437500 0.000000
0.616875 0.437500 0.000000
0.646250 0.437500 0.000000
0.675625 0.437500 0.000000
0.705000 0.437500 0.000000
0.734375 0.437500 0.000000
0.763750 0.437500 0.000000
0.793125 0.437500 0.000000
0.822500 0.437500 0.000000
0.851875 0.437500 0.000000
0.881250 0.437500 0.000000
0.910625 0.437500 0.000000
0.940000 0.437500 0.000000
0.000000 0.468750 0.000000
0.029375 0.468750 0.000000
0.058750 0.468750 0.000000
0.088125 0.468750 0.000000
0.117500 0.468750 0.000000
0.146875 0.468750 0.000000
0.176250 0.468750 0.000000
0.205625 0.468750 0.000000
0.235000 0.468750 0.000000
0.264375 0.468750 0.000000
0.293750 0.468750 0.000000
0.323125 0.468750 0.000000
0.352500 0.468750 0.000000
0.381875 0.468750 0.000000
0.411250 0.468750 0.000000
0.440625 0.468750 0.000000
0.470000 0.468750 0.000000
0.499375 0.468750 0.000000
0.528750 0.468750 0.000000
0.558125 0.468750 0.000000
0.587500 0.468750 0.000000
0.616875 0.468750 0.000000
0.646250 0.468750 0.000000
0.675625 0.468750 0.000000
0.705000 0.468750 0.000000
0.734375 0.468750 0.000000
0.763750 0.468750 0.000000
0.793125 0.468750 0.000000
0.822500 0.468750 0.000000
0.851875 0.468750 0.000000
0.881250 0.468750 0.000000
0.910625 0.468750 0.000000
0.940000 0.468750 0.000000
0.000000 0.500000 0.000000
0.029375 0.500000 0.000000
0.058750 0.500000 0.000000
0.088125 0.500000 0.000000
0.117500 0.500000 0.000000
0.146875 0.500000 0.000000
0.176250 0.500000 0.000000
0.205625 0.500000 0.000000
0.235000 0.500000 0.000000
0.264375 0.500000 0.000000
0.293750 0.500000 0.000000
0.323125 0.500000 0.000000
0.352500 0.500000 0.000000
0.381875 0.500000 0.000000
0.411250 0.500000 0.000000
0.440625 0.500000 0.000000
0.470000 0.500000 0.000000
0.499375 0.500000 0.000000
0.528750 0.500000 0.000000
0.558125 0.500000 0.000000
0.587500 0.500000 0.000000
0.616875 0.500000 0.000000
0.646250 0.500000 0.000000
0.675625 0.500000 0.000000
0.705000 0.500000 0.000000
0.734375 0.500000 0.000000
0.763750 0.500000 0.000000
0.793125 0.500000 0.000000
0.822500 0.500000 0.000000
0.851875 0.500000 0.000000
0.881250 0.500000 0.000000
0.910625 0.500000 0.000000
0.940000 0.500000 0.000000
0.000000 0.531250 0.000000
0.029375 0.531250 0.000000
0.058750 0.531250 0.000000
0.088125 0.531250 0.000000
0.117500 0.531250 0.000000
0.146875 0.531250 0.000000
0.176250 0.531250 0.000000
0.205625 0.531250 0.000000
0.235000 0.531250 0.000000
0.264375 0.531250 0.000000
0.293750 0.531250 0.000000
0.323125 0.531250 0.000000
0.352500 0.531250 0.000000
0.381875 0.531250 0.000000
0.411250 0.531250 0.000000
0.440625 0.531250 0.000000
0.470000 0.531250 0.000000
0.499375 0.531250 0.000000
0.528750 0.531250 0.000000
0.558125 0.531250 0.000000
0.587500 0.531250 0.000000
0.616875 0.531250 0.000000
0.646250 0.531250 0.000000
0.675625 0.531250 0.000000
0.705000 0.531250 0.000000
0.734375 0.531250 0.000000
0.763750 0.531250 0.000000
0.793125 0.531250 0.000000
0.822500 0.531250 0.000000
0.851875 0.531250 0.000000
0.881250 0.531250 0.000000
0.910625 0.531250 0.000000
0.940000 0.531250 0.000000
0.000000 0.562500 0.000000
0.029375 0.562500 0.000000
0.058750 0.562500 0.000000
0.088125 0.562500 0.000000
0.117500 0.562500 0.000000
0.146875 0.562500 0.000000
0.176250 0.562500 0.000000
0.205625 0.562500 0.000000
0.235000 0.562500 0.000000
0.264375 0.562500 0.000000
0.293750 0.562500 0.000000
0.323125 0.562500 0.000000
0.352500 0.562500 0.000000
0.381875 0.562500 0.000000
0.411250 0.562500 0.000000
0.440625 0.562500 0.000000
0.470000 0.562500 0.000000
0.499375 0.562500 0.000000
0.528750 0.562500 0.000000
0.558125 0.562500 0.000000
0.587500 0.562500 0.000000
0.616875 0.562500 0.000000
0.646250 0.562500 0.000000
0.675625 0.562500 0.000000
0.705000 0.562500 0.000000
0.734375 0.562500 0.000000
0.763750 0.562500 0.000000
0.793125 0.562500 0.000000
0.822500 0.562500 0.000000
0.851875 0.562500 0.000000
0.881250 0.562500 0.000000
0.910625 0.562500 0.000000
0.940000 0.562500 0.000000
0.000000 0.593750 0.000000
0.029375 0.593750 0.000000
0.058750 0.593750 0.000000
0.088125 0.593750 0.000000
0.117500 0.593750 0.000000
0.146875 0.593750 0.000000
0.176250 0.593750 0.000000
0.205625 0.593750 0.000000
0.235000 0.593750 0.000000
0.264375 0.593750 0.000000
0.293750 0.593750 0.000000
0.323125 0.593750 0.000000
0.352500 0.593750 0.000000
0.381875 0.593750 0.000000
0.411250 0.593750 0.000000
0.440625 0.593750 0.000000
0.470000 0.593750 0.000000
0.499375 0.593750 0.000000
0.528750 0.593750 0.000000
0.558125 0.593750 0.000000
0.587500 0.593750 0.000000
0.616875 0.593750 0.000000
0.646250 0.593750 0.000000
0.675625 0.593750 0.000000
0.705000 0.593750 0.000000
0.734375 0.593750 0.000000
0.763750 0.593750 0.000000
0.793125 0.593750 0.000000
0.822500 0.593750 0.000000
0.851875 0.593750 0.000000
0.881250 0.593750 0.000000
0.910625 0.593750 0.000000
0.940000 0.593750 0.000000
0.000000 0.625000 0.000000
0.029375 0.625000 0.000000
0.058750 0.625000 0.000000
0.088125 0.625000 0.000000
0.117500 0.625000 0.000000
0.146875 0.625000 0.000000
0.176250 0.625000 0.000000
0.205625 0.625000 0.000000
0.235000 0.625000 0.000000
0.264375 0.625000 0.000000
0.293750 0.625000 0.000000
0.323125 0.625000 0.000000
0.352500 0.625000 0.000000
0.381875 0.625000 0.000000
0.411250 0.625000 0.000000
0.440625 0.625000 0.000000
0.470000 0.625000 0.000000
0.499375 0.625000 0.000000
0.528750 0.625000 0.000000
0.558125 0.625000 0.000000
0.587500 0.625000 0.000000
0.616875 0.625000 0.000000
0.646250 0.625000 0.000000
0.675625 0.625000 0.000000
0.705000 0.625000 0.000000
0.734375 0.625000 0.000000
0.763750 0.625000 0.000000
0.793125 0.625000 0.000000
0.822500 0.625000 0.000000
0.851875 0.625000 0.000000
0.881250 0.625000 0.000000
0.910625 0.625000 0.000000
0.940000 0.625000 0.000000
0.000000 0.656250 0.000000
0.029375 0.656250 0.000000
0.058750 0.656250 0.000000
0.088125 0.656250 0.000000
0.117500 0.656250 0.000000
0.146875 0.656250 0.000000
0.176250 0.656250 0.000000
0.205625 0.656250 0.000000
0.235000 0.656250 0.000000
0.264375 0.656250 0.000000
0.293750 0.656250 0.000000
0.323125 0.656250 0.000000
0.352500 0.656250 0.000000
0.381875 0.656250 0.000000
0.411250 0.656250 0.000000
0.440625 0.656250 0.000000
0.470000 0.656250 0.000000
0.499375 0.656250 0.000000
0.528750 0.656250 0.000000
0.558125 0.656250 0.000000
0.587500 0.656250 0.000000
0.616875 0.656250 0.000000
0.646250 0.656250 0.000000
0.675625 0.656250 0.000000
0.705000 0.656250 0.000000
0.734375 0.656250 0.000000
0.763750 0.656250 0.000000
0.793125 0.656250 0.000000
0.822500 0.656250 0.000000
0.851875 0.656250 0.000000
0.881250 0.656250 0.000000
0.910625 0.656250 0.000000
0.940000 0.656250 0.000000
0.000000 0.687500 0.000000
0.029375 0.687500 0.000000
0.058750 0.687500 0.000000
0.088125 0.687500 0.000000
0.117500 0.687500 0.000000
0.146875 0.687500 0.000000
0.176250 0.687500 0.000000
0.205625 0.687500 0.000000
0.235000 0.687500 0.000000
0.264375 0.687500 0.000000
0.293750 0.687500 0.000000
0.323125 0.687500 0.000000
0.352500 0.687500 0.000000
0.381875 0.687500 0.000000
0.411250 0.687500 0.000000
0.440625 0.687500 0.000000
0.470000 0.687500 0.000000
0.499375 0.687500 0.000000
0.528750 0.687500 0.000000
0.558125 0.687500 0.000000
0.587500 0.687500 0.000000
0.616875 0.687500 0.000000
0.646250 0.687500 0.000000
0.675625 0.687500 0.000000
0.705000 0.687500 0.000000
0.734375 0.687500 0.000000
0.763750 0.687500 0.000000
0.793125 0.687500 0.000000
0.822500 0.687500 0.000000
0.851875 0.687500 0.000000
0.881250 0.687500 0.000000
0.910625 0.687500 0.000000
0.940000 0.687500 0.000000
0.000000 0.718750 0.000000
0.029375 0.718750 0.000000
0.058750 0.718750 0.000000
0.088125 0.718750 0.000000
0.117500 0.718750 0.000000
0.146875 0.718750 0.000000
0.176250 0.718750 0.000000
0.205625 0.718750 0.000000
0.235000 0.718750 0.000000
0.264375 0.718750 0.000000
0.293750 0.718750 0.000000
0.323125 0.718750 0.000000
0.352500 0.718750 0.000000
0.381875 0.718750 0.000000
0.411250 0.718750 0.000000
0.440625 0.718750 0.000000
0.470000 0.718750 0.000000
0.499375 0.718750 0.000000
0.528750 0.718750 0.000000
0.558125 0.718750 0.000000
0.587500 0.718750 0.000000
0.616875 0.718750 0.000000
0.646250 0.718750 0.000000
0.675625 0.718750 0.000000
0.705000 0.718750 0.000000
0.734375 0.718750 0.000000
0.763750 0.718750 0.000000
0.793125 0.718750 0.000000
0.822500 0.718750 0.000000
0.851875 0.718750 0.000000
0.881250 0.718750 0.000000
0.910625 0.718750 0.000000
0.940000 0.718750 0.000000
0.000000 0.750000 0.000000
0.029375 0.750000 0.000000
0.058750 0.750000 0.000000
0.088125 0.750000 0.000000
0.117500 0.750000 0.000000
0.146875 0.750000 0.000000
0.176250 0.750000 0.000000
0.205625 0.750000 0.000000
0.235000 0.750000 0.000000
0.264375 0.750000 0.000000
0.293750 0.750000 0.000000
0.323125 0.750000 0.000000
0.352500 0.750000 0.000000
0.381875 0.750000 0.000000
0.411250 0.750000 0.000000
0.440625 0.750000 0.000000
0.470000 0.750000 0.000000
0.499375 0.750000 0.000000
0.528750 0.750000 0.000000
0.558125 0.750000 0.000000
0.587500 0.750000 0.000000
0.616875 0.750000 0.000000
0.646250 0.750000 0.000000
0.675625 0.750000 0.000000
0.705000 0.750000 0.000000
0.734375 0.750000 0.000000
0.763750 0.750000 0.000000
0.793125 0.750000 0.000000
0.822500 0.750000 0.000000
0.851875 0.750000 0.000000
0.881250 0.750000 0.000000
0.910625 0.750000 0.000000
0.940000 0.750000 0.000000
0.000000 0.781250 0.000000
0.029375 0.781250 0.000000
0.058750 0.781250 0.000000
0.088125 0.781250 0.000000
0.117500 0.781250 0.000000
0.146875 0.781250 0.000000
0.176250 0.781250 0.000000
0.205625 0.781250 0.000000
0.235000 0.781250 0.000000
0.264375 0.781250 0.000000
0.293750 0.781250 0.000000
0.323125 0.781250 0.000000
0.352500 0.781250 0.000000
0.381875 0.781250 0.000000
0.411250 0.781250 0.000000
0.440625 0.781250 0.000000
0.470000 0.781250 0.000000
0.499375 0.781250 0.000000
0.528750 0.781250 0.000000
0.558125 0.781250 0.000000
0.587500 0.781250 0.000000
0.616875 0.781250 0.000000
0.646250 0.781250 0.000000
0.675625 0.781250 0.000000
0.705000 0.781250 0.000000
0.734375 0.781250 0.000000
0.763750 0.781250 0.000000
0.793125 0.781250 0.000000
0.822500 0.781250 0.000000
0.851875 0.781250 0.000000
0.881250 0.781250 0.000000
0.910625 0.781250 0.000000
0.940000 0.781250 0.000000
0.000000 0.812500 0.000000
0.029375 0.812500 0.000000
0.058750 0.812500 0.000000
0.088125 0.812500 0.000000
0.117500 0.812500 0.000000
0.146875 0.812500 0.000000
0.176250 0.812500 0.000000
0.205625 0.812500 0.000000
0.235000 0.812500 0.000000
0.264375 0.812500 0.000000
0.293750 0.812500 0.000000
0.323125 0.812500 0.000000
0.352500 0.812500 0.000000
0.381875 0.812500 0.000000
0.411250 0.812500 0.000000
0.440625 0.812500 0.000000
0.470000 0.812500 0.000000
0.499375 0.812500 0.000000
0.528750 0.812500 0.000000
0.558125 0.812500 0.000000
0.587500 0.812500 0.000000
0.616875 0.812500 0.000000
