tests/assets/LUTs/generated/cool_33.cube
# cool_33.cube
# Generated by generate-luts.py for CodeBrix.VideoPlayback.
# PUBLIC DOMAIN (CC0 1.0 Universal). No rights reserved.
# Definition: out = clamp(in * (0.94, 1.00, 1.06)) per channel.
TITLE "Cool 33"
LUT_3D_SIZE 5
0.000000 0.000000 0.000000
0.235000 0.000000 0.000000
0.470000 0.000000 0.000000
0.705000 0.000000 0.000000
0.940000 0.000000 0.000000
0.000000 0.250000 0.000000
0.235000 0.250000 0.000000
0.470000 0.250000 0.000000
0.705000 0.250000 0.000000
0.940000 0.250000 0.000000
0.000000 0.500000 0.000000
0.235000 0.500000 0.000000
0.470000 0.500000 0.000000
0.705000 0.500000 0.000000
0.940000 0.500000 0.000000
0.000000 0.750000 0.000000
0.235000 0.750000 0.000000
0.470000 0.750000 0.000000
0.705000 0.750000 0.000000
0.940000 0.750000 0.000000
0.000000 1.000000 0.000000
0.235000 1.000000 0.000000
0.470000 1.000000 0.000000
0.705000 1.000000 0.000000
0.940000 1.000000 0.000000
0.000000 0.000000 0.265000
0.235000 0.000000 0.265000
0.470000 0.000000 0.265000
0.705000 0.000000 0.265000
0.940000 0.000000 0.265000
0.000000 0.250000 0.265000
0.235000 0.250000 0.265000
0.470000 0.250000 0.265000
0.705000 0.250000 0.265000
0.940000 0.250000 0.265000
0.000000 0.500000 0.265000
0.235000 0.500000 0.265000
0.470000 0.500000 0.265000
0.705000 0.500000 0.265000
0.940000 0.500000 0.265000
0.000000 0.750000 0.265000
0.235000 0.750000 0.265000
0.470000 0.750000 0.265000
0.705000 0.750000 0.265000
0.940000 0.750000 0.265000
0.000000 1.000000 0.265000
0.235000 1.000000 0.265000
0.470000 1.000000 0.265000
0.705000 1.000000 0.265000
0.940000 1.000000 0.265000
0.000000 0.000000 0.530000
0.235000 0.000000 0.530000
0.470000 0.000000 0.530000
0.705000 0.000000 0.530000
0.940000 0.000000 0.530000
0.000000 0.250000 0.530000
0.235000 0.250000 0.530000
0.470000 0.250000 0.530000
0.705000 0.250000 0.530000
0.940000 0.250000 0.530000
0.000000 0.500000 0.530000
0.235000 0.500000 0.530000
0.470000 0.500000 0.530000
0.705000 0.500000 0.530000
0.940000 0.500000 0.530000
0.000000 0.750000 0.530000
0.235000 0.750000 0.530000
0.470000 0.750000 0.530000
0.705000 0.750000 0.530000
0.940000 0.750000 0.530000
0.000000 1.000000 0.530000
0.235000 1.000000 0.530000
0.470000 1.000000 0.530000
0.705000 1.000000 0.530000
0.940000 1.000000 0.530000
0.000000 0.000000 0.795000
0.235000 0.000000 0.795000
0.470000 0.000000 0.795000
0.705000 0.000000 0.795000
0.940000 0.000000 0.795000
0.000000 0.250000 0.795000
0.235000 0.250000 0.795000
0.470000 0.250000 0.795000
0.705000 0.250000 0.795000
0.940000 0.250000 0.795000
0.000000 0.500000 0.795000
0.235000 0.500000 0.795000
0.470000 0.500000 0.795000
0.705000 0.500000 0.795000
0.940000 0.500000 0.795000
0.000000 0.750000 0.795000
0.235000 0.750000 0.795000
0.470000 0.750000 0.795000
0.705000 0.750000 0.795000
0.940000 0.750000 0.795000
0.000000 1.000000 0.795000
0.235000 1.000000 0.795000
0.470000 1.000000 0.795000
0.705000 1.000000 0.795000
0.940000 1.000000 0.795000
0.000000 0.000000 1.000000
0.235000 0.000000 1.000000
0.470000 0.000000 1.000000
0.705000 0.000000 1.000000
0.940000 0.000000 1.000000
0.000000 0.250000 1.000000
0.235000 0.250000 1.000000
0.470000 0.250000 1.000000
0.705000 0.250000 1.000000
0.940000 0.250000 1.000000
0.000000 0.500000 1.000000
0.235000 0.500000 1.000000
0.470000 0.500000 1.000000
0.705000 0.500000 1.000000
0.940000 0.500000 1.000000
0.000000 0.750000 1.000000
0.235000 0.750000 1.000000
0.470000 0.750000 1.000000
0.705000 0.750000 1.000000
0.940000 0.750000 1.000000
0.000000 1.000000 1.000000
0.235000 1.000000 1.000000
0.470000 1.000000 1.000000
0.705000 1.000000 1.000000
0.940000 1.000000 1.000000
