tests/assets/LUTs/generated/gamma_2_2_1d_1024.cube
# gamma_2_2_1d_1024.cube
# Generated by generate-luts.py for CodeBrix.VideoPlayback.
# PUBLIC DOMAIN (CC0 1.0 Universal). No rights reserved.
# Definition: 1D table, 1024 points. Point i holds x^(1/2.2) on all three channels, x = i/1023.
TITLE "Gamma 2.2 Encode 1D"
LUT_1D_SIZE 1024

0.000000 0.000000 0.000000
0.042842 0.042842 0.042842
0.058709 0.058709 0.058709
0.070591 0.070591 0.070591
0.080452 0.080452 0.080452
0.089041 0.089041 0.089041
0.096734 0.096734 0.096734
0.103755 0.103755 0.103755
0.110248 0.110248 0.110248
0.116311 0.116311 0.116311
0.122017 0.122017 0.122017
0.127419 0.127419 0.127419
0.132560 0.132560 0.132560
0.137471 0.137471 0.137471
0.142181 0.142181 0.142181
0.146711 0.146711 0.146711
0.151078 0.151078 0.151078
0.155299 0.155299 0.155299
0.159387 0.159387 0.159387
0.163353 0.163353 0.163353
0.167206 0.167206 0.167206
0.170956 0.170956 0.170956
0.174609 0.174609 0.174609
0.178173 0.178173 0.178173
0.181653 0.181653 0.181653
0.185055 0.185055 0.185055
0.188384 0.188384 0.188384
0.191644 0.191644 0.191644
0.194838 0.194838 0.194838
0.197971 0.197971 0.197971
0.201045 0.201045 0.201045
0.204064 0.204064 0.204064
0.207030 0.207030 0.207030
0.209946 0.209946 0.209946
0.212815 0.212815 0.212815
0.215637 0.215637 0.215637
0.218416 0.218416 0.218416
0.221153 0.221153 0.221153
0.223851 0.223851 0.223851
0.226509 0.226509 0.226509
0.229131 0.229131 0.229131
0.231717 0.231717 0.231717
0.234269 0.234269 0.234269
0.236788 0.236788 0.236788
0.239276 0.239276 0.239276
0.241732 0.241732 0.241732
0.244160 0.244160 0.244160
0.246558 0.246558 0.246558
0.248929 0.248929 0.248929
0.251273 0.251273 0.251273
0.253591 0.253591 0.253591
0.255884 0.255884 0.255884
0.258152 0.258152 0.258152
0.260397 0.260397 0.260397
0.262619 0.262619 0.262619
0.264819 0.264819 0.264819
0.266997 0.266997 0.266997
0.269153 0.269153 0.269153
0.271289 0.271289 0.271289
0.273406 0.273406 0.273406
0.275502 0.275502 0.275502
0.277580 0.277580 0.277580
0.279639 0.279639 0.279639
0.281680 0.281680 0.281680
0.283704 0.283704 0.283704
0.285711 0.285711 0.285711
0.287700 0.287700 0.287700
0.289673 0.289673 0.289673
0.291631 0.291631 0.291631
0.293572 0.293572 0.293572
0.295499 0.295499 0.295499
0.297410 0.297410 0.297410
0.299307 0.299307 0.299307
0.301189 0.301189 0.301189
0.303058 0.303058 0.303058
0.304913 0.304913 0.304913
0.306754 0.306754 0.306754
0.308582 0.308582 0.308582
0.310397 0.310397 0.310397
0.312200 0.312200 0.312200
0.313990 0.313990 0.313990
0.315768 0.315768 0.315768
0.317534 0.317534 0.317534
0.319288 0.319288 0.319288
0.321031 0.321031 0.321031
0.322763 0.322763 0.322763
0.324483 0.324483 0.324483
0.326193 0.326193 0.326193
0.327892 0.327892 0.327892
0.329580 0.329580 0.329580
0.331258 0.331258 0.331258
0.332926 0.332926 0.332926
0.334584 0.334584 0.334584
0.336232 0.336232 0.336232
0.337871 0.337871 0.337871
0.339500 0.339500 0.339500
0.341120 0.341120 0.341120
0.342731 0.342731 0.342731
0.344332 0.344332 0.344332
0.345925 0.345925 0.345925
0.347509 0.347509 0.347509
0.349084 0.349084 0.349084
0.350651 0.350651 0.350651
0.352209 0.352209 0.352209
0.353759 0.353759 0.353759
0.355302 0.355302 0.355302
0.356836 0.356836 0.356836
0.358362 0.358362 0.358362
0.359880 0.359880 0.359880
0.361391 0.361391 0.361391
0.362895 0.362895 0.362895
0.364390 0.364390 0.364390
0.365879 0.365879 0.365879
0.367360 0.367360 0.367360
0.368834 0.368834 0.368834
0.370302 0.370302 0.370302
0.371762 0.371762 0.371762
0.373215 0.373215 0.373215
0.374662 0.374662 0.374662
0.376102 0.376102 0.376102
0.377535 0.377535 0.377535
0.378962 0.378962 0.378962
0.380382 0.380382 0.380382
0.381796 0.381796 0.381796
0.383204 0.383204 0.383204
0.384606 0.384606 0.384606
0.386001 0.386001 0.386001
0.387391 0.387391 0.387391
0.388774 0.388774 0.388774
0.390152 0.390152 0.390152
0.391524 0.391524 0.391524
0.392890 0.392890 0.392890
0.394250 0.394250 0.394250
0.395605 0.395605 0.395605
0.396954 0.396954 0.396954
0.398298 0.398298 0.398298
0.399636 0.399636 0.399636
0.400969 0.400969 0.400969
0.402297 0.402297 0.402297
0.403620 0.403620 0.403620
0.404937 0.404937 0.404937
0.406249 0.406249 0.406249
0.407556 0.407556 0.407556
0.408858 0.408858 0.408858
0.410156 0.410156 0.410156
0.411448 0.411448 0.411448
0.412735 0.412735 0.412735
0.414018 0.414018 0.414018
0.415296 0.415296 0.415296
0.416569 0.416569 0.416569
0.417837 0.417837 0.417837
0.419101 0.419101 0.419101
0.420360 0.420360 0.420360
0.421615 0.421615 0.421615
0.422866 0.422866 0.422866
0.424111 0.424111 0.424111
0.425353 0.425353 0.425353
0.426590 0.426590 0.426590
0.427823 0.427823 0.427823
0.429052 0.429052 0.429052
0.430276 0.430276 0.430276
0.431497 0.431497 0.431497
0.432713 0.432713 0.432713
0.433925 0.433925 0.433925
0.435133 0.435133 0.435133
0.436337 0.436337 0.436337
0.437537 0.437537 0.437537
0.438733 0.438733 0.438733
0.439925 0.439925 0.439925
0.441114 0.441114 0.441114
0.442298 0.442298 0.442298
0.443479 0.443479 0.443479
0.444656 0.444656 0.444656
0.445829 0.445829 0.445829
0.446999 0.446999 0.446999
0.448165 0.448165 0.448165
0.449327 0.449327 0.449327
0.450485 0.450485 0.450485
0.451641 0.451641 0.451641
0.452792 0.452792 0.452792
0.453940 0.453940 0.453940
0.455085 0.455085 0.455085
0.456226 0.456226 0.456226
0.457364 0.457364 0.457364
0.458498 0.458498 0.458498
0.459629 0.459629 0.459629
0.460757 0.460757 0.460757
0.461881 0.461881 0.461881
0.463002 0.463002 0.463002
0.464120 0.464120 0.464120
0.465234 0.465234 0.465234
0.466346 0.466346 0.466346
0.467454 0.467454 0.467454
0.468559 0.468559 0.468559
0.469661 0.469661 0.469661
0.470760 0.470760 0.470760
0.471856 0.471856 0.471856
0.472949 0.472949 0.472949
0.474038 0.474038 0.474038
0.475125 0.475125 0.475125
0.476209 0.476209 0.476209
0.477290 0.477290 0.477290
0.478368 0.478368 0.478368
0.479443 0.479443 0.479443
0.480515 0.480515 0.480515
0.481584 0.481584 0.481584
0.482650 0.482650 0.482650
0.483714 0.483714 0.483714
0.484775 0.484775 0.484775
0.485833 0.485833 0.485833
0.486888 0.486888 0.486888
0.487940 0.487940 0.487940
0.488990 0.488990 0.488990
0.490037 0.490037 0.490037
0.491082 0.491082 0.491082
0.492123 0.492123 0.492123
0.493163 0.493163 0.493163
0.494199 0.494199 0.494199
0.495233 0.495233 0.495233
0.496264 0.496264 0.496264
0.497293 0.497293 0.497293
0.498319 0.498319 0.498319
0.499343 0.499343 0.499343
0.500364 0.500364 0.500364
0.501383 0.501383 0.501383
0.502399 0.502399 0.502399
0.503413 0.503413 0.503413
0.504424 0.504424 0.504424
0.505433 0.505433 0.505433
0.506439 0.506439 0.506439
0.507443 0.507443 0.507443
0.508445 0.508445 0.508445
0.509444 0.509444 0.509444
0.510441 0.510441 0.510441
0.511436 0.511436 0.511436
0.512428 0.512428 0.512428
0.513418 0.513418 0.513418
0.514406 0.514406 0.514406
0.515391 0.515391 0.515391
0.516374 0.516374 0.516374
0.517355 0.517355 0.517355
0.518334 0.518334 0.518334
0.519311 0.519311 0.519311
0.520285 0.520285 0.520285
0.521257 0.521257 0.521257
0.522227 0.522227 0.522227
0.523195 0.523195 0.523195
0.524160 0.524160 0.524160
0.525124 0.525124 0.525124
0.526085 0.526085 0.526085
0.527045 0.527045 0.527045
0.528002 0.528002 0.528002
0.528957 0.528957 0.528957
0.529910 0.529910 0.529910
0.530861 0.530861 0.530861
0.531810 0.531810 0.531810
0.532757 0.532757 0.532757
0.533702 0.533702 0.533702
0.534645 0.534645 0.534645
0.535586 0.535586 0.535586
0.536525 0.536525 0.536525
0.537462 0.537462 0.537462
0.538397 0.538397 0.538397
0.539330 0.539330 0.539330
0.540261 0.540261 0.540261
0.541190 0.541190 0.541190
0.542118 0.542118 0.542118
0.543043 0.543043 0.543043
0.543967 0.543967 0.543967
0.544888 0.544888 0.544888
0.545808 0.545808 0.545808
0.546726 0.546726 0.546726
0.547642 0.547642 0.547642
0.548557 0.548557 0.548557
0.549469 0.549469 0.549469
0.550380 0.550380 0.550380
0.551288 0.551288 0.551288
0.552195 0.552195 0.552195
0.553101 0.553101 0.553101
0.554004 0.554004 0.554004
0.554906 0.554906 0.554906
0.555806 0.555806 0.555806
0.556704 0.556704 0.556704
0.557600 0.557600 0.557600
0.558495 0.558495 0.558495
0.559388 0.559388 0.559388
0.560279 0.560279 0.560279
0.561169 0.561169 0.561169
0.562057 0.562057 0.562057
0.562943 0.562943 0.562943
0.563828 0.563828 0.563828
0.564711 0.564711 0.564711
0.565592 0.565592 0.565592
0.566472 0.566472 0.566472
0.567350 0.567350 0.567350
0.568226 0.568226 0.568226
0.569101 0.569101 0.569101
0.569974 0.569974 0.569974
0.570845 0.570845 0.570845
0.571715 0.571715 0.571715
0.572584 0.572584 0.572584
0.573450 0.573450 0.573450
0.574316 0.574316 0.574316
0.575179 0.575179 0.575179
0.576041 0.576041 0.576041
0.576902 0.576902 0.576902
0.577761 0.577761 0.577761
0.578618 0.578618 0.578618
0.579474 0.579474 0.579474
0.580329 0.580329 0.580329
0.581182 0.581182 0.581182
0.582033 0.582033 0.582033
0.582883 0.582883 0.582883
0.583731 0.583731 0.583731
0.584578 0.584578 0.584578
0.585424 0.585424 0.585424
0.586268 0.586268 0.586268
0.587110 0.587110 0.587110
0.587952 0.587952 0.587952
0.588791 0.588791 0.588791
0.589630 0.589630 0.589630
0.590466 0.590466 0.590466
0.591302 0.591302 0.591302
0.592136 0.592136 0.592136
0.592968 0.592968 0.592968
0.593800 0.593800 0.593800
0.594629 0.594629 0.594629
0.595458 0.595458 0.595458
0.596285 0.596285 0.596285
0.597110 0.597110 0.597110
0.597935 0.597935 0.597935
0.598758 0.598758 0.598758
0.599579 0.599579 0.599579
0.600399 0.600399 0.600399
0.601218 0.601218 0.601218
0.602036 0.602036 0.602036
0.602852 0.602852 0.602852
0.603667 0.603667 0.603667
0.604481 0.604481 0.604481
0.605293 0.605293 0.605293
0.606104 0.606104 0.606104
0.606913 0.606913 0.606913
0.607722 0.607722 0.607722
0.608529 0.608529 0.608529
0.609335 0.609335 0.609335
0.610139 0.610139 0.610139
0.610942 0.610942 0.610942
0.611744 0.611744 0.611744
0.612545 0.612545 0.612545
0.613344 0.613344 0.613344
0.614143 0.614143 0.614143
0.614940 0.614940 0.614940
0.615735 0.615735 0.615735
0.616530 0.616530 0.616530
0.617323 0.617323 0.617323
0.618115 0.618115 0.618115
0.618906 0.618906 0.618906
0.619696 0.619696 0.619696
0.620484 0.620484 0.620484
0.621271 0.621271 0.621271
0.622057 0.622057 0.622057
0.622842 0.622842 0.622842
0.623626 0.623626 0.623626
0.624408 0.624408 0.624408
0.625190 0.625190 0.625190
0.625970 0.625970 0.625970
0.626749 0.626749 0.626749
0.627526 0.627526 0.627526
0.628303 0.628303 0.628303
0.629079 0.629079 0.629079
0.629853 0.629853 0.629853
0.630626 0.630626 0.630626
0.631398 0.631398 0.631398
0.632169 0.632169 0.632169
0.632939 0.632939 0.632939
0.633708 0.633708 0.633708
0.634475 0.634475 0.634475
0.635242 0.635242 0.635242
0.636007 0.636007 0.636007
0.636771 0.636771 0.636771
0.637534 0.637534 0.637534
0.638296 0.638296 0.638296
0.639057 0.639057 0.639057
0.639817 0.639817 0.639817
0.640576 0.640576 0.640576
0.641334 0.641334 0.641334
0.642090 0.642090 0.642090
0.642846 0.642846 0.642846
0.643601 0.643601 0.643601
0.644354 0.644354 0.644354
0.645106 0.645106 0.645106
0.645858 0.645858 0.645858
0.646608 0.646608 0.646608
0.647357 0.647357 0.647357
0.648106 0.648106 0.648106
0.648853 0.648853 0.648853
0.649599 0.649599 0.649599
0.650344 0.650344 0.650344
0.651088 0.651088 0.651088
0.651831 0.651831 0.651831
0.652573 0.652573 0.652573
0.653314 0.653314 0.653314
0.654054 0.654054 0.654054
0.654793 0.654793 0.654793
0.655531 0.655531 0.655531
0.656268 0.656268 0.656268
0.657005 0.657005 0.657005
0.657740 0.657740 0.657740
0.658474 0.658474 0.658474
0.659207 0.659207 0.659207
0.659939 0.659939 0.659939
0.660670 0.660670 0.660670
0.661400 0.661400 0.661400
0.662129 0.662129 0.662129
0.662858 0.662858 0.662858
0.663585 0.663585 0.663585
0.664311 0.664311 0.664311
0.665037 0.665037 0.665037
0.665761 0.665761 0.665761
0.666485 0.666485 0.666485
0.667207 0.667207 0.667207
0.667929 0.667929 0.667929
0.668650 0.668650 0.668650
0.669369 0.669369 0.669369
0.670088 0.670088 0.670088
0.670806 0.670806 0.670806
0.671523 0.671523 0.671523
0.672239 0.672239 0.672239
0.672954 0.672954 0.672954
0.673668 0.673668 0.673668
0.674382 0.674382 0.674382
0.675094 0.675094 0.675094
0.675806 0.675806 0.675806
0.676516 0.676516 0.676516
0.677226 0.677226 0.677226
0.677935 0.677935 0.677935
0.678643 0.678643 0.678643
0.679350 0.679350 0.679350
0.680056 0.680056 0.680056
0.680761 0.680761 0.680761
0.681466 0.681466 0.681466
0.682169 0.682169 0.682169
0.682872 0.682872 0.682872
0.683574 0.683574 0.683574
0.684275 0.684275 0.684275
0.684975 0.684975 0.684975
0.685674 0.685674 0.685674
0.686373 0.686373 0.686373
0.687070 0.687070 0.687070
0.687767 0.687767 0.687767
0.688463 0.688463 0.688463
0.689158 0.689158 0.689158
0.689852 0.689852 0.689852
0.690545 0.690545 0.690545
0.691238 0.691238 0.691238
0.691929 0.691929 0.691929
0.692620 0.692620 0.692620
0.693310 0.693310 0.693310
0.693999 0.693999 0.693999
0.694688 0.694688 0.694688
0.695375 0.695375 0.695375
0.696062 0.696062 0.696062
0.696748 0.696748 0.696748
0.697433 0.697433 0.697433
0.698117 0.698117 0.698117
0.698801 0.698801 0.698801
0.699483 0.699483 0.699483
0.700165 0.700165 0.700165
0.700846 0.700846 0.700846
0.701527 0.701527 0.701527
0.702206 0.702206 0.702206
0.702885 0.702885 0.702885
0.703563 0.703563 0.703563
0.704240 0.704240 0.704240
0.704916 0.704916 0.704916
0.705592 0.705592 0.705592
0.706267 0.706267 0.706267
0.706941 0.706941 0.706941
0.707614 0.707614 0.707614
0.708287 0.708287 0.708287
0.708958 0.708958 0.708958
0.709629 0.709629 0.709629
0.710300 0.710300 0.710300
0.710969 0.710969 0.710969
0.711638 0.711638 0.711638
0.712306 0.712306 0.712306
0.712973 0.712973 0.712973
0.713639 0.713639 0.713639
0.714305 0.714305 0.714305
0.714970 0.714970 0.714970
0.715634 0.715634 0.715634
0.716298 0.716298 0.716298
0.716960 0.716960 0.716960
0.717622 0.717622 0.717622
0.718284 0.718284 0.718284
0.718944 0.718944 0.718944
0.719604 0.719604 0.719604
0.720263 0.720263 0.720263
0.720922 0.720922 0.720922
0.721579 0.721579 0.721579
0.722236 0.722236 0.722236
0.722892 0.722892 0.722892
0.723548 0.723548 0.723548
0.724203 0.724203 0.724203
0.724857 0.724857 0.724857
0.725510 0.725510 0.725510
0.726163 0.726163 0.726163
0.726815 0.726815 0.726815
0.727466 0.727466 0.727466
0.728117 0.728117 0.728117
0.728767 0.728767 0.728767
0.729416 0.729416 0.729416
0.730064 0.730064 0.730064
0.730712 0.730712 0.730712
0.731359 0.731359 0.731359
0.732006 0.732006 0.732006
0.732651 0.732651 0.732651
0.733296 0.733296 0.733296
0.733941 0.733941 0.733941
0.734584 0.734584 0.734584
0.735227 0.735227 0.735227
0.735870 0.735870 0.735870
0.736511 0.736511 0.736511
0.737152 0.737152 0.737152
0.737793 0.737793 0.737793
0.738432 0.738432 0.738432
0.739071 0.739071 0.739071
0.739710 0.739710 0.739710
0.740347 0.740347 0.740347
0.740984 0.740984 0.740984
0.741621 0.741621 0.741621
0.742257 0.742257 0.742257
0.742892 0.742892 0.742892
0.743526 0.743526 0.743526
0.744160 0.744160 0.744160
0.744793 0.744793 0.744793
0.745425 0.745425 0.745425
0.746057 0.746057 0.746057
0.746688 0.746688 0.746688
0.747319 0.747319 0.747319
0.747949 0.747949 0.747949
0.748578 0.748578 0.748578
0.749207 0.749207 0.749207
0.749835 0.749835 0.749835
0.750462 0.750462 0.750462
0.751089 0.751089 0.751089
0.751715 0.751715 0.751715
0.752340 0.752340 0.752340
0.752965 0.752965 0.752965
0.753590 0.753590 0.753590
0.754213 0.754213 0.754213
0.754836 0.754836 0.754836
0.755459 0.755459 0.755459
0.756080 0.756080 0.756080
0.756702 0.756702 0.756702
0.757322 0.757322 0.757322
0.757942 0.757942 0.757942
0.758561 0.758561 0.758561
0.759180 0.759180 0.759180
0.759798 0.759798 0.759798
0.760416 0.760416 0.760416
0.761033 0.761033 0.761033
0.761649 0.761649 0.761649
0.762265 0.762265 0.762265
0.762880 0.762880 0.762880
0.763494 0.763494 0.763494
0.764108 0.764108 0.764108
0.764722 0.764722 0.764722
0.765334 0.765334 0.765334
0.765947 0.765947 0.765947
0.766558 0.766558 0.766558
0.767169 0.767169 0.767169
0.767780 0.767780 0.767780
0.768389 0.768389 0.768389
0.768999 0.768999 0.768999
0.769607 0.769607 0.769607
0.770215 0.770215 0.770215
0.770823 0.770823 0.770823
0.771430 0.771430 0.771430
0.772036 0.772036 0.772036
0.772642 0.772642 0.772642
0.773247 0.773247 0.773247
0.773852 0.773852 0.773852
0.774456 0.774456 0.774456
0.775060 0.775060 0.775060
0.775663 0.775663 0.775663
0.776265 0.776265 0.776265
0.776867 0.776867 0.776867
0.777468 0.777468 0.777468
0.778069 0.778069 0.778069
0.778669 0.778669 0.778669
0.779269 0.779269 0.779269
0.779868 0.779868 0.779868
0.780466 0.780466 0.780466
0.781064 0.781064 0.781064
0.781662 0.781662 0.781662
0.782258 0.782258 0.782258
0.782855 0.782855 0.782855
0.783451 0.783451 0.783451
0.784046 0.784046 0.784046
0.784641 0.784641 0.784641
0.785235 0.785235 0.785235
0.785828 0.785828 0.785828
0.786421 0.786421 0.786421
0.787014 0.787014 0.787014
0.787606 0.787606 0.787606
0.788197 0.788197 0.788197
0.788788 0.788788 0.788788
0.789379 0.789379 0.789379
0.789969 0.789969 0.789969
0.790558 0.790558 0.790558
0.791147 0.791147 0.791147
0.791735 0.791735 0.791735
0.792323 0.792323 0.792323
0.792910 0.792910 0.792910
0.793497 0.793497 0.793497
0.794083 0.794083 0.794083
0.794669 0.794669 0.794669
0.795254 0.795254 0.795254
0.795839 0.795839 0.795839
0.796423 0.796423 0.796423
0.797006 0.797006 0.797006
0.797590 0.797590 0.797590
0.798172 0.798172 0.798172
0.798754 0.798754 0.798754
0.799336 0.799336 0.799336
0.799917 0.799917 0.799917
0.800497 0.800497 0.800497
0.801078 0.801078 0.801078
0.801657 0.801657 0.801657
0.802236 0.802236 0.802236
0.802815 0.802815 0.802815
0.803393 0.803393 0.803393
0.803970 0.803970 0.803970
0.804547 0.804547 0.804547
0.805124 0.805124 0.805124
0.805700 0.805700 0.805700
0.806276 0.806276 0.806276
0.806851 0.806851 0.806851
0.807425 0.807425 0.807425
0.807999 0.807999 0.807999
0.808573 0.808573 0.808573
0.809146 0.809146 0.809146
0.809719 0.809719 0.809719
0.810291 0.810291 0.810291
0.810863 0.810863 0.810863
0.811434 0.811434 0.811434
0.812005 0.812005 0.812005
0.812575 0.812575 0.812575
0.813145 0.813145 0.813145
0.813714 0.813714 0.813714
0.814283 0.814283 0.814283
0.814851 0.814851 0.814851
0.815419 0.815419 0.815419
0.815986 0.815986 0.815986
0.816553 0.816553 0.816553
0.817119 0.817119 0.817119
0.817685 0.817685 0.817685
0.818251 0.818251 0.818251
0.818816 0.818816 0.818816
0.819380 0.819380 0.819380
0.819945 0.819945 0.819945
0.820508 0.820508 0.820508
0.821071 0.821071 0.821071
0.821634 0.821634 0.821634
0.822196 0.822196 0.822196
0.822758 0.822758 0.822758
0.823319 0.823319 0.823319
0.823880 0.823880 0.823880
0.824440 0.824440 0.824440
0.825000 0.825000 0.825000
0.825560 0.825560 0.825560
0.826119 0.826119 0.826119
0.826677 0.826677 0.826677
0.827236 0.827236 0.827236
0.827793 0.827793 0.827793
0.828350 0.828350 0.828350
0.828907 0.828907 0.828907
0.829464 0.829464 0.829464
0.830019 0.830019 0.830019
0.830575 0.830575 0.830575
0.831130 0.831130 0.831130
0.831684 0.831684 0.831684
0.832238 0.832238 0.832238
0.832792 0.832792 0.832792
0.833345 0.833345 0.833345
0.833898 0.833898 0.833898
0.834450 0.834450 0.834450
0.835002 0.835002 0.835002
0.835554 0.835554 0.835554
0.836105 0.836105 0.836105
0.836655 0.836655 0.836655
0.837205 0.837205 0.837205
0.837755 0.837755 0.837755
0.838304 0.838304 0.838304
0.838853 0.838853 0.838853
0.839402 0.839402 0.839402
0.839950 0.839950 0.839950
0.840497 0.840497 0.840497
0.841044 0.841044 0.841044
0.841591 0.841591 0.841591
0.842137 0.842137 0.842137
0.842683 0.842683 0.842683
0.843229 0.843229 0.843229
0.843774 0.843774 0.843774
0.844318 0.844318 0.844318
0.844862 0.844862 0.844862
0.845406 0.845406 0.845406
0.845949 0.845949 0.845949
0.846492 0.846492 0.846492
0.847035 0.847035 0.847035
0.847577 0.847577 0.847577
0.848118 0.848118 0.848118
0.848660 0.848660 0.848660
0.849201 0.849201 0.849201
0.849741 0.849741 0.849741
0.850281 0.850281 0.850281
0.850821 0.850821 0.850821
0.851360 0.851360 0.851360
0.851898 0.851898 0.851898
0.852437 0.852437 0.852437
0.852975 0.852975 0.852975
0.853512 0.853512 0.853512
0.854049 0.854049 0.854049
0.854586 0.854586 0.854586
0.855123 0.855123 0.855123
0.855658 0.855658 0.855658
0.856194 0.856194 0.856194
0.856729 0.856729 0.856729
0.857264 0.857264 0.857264
0.857798 0.857798 0.857798
0.858332 0.858332 0.858332
0.858866 0.858866 0.858866
0.859399 0.859399 0.859399
0.859931 0.859931 0.859931
0.860464 0.860464 0.860464
0.860996 0.860996 0.860996
0.861527 0.861527 0.861527
0.862058 0.862058 0.862058
0.862589 0.862589 0.862589
0.863120 0.863120 0.863120
0.863650 0.863650 0.863650
0.864179 0.864179 0.864179
0.864708 0.864708 0.864708
0.865237 0.865237 0.865237
0.865766 0.865766 0.865766
0.866294 0.866294 0.866294
0.866821 0.866821 0.866821
0.867348 0.867348 0.867348
0.867875 0.867875 0.867875
0.868402 0.868402 0.868402
0.868928 0.868928 0.868928
0.869454 0.869454 0.869454
0.869979 0.869979 0.869979
0.870504 0.870504 0.870504
0.871029 0.871029 0.871029
0.871553 0.871553 0.871553
0.872077 0.872077 0.872077
0.872600 0.872600 0.872600
0.873123 0.873123 0.873123
0.873646 0.873646 0.873646
0.874168 0.874168 0.874168
0.874690 0.874690 0.874690
0.875212 0.875212 0.875212
0.875733 0.875733 0.875733
0.876254 0.876254 0.876254
0.876774 0.876774 0.876774
0.877294 0.877294 0.877294
0.877814 0.877814 0.877814
0.878333 0.878333 0.878333
0.878852 0.878852 0.878852
0.879371 0.879371 0.879371
0.879889 0.879889 0.879889
0.880407 0.880407 0.880407
0.880925 0.880925 0.880925
0.881442 0.881442 0.881442
0.881959 0.881959 0.881959
0.882475 0.882475 0.882475
0.882991 0.882991 0.882991
0.883507 0.883507 0.883507
0.884022 0.884022 0.884022
0.884537 0.884537 0.884537
0.885052 0.885052 0.885052
0.885566 0.885566 0.885566
0.886080 0.886080 0.886080
0.886594 0.886594 0.886594
0.887107 0.887107 0.887107
0.887620 0.887620 0.887620
0.888132 0.888132 0.888132
0.888644 0.888644 0.888644
0.889156 0.889156 0.889156
0.889667 0.889667 0.889667
0.890178 0.890178 0.890178
0.890689 0.890689 0.890689
0.891200 0.891200 0.891200
0.891710 0.891710 0.891710
0.892219 0.892219 0.892219
0.892729 0.892729 0.892729
0.893237 0.893237 0.893237
0.893746 0.893746 0.893746
0.894254 0.894254 0.894254
0.894762 0.894762 0.894762
0.895270 0.895270 0.895270
0.895777 0.895777 0.895777
0.896284 0.896284 0.896284
0.896791 0.896791 0.896791
0.897297 0.897297 0.897297
0.897803 0.897803 0.897803
0.898308 0.898308 0.898308
0.898813 0.898813 0.898813
0.899318 0.899318 0.899318
0.899823 0.899823 0.899823
0.900327 0.900327 0.900327
0.900831 0.900831 0.900831
0.901334 0.901334 0.901334
0.901837 0.901837 0.901837
0.902340 0.902340 0.902340
0.902843 0.902843 0.902843
0.903345 0.903345 0.903345
0.903846 0.903846 0.903846
0.904348 0.904348 0.904348
0.904849 0.904849 0.904849
0.905350 0.905350 0.905350
0.905850 0.905850 0.905850
0.906350 0.906350 0.906350
0.906850 0.906850 0.906850
0.907350 0.907350 0.907350
0.907849 0.907849 0.907849
0.908348 0.908348 0.908348
0.908846 0.908846 0.908846
0.909344 0.909344 0.909344
0.909842 0.909842 0.909842
0.910340 0.910340 0.910340
0.910837 0.910837 0.910837
0.911334 0.911334 0.911334
0.911830 0.911830 0.911830
0.912327 0.912327 0.912327
0.912822 0.912822 0.912822
0.913318 0.913318 0.913318
0.913813 0.913813 0.913813
0.914308 0.914308 0.914308
0.914803 0.914803 0.914803
0.915297 0.915297 0.915297
0.915791 0.915791 0.915791
0.916285 0.916285 0.916285
0.916778 0.916778 0.916778
0.917271 0.917271 0.917271
0.917764 0.917764 0.917764
0.918256 0.918256 0.918256
0.918748 0.918748 0.918748
0.919240 0.919240 0.919240
0.919731 0.919731 0.919731
0.920222 0.920222 0.920222
0.920713 0.920713 0.920713
0.921203 0.921203 0.921203
0.921694 0.921694 0.921694
0.922183 0.922183 0.922183
0.922673 0.922673 0.922673
0.923162 0.923162 0.923162
0.923651 0.923651 0.923651
0.924140 0.924140 0.924140
0.924628 0.924628 0.924628
0.925116 0.925116 0.925116
0.925604 0.925604 0.925604
0.926091 0.926091 0.926091
0.926578 0.926578 0.926578
0.927065 0.927065 0.927065
0.927551 0.927551 0.927551
0.928037 0.928037 0.928037
0.928523 0.928523 0.928523
0.929009 0.929009 0.929009
0.929494 0.929494 0.929494
0.929979 0.929979 0.929979
0.930464 0.930464 0.930464
0.930948 0.930948 0.930948
0.931432 0.931432 0.931432
0.931916 0.931916 0.931916
0.932399 0.932399 0.932399
