tests/assets/LUTs/generated/invert_33.cube
# invert_33.cube
# Generated by generate-luts.py for CodeBrix.VideoPlayback.
# PUBLIC DOMAIN (CC0 1.0 Universal). No rights reserved.
# Definition: out = 1 - in per channel, exactly. No clamping is needed and none is applied.
TITLE "Invert 33"
LUT_3D_SIZE 9
1.000000 1.000000 1.000000
0.875000 1.000000 1.000000
0.750000 1.000000 1.000000
0.625000 1.000000 1.000000
0.500000 1.000000 1.000000
0.375000 1.000000 1.000000
0.250000 1.000000 1.000000
0.125000 1.000000 1.000000
0.000000 1.000000 1.000000
1.000000 0.875000 1.000000
0.875000 0.875000 1.000000
0.750000 0.875000 1.000000
0.625000 0.875000 1.000000
0.500000 0.875000 1.000000
0.375000 0.875000 1.000000
0.250000 0.875000 1.000000
0.125000 0.875000 1.000000
0.000000 0.875000 1.000000
1.000000 0.750000 1.000000
0.875000 0.750000 1.000000
0.750000 0.750000 1.000000
0.625000 0.750000 1.000000
0.500000 0.750000 1.000000
0.375000 0.750000 1.000000
0.250000 0.750000 1.000000
0.125000 0.750000 1.000000
0.000000 0.750000 1.000000
1.000000 0.625000 1.000000
0.875000 0.625000 1.000000
0.750000 0.625000 1.000000
0.625000 0.625000 1.000000
0.500000 0.625000 1.000000
0.375000 0.625000 1.000000
0.250000 0.625000 1.000000
0.125000 0.625000 1.000000
0.000000 0.625000 1.000000
1.000000 0.500000 1.000000
0.875000 0.500000 1.000000
0.750000 0.500000 1.000000
0.625000 0.500000 1.000000
0.500000 0.500000 1.000000
0.375000 0.500000 1.000000
0.250000 0.500000 1.000000
0.125000 0.500000 1.000000
0.000000 0.500000 1.000000
1.000000 0.375000 1.000000
0.875000 0.375000 1.000000
0.750000 0.375000 1.000000
0.625000 0.375000 1.000000
0.500000 0.375000 1.000000
0.375000 0.375000 1.000000
0.250000 0.375000 1.000000
0.125000 0.375000 1.000000
0.000000 0.375000 1.000000
1.000000 0.250000 1.000000
0.875000 0.250000 1.000000
0.750000 0.250000 1.000000
0.625000 0.250000 1.000000
0.500000 0.250000 1.000000
0.375000 0.250000 1.000000
0.250000 0.250000 1.000000
0.125000 0.250000 1.000000
0.000000 0.250000 1.000000
1.000000 0.125000 1.000000
0.875000 0.125000 1.000000
0.750000 0.125000 1.000000
0.625000 0.125000 1.000000
0.500000 0.125000 1.000000
0.375000 0.125000 1.000000
0.250000 0.125000 1.000000
0.125000 0.125000 1.000000
0.000000 0.125000 1.000000
1.000000 0.000000 1.000000
0.875000 0.000000 1.000000
0.750000 0.000000 1.000000
0.625000 0.000000 1.000000
0.500000 0.000000 1.000000
0.375000 0.000000 1.000000
0.250000 0.000000 1.000000
0.125000 0.000000 1.000000
0.000000 0.000000 1.000000
1.000000 1.000000 0.875000
0.875000 1.000000 0.875000
0.750000 1.000000 0.875000
0.625000 1.000000 0.875000
0.500000 1.000000 0.875000
0.375000 1.000000 0.875000
0.250000 1.000000 0.875000
0.125000 1.000000 0.875000
0.000000 1.000000 0.875000
1.000000 0.875000 0.875000
0.875000 0.875000 0.875000
0.750000 0.875000 0.875000
0.625000 0.875000 0.875000
0.500000 0.875000 0.875000
0.375000 0.875000 0.875000
0.250000 0.875000 0.875000
0.125000 0.875000 0.875000
0.000000 0.875000 0.875000
1.000000 0.750000 0.875000
0.875000 0.750000 0.875000
0.750000 0.750000 0.875000
0.625000 0.750000 0.875000
0.500000 0.750000 0.875000
0.375000 0.750000 0.875000
0.250000 0.750000 0.875000
0.125000 0.750000 0.875000
0.000000 0.750000 0.875000
1.000000 0.625000 0.875000
0.875000 0.625000 0.875000
0.750000 0.625000 0.875000
0.625000 0.625000 0.875000
0.500000 0.625000 0.875000
0.375000 0.625000 0.875000
0.250000 0.625000 0.875000
0.125000 0.625000 0.875000
0.000000 0.625000 0.875000
1.000000 0.500000 0.875000
0.875000 0.500000 0.875000
0.750000 0.500000 0.875000
0.625000 0.500000 0.875000
0.500000 0.500000 0.875000
0.375000 0.500000 0.875000
0.250000 0.500000 0.875000
0.125000 0.500000 0.875000
0.000000 0.500000 0.875000
1.000000 0.375000 0.875000
0.875000 0.375000 0.875000
0.750000 0.375000 0.875000
0.625000 0.375000 0.875000
0.500000 0.375000 0.875000
0.375000 0.375000 0.875000
0.250000 0.375000 0.875000
0.125000 0.375000 0.875000
0.000000 0.375000 0.875000
1.000000 0.250000 0.875000
0.875000 0.250000 0.875000
0.750000 0.250000 0.875000
0.625000 0.250000 0.875000
0.500000 0.250000 0.875000
0.375000 0.250000 0.875000
0.250000 0.250000 0.875000
0.125000 0.250000 0.875000
0.000000 0.250000 0.875000
1.000000 0.125000 0.875000
0.875000 0.125000 0.875000
0.750000 0.125000 0.875000
0.625000 0.125000 0.875000
0.500000 0.125000 0.875000
0.375000 0.125000 0.875000
0.250000 0.125000 0.875000
0.125000 0.125000 0.875000
0.000000 0.125000 0.875000
1.000000 0.000000 0.875000
0.875000 0.000000 0.875000
0.750000 0.000000 0.875000
0.625000 0.000000 0.875000
0.500000 0.000000 0.875000
0.375000 0.000000 0.875000
0.250000 0.000000 0.875000
0.125000 0.000000 0.875000
0.000000 0.000000 0.875000
1.000000 1.000000 0.750000
0.875000 1.000000 0.750000
0.750000 1.000000 0.750000
0.625000 1.000000 0.750000
0.500000 1.000000 0.750000
0.375000 1.000000 0.750000
0.250000 1.000000 0.750000
0.125000 1.000000 0.750000
0.000000 1.000000 0.750000
1.000000 0.875000 0.750000
0.875000 0.875000 0.750000
0.750000 0.875000 0.750000
0.625000 0.875000 0.750000
0.500000 0.875000 0.750000
0.375000 0.875000 0.750000
0.250000 0.875000 0.750000
0.125000 0.875000 0.750000
0.000000 0.875000 0.750000
1.000000 0.750000 0.750000
0.875000 0.750000 0.750000
0.750000 0.750000 0.750000
0.625000 0.750000 0.750000
0.500000 0.750000 0.750000
0.375000 0.750000 0.750000
0.250000 0.750000 0.750000
0.125000 0.750000 0.750000
0.000000 0.750000 0.750000
1.000000 0.625000 0.750000
0.875000 0.625000 0.750000
0.750000 0.625000 0.750000
0.625000 0.625000 0.750000
0.500000 0.625000 0.750000
0.375000 0.625000 0.750000
0.250000 0.625000 0.750000
0.125000 0.625000 0.750000
0.000000 0.625000 0.750000
1.000000 0.500000 0.750000
0.875000 0.500000 0.750000
0.750000 0.500000 0.750000
0.625000 0.500000 0.750000
0.500000 0.500000 0.750000
0.375000 0.500000 0.750000
0.250000 0.500000 0.750000
0.125000 0.500000 0.750000
0.000000 0.500000 0.750000
1.000000 0.375000 0.750000
0.875000 0.375000 0.750000
0.750000 0.375000 0.750000
0.625000 0.375000 0.750000
0.500000 0.375000 0.750000
0.375000 0.375000 0.750000
0.250000 0.375000 0.750000
0.125000 0.375000 0.750000
0.000000 0.375000 0.750000
1.000000 0.250000 0.750000
0.875000 0.250000 0.750000
0.750000 0.250000 0.750000
0.625000 0.250000 0.750000
0.500000 0.250000 0.750000
0.375000 0.250000 0.750000
0.250000 0.250000 0.750000
0.125000 0.250000 0.750000
0.000000 0.250000 0.750000
1.000000 0.125000 0.750000
0.875000 0.125000 0.750000
0.750000 0.125000 0.750000
0.625000 0.125000 0.750000
0.500000 0.125000 0.750000
0.375000 0.125000 0.750000
0.250000 0.125000 0.750000
0.125000 0.125000 0.750000
0.000000 0.125000 0.750000
1.000000 0.000000 0.750000
0.875000 0.000000 0.750000
0.750000 0.000000 0.750000
0.625000 0.000000 0.750000
0.500000 0.000000 0.750000
0.375000 0.000000 0.750000
0.250000 0.000000 0.750000
0.125000 0.000000 0.750000
0.000000 0.000000 0.750000
1.000000 1.000000 0.625000
0.875000 1.000000 0.625000
0.750000 1.000000 0.625000
0.625000 1.000000 0.625000
0.500000 1.000000 0.625000
0.375000 1.000000 0.625000
0.250000 1.000000 0.625000
0.125000 1.000000 0.625000
0.000000 1.000000 0.625000
1.000000 0.875000 0.625000
0.875000 0.875000 0.625000
0.750000 0.875000 0.625000
0.625000 0.875000 0.625000
0.500000 0.875000 0.625000
0.375000 0.875000 0.625000
0.250000 0.875000 0.625000
0.125000 0.875000 0.625000
0.000000 0.875000 0.625000
1.000000 0.750000 0.625000
0.875000 0.750000 0.625000
0.750000 0.750000 0.625000
0.625000 0.750000 0.625000
0.500000 0.750000 0.625000
0.375000 0.750000 0.625000
0.250000 0.750000 0.625000
0.125000 0.750000 0.625000
0.000000 0.750000 0.625000
1.000000 0.625000 0.625000
0.875000 0.625000 0.625000
0.750000 0.625000 0.625000
0.625000 0.625000 0.625000
0.500000 0.625000 0.625000
0.375000 0.625000 0.625000
0.250000 0.625000 0.625000
0.125000 0.625000 0.625000
0.000000 0.625000 0.625000
1.000000 0.500000 0.625000
0.875000 0.500000 0.625000
0.750000 0.500000 0.625000
0.625000 0.500000 0.625000
0.500000 0.500000 0.625000
0.375000 0.500000 0.625000
0.250000 0.500000 0.625000
0.125000 0.500000 0.625000
0.000000 0.500000 0.625000
1.000000 0.375000 0.625000
0.875000 0.375000 0.625000
0.750000 0.375000 0.625000
0.625000 0.375000 0.625000
0.500000 0.375000 0.625000
0.375000 0.375000 0.625000
0.250000 0.375000 0.625000
0.125000 0.375000 0.625000
0.000000 0.375000 0.625000
1.000000 0.250000 0.625000
0.875000 0.250000 0.625000
0.750000 0.250000 0.625000
0.625000 0.250000 0.625000
0.500000 0.250000 0.625000
0.375000 0.250000 0.625000
0.250000 0.250000 0.625000
0.125000 0.250000 0.625000
0.000000 0.250000 0.625000
1.000000 0.125000 0.625000
0.875000 0.125000 0.625000
0.750000 0.125000 0.625000
0.625000 0.125000 0.625000
0.500000 0.125000 0.625000
0.375000 0.125000 0.625000
0.250000 0.125000 0.625000
0.125000 0.125000 0.625000
0.000000 0.125000 0.625000
1.000000 0.000000 0.625000
0.875000 0.000000 0.625000
0.750000 0.000000 0.625000
0.625000 0.000000 0.625000
0.500000 0.000000 0.625000
0.375000 0.000000 0.625000
0.250000 0.000000 0.625000
0.125000 0.000000 0.625000
0.000000 0.000000 0.625000
1.000000 1.000000 0.500000
0.875000 1.000000 0.500000
0.750000 1.000000 0.500000
0.625000 1.000000 0.500000
0.500000 1.000000 0.500000
0.375000 1.000000 0.500000
0.250000 1.000000 0.500000
0.125000 1.000000 0.500000
0.000000 1.000000 0.500000
1.000000 0.875000 0.500000
0.875000 0.875000 0.500000
0.750000 0.875000 0.500000
0.625000 0.875000 0.500000
0.500000 0.875000 0.500000
0.375000 0.875000 0.500000
0.250000 0.875000 0.500000
0.125000 0.875000 0.500000
0.000000 0.875000 0.500000
1.000000 0.750000 0.500000
0.875000 0.750000 0.500000
0.750000 0.750000 0.500000
0.625000 0.750000 0.500000
0.500000 0.750000 0.500000
0.375000 0.750000 0.500000
0.250000 0.750000 0.500000
0.125000 0.750000 0.500000
0.000000 0.750000 0.500000
1.000000 0.625000 0.500000
0.875000 0.625000 0.500000
0.750000 0.625000 0.500000
0.625000 0.625000 0.500000
0.500000 0.625000 0.500000
0.375000 0.625000 0.500000
0.250000 0.625000 0.500000
0.125000 0.625000 0.500000
0.000000 0.625000 0.500000
1.000000 0.500000 0.500000
0.875000 0.500000 0.500000
0.750000 0.500000 0.500000
0.625000 0.500000 0.500000
0.500000 0.500000 0.500000
0.375000 0.500000 0.500000
0.250000 0.500000 0.500000
0.125000 0.500000 0.500000
0.000000 0.500000 0.500000
1.000000 0.375000 0.500000
0.875000 0.375000 0.500000
0.750000 0.375000 0.500000
0.625000 0.375000 0.500000
0.500000 0.375000 0.500000
0.375000 0.375000 0.500000
0.250000 0.375000 0.500000
0.125000 0.375000 0.500000
0.000000 0.375000 0.500000
1.000000 0.250000 0.500000
0.875000 0.250000 0.500000
0.750000 0.250000 0.500000
0.625000 0.250000 0.500000
0.500000 0.250000 0.500000
0.375000 0.250000 0.500000
0.250000 0.250000 0.500000
0.125000 0.250000 0.500000
0.000000 0.250000 0.500000
1.000000 0.125000 0.500000
0.875000 0.125000 0.500000
0.750000 0.125000 0.500000
0.625000 0.125000 0.500000
0.500000 0.125000 0.500000
0.375000 0.125000 0.500000
0.250000 0.125000 0.500000
0.125000 0.125000 0.500000
0.000000 0.125000 0.500000
1.000000 0.000000 0.500000
0.875000 0.000000 0.500000
0.750000 0.000000 0.500000
0.625000 0.000000 0.500000
0.500000 0.000000 0.500000
0.375000 0.000000 0.500000
0.250000 0.000000 0.500000
0.125000 0.000000 0.500000
0.000000 0.000000 0.500000
1.000000 1.000000 0.375000
0.875000 1.000000 0.375000
0.750000 1.000000 0.375000
0.625000 1.000000 0.375000
0.500000 1.000000 0.375000
0.375000 1.000000 0.375000
0.250000 1.000000 0.375000
0.125000 1.000000 0.375000
0.000000 1.000000 0.375000
1.000000 0.875000 0.375000
0.875000 0.875000 0.375000
0.750000 0.875000 0.375000
0.625000 0.875000 0.375000
0.500000 0.875000 0.375000
0.375000 0.875000 0.375000
0.250000 0.875000 0.375000
0.125000 0.875000 0.375000
0.000000 0.875000 0.375000
1.000000 0.750000 0.375000
0.875000 0.750000 0.375000
0.750000 0.750000 0.375000
0.625000 0.750000 0.375000
0.500000 0.750000 0.375000
0.375000 0.750000 0.375000
0.250000 0.750000 0.375000
0.125000 0.750000 0.375000
0.000000 0.750000 0.375000
1.000000 0.625000 0.375000
0.875000 0.625000 0.375000
0.750000 0.625000 0.375000
0.625000 0.625000 0.375000
0.500000 0.625000 0.375000
0.375000 0.625000 0.375000
0.250000 0.625000 0.375000
0.125000 0.625000 0.375000
0.000000 0.625000 0.375000
1.000000 0.500000 0.375000
0.875000 0.500000 0.375000
0.750000 0.500000 0.375000
0.625000 0.500000 0.375000
0.500000 0.500000 0.375000
0.375000 0.500000 0.375000
0.250000 0.500000 0.375000
0.125000 0.500000 0.375000
0.000000 0.500000 0.375000
1.000000 0.375000 0.375000
0.875000 0.375000 0.375000
0.750000 0.375000 0.375000
0.625000 0.375000 0.375000
0.500000 0.375000 0.375000
0.375000 0.375000 0.375000
0.250000 0.375000 0.375000
0.125000 0.375000 0.375000
0.000000 0.375000 0.375000
1.000000 0.250000 0.375000
0.875000 0.250000 0.375000
0.750000 0.250000 0.375000
0.625000 0.250000 0.375000
0.500000 0.250000 0.375000
0.375000 0.250000 0.375000
0.250000 0.250000 0.375000
0.125000 0.250000 0.375000
0.000000 0.250000 0.375000
1.000000 0.125000 0.375000
0.875000 0.125000 0.375000
0.750000 0.125000 0.375000
0.625000 0.125000 0.375000
0.500000 0.125000 0.375000
0.375000 0.125000 0.375000
0.250000 0.125000 0.375000
0.125000 0.125000 0.375000
0.000000 0.125000 0.375000
1.000000 0.000000 0.375000
0.875000 0.000000 0.375000
0.750000 0.000000 0.375000
0.625000 0.000000 0.375000
0.500000 0.000000 0.375000
0.375000 0.000000 0.375000
0.250000 0.000000 0.375000
0.125000 0.000000 0.375000
0.000000 0.000000 0.375000
1.000000 1.000000 0.250000
0.875000 1.000000 0.250000
0.750000 1.000000 0.250000
0.625000 1.000000 0.250000
0.500000 1.000000 0.250000
0.375000 1.000000 0.250000
0.250000 1.000000 0.250000
0.125000 1.000000 0.250000
0.000000 1.000000 0.250000
1.000000 0.875000 0.250000
0.875000 0.875000 0.250000
0.750000 0.875000 0.250000
0.625000 0.875000 0.250000
0.500000 0.875000 0.250000
0.375000 0.875000 0.250000
0.250000 0.875000 0.250000
0.125000 0.875000 0.250000
0.000000 0.875000 0.250000
1.000000 0.750000 0.250000
0.875000 0.750000 0.250000
0.750000 0.750000 0.250000
0.625000 0.750000 0.250000
0.500000 0.750000 0.250000
0.375000 0.750000 0.250000
0.250000 0.750000 0.250000
0.125000 0.750000 0.250000
0.000000 0.750000 0.250000
1.000000 0.625000 0.250000
0.875000 0.625000 0.250000
0.750000 0.625000 0.250000
0.625000 0.625000 0.250000
0.500000 0.625000 0.250000
0.375000 0.625000 0.250000
0.250000 0.625000 0.250000
0.125000 0.625000 0.250000
0.000000 0.625000 0.250000
1.000000 0.500000 0.250000
0.875000 0.500000 0.250000
0.750000 0.500000 0.250000
0.625000 0.500000 0.250000
0.500000 0.500000 0.250000
0.375000 0.500000 0.250000
0.250000 0.500000 0.250000
0.125000 0.500000 0.250000
0.000000 0.500000 0.250000
1.000000 0.375000 0.250000
0.875000 0.375000 0.250000
0.750000 0.375000 0.250000
0.625000 0.375000 0.250000
0.500000 0.375000 0.250000
0.375000 0.375000 0.250000
0.250000 0.375000 0.250000
0.125000 0.375000 0.250000
0.000000 0.375000 0.250000
1.000000 0.250000 0.250000
0.875000 0.250000 0.250000
0.750000 0.250000 0.250000
0.625000 0.250000 0.250000
0.500000 0.250000 0.250000
0.375000 0.250000 0.250000
0.250000 0.250000 0.250000
0.125000 0.250000 0.250000
0.000000 0.250000 0.250000
1.000000 0.125000 0.250000
0.875000 0.125000 0.250000
0.750000 0.125000 0.250000
0.625000 0.125000 0.250000
0.500000 0.125000 0.250000
0.375000 0.125000 0.250000
0.250000 0.125000 0.250000
0.125000 0.125000 0.250000
0.000000 0.125000 0.250000
1.000000 0.000000 0.250000
0.875000 0.000000 0.250000
0.750000 0.000000 0.250000
0.625000 0.000000 0.250000
0.500000 0.000000 0.250000
0.375000 0.000000 0.250000
0.250000 0.000000 0.250000
0.125000 0.000000 0.250000
0.000000 0.000000 0.250000
1.000000 1.000000 0.125000
0.875000 1.000000 0.125000
0.750000 1.000000 0.125000
0.625000 1.000000 0.125000
0.500000 1.000000 0.125000
0.375000 1.000000 0.125000
0.250000 1.000000 0.125000
0.125000 1.000000 0.125000
0.000000 1.000000 0.125000
1.000000 0.875000 0.125000
0.875000 0.875000 0.125000
0.750000 0.875000 0.125000
0.625000 0.875000 0.125000
0.500000 0.875000 0.125000
0.375000 0.875000 0.125000
0.250000 0.875000 0.125000
0.125000 0.875000 0.125000
0.000000 0.875000 0.125000
1.000000 0.750000 0.125000
0.875000 0.750000 0.125000
0.750000 0.750000 0.125000
0.625000 0.750000 0.125000
0.500000 0.750000 0.125000
0.375000 0.750000 0.125000
0.250000 0.750000 0.125000
0.125000 0.750000 0.125000
0.000000 0.750000 0.125000
1.000000 0.625000 0.125000
0.875000 0.625000 0.125000
0.750000 0.625000 0.125000
0.625000 0.625000 0.125000
0.500000 0.625000 0.125000
0.375000 0.625000 0.125000
0.250000 0.625000 0.125000
0.125000 0.625000 0.125000
0.000000 0.625000 0.125000
1.000000 0.500000 0.125000
0.875000 0.500000 0.125000
0.750000 0.500000 0.125000
0.625000 0.500000 0.125000
0.500000 0.500000 0.125000
0.375000 0.500000 0.125000
0.250000 0.500000 0.125000
0.125000 0.500000 0.125000
0.000000 0.500000 0.125000
1.000000 0.375000 0.125000
0.875000 0.375000 0.125000
0.750000 0.375000 0.125000
0.625000 0.375000 0.125000
0.500000 0.375000 0.125000
0.375000 0.375000 0.125000
0.250000 0.375000 0.125000
0.125000 0.375000 0.125000
0.000000 0.375000 0.125000
1.000000 0.250000 0.125000
0.875000 0.250000 0.125000
0.750000 0.250000 0.125000
0.625000 0.250000 0.125000
0.500000 0.250000 0.125000
0.375000 0.250000 0.125000
0.250000 0.250000 0.125000
0.125000 0.250000 0.125000
0.000000 0.250000 0.125000
1.000000 0.125000 0.125000
0.875000 0.125000 0.125000
0.750000 0.125000 0.125000
0.625000 0.125000 0.125000
0.500000 0.125000 0.125000
0.375000 0.125000 0.125000
0.250000 0.125000 0.125000
0.125000 0.125000 0.125000
0.000000 0.125000 0.125000
1.000000 0.000000 0.125000
0.875000 0.000000 0.125000
0.750000 0.000000 0.125000
0.625000 0.000000 0.125000
0.500000 0.000000 0.125000
0.375000 0.000000 0.125000
0.250000 0.000000 0.125000
0.125000 0.000000 0.125000
0.000000 0.000000 0.125000
1.000000 1.000000 0.000000
0.875000 1.000000 0.000000
0.750000 1.000000 0.000000
0.625000 1.000000 0.000000
0.500000 1.000000 0.000000
0.375000 1.000000 0.000000
0.250000 1.000000 0.000000
0.125000 1.000000 0.000000
0.000000 1.000000 0.000000
1.000000 0.875000 0.000000
0.875000 0.875000 0.000000
0.750000 0.875000 0.000000
0.625000 0.875000 0.000000
0.500000 0.875000 0.000000
0.375000 0.875000 0.000000
0.250000 0.875000 0.000000
0.125000 0.875000 0.000000
0.000000 0.875000 0.000000
1.000000 0.750000 0.000000
0.875000 0.750000 0.000000
0.750000 0.750000 0.000000
0.625000 0.750000 0.000000
0.500000 0.750000 0.000000
0.375000 0.750000 0.000000
0.250000 0.750000 0.000000
0.125000 0.750000 0.000000
0.000000 0.750000 0.000000
1.000000 0.625000 0.000000
0.875000 0.625000 0.000000
0.750000 0.625000 0.000000
0.625000 0.625000 0.000000
0.500000 0.625000 0.000000
0.375000 0.625000 0.000000
0.250000 0.625000 0.000000
0.125000 0.625000 0.000000
0.000000 0.625000 0.000000
1.000000 0.500000 0.000000
0.875000 0.500000 0.000000
0.750000 0.500000 0.000000
0.625000 0.500000 0.000000
0.500000 0.500000 0.000000
0.375000 0.500000 0.000000
0.250000 0.500000 0.000000
0.125000 0.500000 0.000000
0.000000 0.500000 0.000000
1.000000 0.375000 0.000000
0.875000 0.375000 0.000000
0.750000 0.375000 0.000000
0.625000 0.375000 0.000000
0.500000 0.375000 0.000000
0.375000 0.375000 0.000000
0.250000 0.375000 0.000000
0.125000 0.375000 0.000000
0.000000 0.375000 0.000000
1.000000 0.250000 0.000000
0.875000 0.250000 0.000000
0.750000 0.250000 0.000000
0.625000 0.250000 0.000000
0.500000 0.250000 0.000000
0.375000 0.250000 0.000000
0.250000 0.250000 0.000000
0.125000 0.250000 0.000000
0.000000 0.250000 0.000000
1.000000 0.125000 0.000000
0.875000 0.125000 0.000000
0.750000 0.125000 0.000000
0.625000 0.125000 0.000000
0.500000 0.125000 0.000000
0.375000 0.125000 0.000000
0.250000 0.125000 0.000000
0.125000 0.125000 0.000000
0.000000 0.125000 0.000000
1.000000 0.000000 0.000000
0.875000 0.000000 0.000000
0.750000 0.000000 0.000000
0.625000 0.000000 0.000000
0.500000 0.000000 0.000000
0.375000 0.000000 0.000000
0.250000 0.000000 0.000000
0.125000 0.000000 0.000000
0.000000 0.000000 0.000000
