tests/assets/LUTs/generated/teal_orange_strong_33.cube
# teal_orange_strong_33.cube
# Generated by generate-luts.py for CodeBrix.VideoPlayback.
# PUBLIC DOMAIN (CC0 1.0 Universal). No rights reserved.
# Definition: luma = 0.2126*r + 0.7152*g + 0.0722*b (Rec.709); shift = (luma - 0.5) * 2; out = clamp(r + 0.25*shift, g + 0.05*shift, b - 0.25*shift).
TITLE "Teal and Orange Strong 33"
LUT_3D_SIZE 9
0.000000 0.000000 0.250000
0.000000 0.000000 0.236712
0.026575 0.000000 0.223425
0.164862 0.000000 0.210138
0.303150 0.000000 0.196850
0.441438 0.000000 0.183562
0.579725 0.000000 0.170275
0.718012 0.000000 0.156988
0.856300 0.000000 0.143700
0.000000 0.083940 0.205300
0.000000 0.086597 0.192013
0.071275 0.089255 0.178725
0.209562 0.091912 0.165438
0.347850 0.094570 0.152150
0.486138 0.097227 0.138862
0.624425 0.099885 0.125575
0.762713 0.102542 0.112288
0.901000 0.105200 0.099000
0.000000 0.217880 0.160600
0.000000 0.220537 0.147313
0.115975 0.223195 0.134025
0.254263 0.225853 0.120737
0.392550 0.228510 0.107450
0.530838 0.231167 0.094162
0.669125 0.233825 0.080875
0.807412 0.236482 0.067588
0.945700 0.239140 0.054300
0.000000 0.351820 0.115900
0.022388 0.354478 0.102612
0.160675 0.357135 0.089325
0.298963 0.359793 0.076038
0.437250 0.362450 0.062750
0.575538 0.365108 0.049462
0.713825 0.367765 0.036175
0.852113 0.370422 0.022888
0.990400 0.373080 0.009600
0.000000 0.485760 0.071200
0.067087 0.488418 0.057913
0.205375 0.491075 0.044625
0.343662 0.493733 0.031338
0.481950 0.496390 0.018050
0.620237 0.499047 0.004763
0.758525 0.501705 0.000000
0.896813 0.504363 0.000000
1.000000 0.507020 0.000000
0.000000 0.619700 0.026500
0.111787 0.622358 0.013213
0.250075 0.625015 0.000000
0.388362 0.627672 0.000000
0.526650 0.630330 0.000000
0.664937 0.632988 0.000000
0.803225 0.635645 0.000000
0.941512 0.638302 0.000000
1.000000 0.640960 0.000000
0.018200 0.753640 0.000000
0.156488 0.756297 0.000000
0.294775 0.758955 0.000000
0.433063 0.761613 0.000000
0.571350 0.764270 0.000000
0.709638 0.766927 0.000000
0.847925 0.769585 0.000000
0.986212 0.772242 0.000000
1.000000 0.774900 0.000000
0.062900 0.887580 0.000000
0.201187 0.890238 0.000000
0.339475 0.892895 0.000000
0.477762 0.895552 0.000000
0.616050 0.898210 0.000000
0.754337 0.900868 0.000000
0.892625 0.903525 0.000000
1.000000 0.906183 0.000000
1.000000 0.908840 0.000000
0.107600 1.000000 0.000000
0.245887 1.000000 0.000000
0.384175 1.000000 0.000000
0.522463 1.000000 0.000000
0.660750 1.000000 0.000000
0.799037 1.000000 0.000000
0.937325 1.000000 0.000000
1.000000 1.000000 0.000000
1.000000 1.000000 0.000000
0.000000 0.000000 0.370487
0.000000 0.000000 0.357200
0.031087 0.000000 0.343913
0.169375 0.000000 0.330625
0.307663 0.000000 0.317337
0.445950 0.000000 0.304050
0.584237 0.000000 0.290762
0.722525 0.000000 0.277475
0.860812 0.000000 0.264188
0.000000 0.084842 0.325788
0.000000 0.087500 0.312500
0.075788 0.090158 0.299212
0.214075 0.092815 0.285925
0.352363 0.095473 0.272637
0.490650 0.098130 0.259350
0.628938 0.100788 0.246062
0.767225 0.103445 0.232775
0.905512 0.106103 0.219488
0.000000 0.218782 0.281087
0.000000 0.221440 0.267800
0.120487 0.224098 0.254513
0.258775 0.226755 0.241225
0.397062 0.229412 0.227937
0.535350 0.232070 0.214650
0.673638 0.234728 0.201362
0.811925 0.237385 0.188075
0.950213 0.240042 0.174788
0.000000 0.352722 0.236388
0.026900 0.355380 0.223100
0.165188 0.358038 0.209812
0.303475 0.360695 0.196525
0.441763 0.363353 0.183237
0.580050 0.366010 0.169950
0.718337 0.368667 0.156663
0.856625 0.371325 0.143375
0.994912 0.373982 0.130087
0.000000 0.486662 0.191688
0.071600 0.489320 0.178400
0.209887 0.491978 0.165113
0.348175 0.494635 0.151825
0.486463 0.497293 0.138538
0.624750 0.499950 0.125250
0.763038 0.502607 0.111963
0.901325 0.505265 0.098675
1.000000 0.507923 0.085388
0.000000 0.620602 0.146988
0.116300 0.623260 0.133700
0.254587 0.625918 0.120413
0.392875 0.628575 0.107125
0.531162 0.631232 0.093838
0.669450 0.633890 0.080550
0.807737 0.636548 0.067263
0.946025 0.639205 0.053975
1.000000 0.641863 0.040688
0.022712 0.754543 0.102288
0.161000 0.757200 0.089000
0.299287 0.759857 0.075713
0.437575 0.762515 0.062425
0.575862 0.765173 0.049138
0.714150 0.767830 0.035850
0.852437 0.770487 0.022563
0.990725 0.773145 0.009275
1.000000 0.775802 0.000000
0.067412 0.888482 0.057588
0.205700 0.891140 0.044300
0.343987 0.893798 0.031013
0.482275 0.896455 0.017725
0.620562 0.899112 0.004438
0.758850 0.901770 0.000000
0.897137 0.904427 0.000000
1.000000 0.907085 0.000000
1.000000 0.909743 0.000000
0.112112 1.000000 0.012888
0.250400 1.000000 0.000000
0.388687 1.000000 0.000000
0.526975 1.000000 0.000000
0.665262 1.000000 0.000000
0.803550 1.000000 0.000000
0.941837 1.000000 0.000000
1.000000 1.000000 0.000000
1.000000 1.000000 0.000000
0.000000 0.000000 0.490975
0.000000 0.000000 0.477687
0.035600 0.000000 0.464400
0.173888 0.000000 0.451113
0.312175 0.000000 0.437825
0.450462 0.000000 0.424538
0.588750 0.000000 0.411250
0.727038 0.000000 0.397962
0.865325 0.000000 0.384675
0.000000 0.085745 0.446275
0.000000 0.088402 0.432987
0.080300 0.091060 0.419700
0.218587 0.093717 0.406413
0.356875 0.096375 0.393125
0.495163 0.099032 0.379837
0.633450 0.101690 0.366550
0.771737 0.104347 0.353263
0.910025 0.107005 0.339975
0.000000 0.219685 0.401575
0.000000 0.222342 0.388288
0.125000 0.225000 0.375000
0.263288 0.227658 0.361712
0.401575 0.230315 0.348425
0.539863 0.232972 0.335137
0.678150 0.235630 0.321850
0.816437 0.238287 0.308563
0.954725 0.240945 0.295275
0.000000 0.353625 0.356875
0.031413 0.356283 0.343587
0.169700 0.358940 0.330300
0.307987 0.361598 0.317013
0.446275 0.364255 0.303725
0.584562 0.366912 0.290438
0.722850 0.369570 0.277150
0.861138 0.372227 0.263862
0.999425 0.374885 0.250575
0.000000 0.487565 0.312175
0.076112 0.490223 0.298887
0.214400 0.492880 0.285600
0.352687 0.495538 0.272313
0.490975 0.498195 0.259025
0.629263 0.500853 0.245737
0.767550 0.503510 0.232450
0.905838 0.506167 0.219162
1.000000 0.508825 0.205875
0.000000 0.621505 0.267475
0.120812 0.624162 0.254188
0.259100 0.626820 0.240900
0.397388 0.629478 0.227612
0.535675 0.632135 0.214325
0.673963 0.634792 0.201038
0.812250 0.637450 0.187750
0.950538 0.640108 0.174463
1.000000 0.642765 0.161175
0.027225 0.755445 0.222775
0.165513 0.758103 0.209487
0.303800 0.760760 0.196200
0.442088 0.763417 0.182912
0.580375 0.766075 0.169625
0.718662 0.768733 0.156337
0.856950 0.771390 0.143050
0.995237 0.774047 0.129763
1.000000 0.776705 0.116475
0.071925 0.889385 0.178075
0.210212 0.892042 0.164788
0.348500 0.894700 0.151500
0.486787 0.897358 0.138213
0.625075 0.900015 0.124925
0.763362 0.902672 0.111638
0.901650 0.905330 0.098350
1.000000 0.907987 0.085063
1.000000 0.910645 0.071775
0.116625 1.000000 0.133375
0.254912 1.000000 0.120088
0.393200 1.000000 0.106800
0.531488 1.000000 0.093512
0.669775 1.000000 0.080225
0.808062 1.000000 0.066938
0.946350 1.000000 0.053650
1.000000 1.000000 0.040363
1.000000 1.000000 0.027075
0.000000 0.000000 0.611463
0.000000 0.000000 0.598175
0.040112 0.000000 0.584888
0.178400 0.000000 0.571600
0.316688 0.000000 0.558312
0.454975 0.000000 0.545025
0.593263 0.000000 0.531737
0.731550 0.000000 0.518450
0.869838 0.000000 0.505162
0.000000 0.086647 0.566763
0.000000 0.089305 0.553475
0.084813 0.091963 0.540188
0.223100 0.094620 0.526900
0.361387 0.097278 0.513613
0.499675 0.099935 0.500325
0.637962 0.102593 0.487038
0.776250 0.105250 0.473750
0.914538 0.107908 0.460462
0.000000 0.220587 0.522062
0.000000 0.223245 0.508775
0.129513 0.225903 0.495487
0.267800 0.228560 0.482200
0.406088 0.231217 0.468912
0.544375 0.233875 0.455625
0.682662 0.236533 0.442337
0.820950 0.239190 0.429050
0.959237 0.241847 0.415763
0.000000 0.354527 0.477363
0.035925 0.357185 0.464075
0.174213 0.359843 0.450788
0.312500 0.362500 0.437500
0.450788 0.365158 0.424212
0.589075 0.367815 0.410925
0.727363 0.370472 0.397637
0.865650 0.373130 0.384350
1.000000 0.375787 0.371063
0.000000 0.488467 0.432663
0.080625 0.491125 0.419375
0.218912 0.493783 0.406088
0.357200 0.496440 0.392800
0.495487 0.499097 0.379513
0.633775 0.501755 0.366225
0.772062 0.504413 0.352938
0.910350 0.507070 0.339650
1.000000 0.509728 0.326362
0.000000 0.622408 0.387962
0.125325 0.625065 0.374675
0.263612 0.627722 0.361388
0.401900 0.630380 0.348100
0.540187 0.633038 0.334813
0.678475 0.635695 0.321525
0.816762 0.638352 0.308238
0.955050 0.641010 0.294950
1.000000 0.643667 0.281663
0.031737 0.756347 0.343263
0.170025 0.759005 0.329975
0.308312 0.761663 0.316688
0.446600 0.764320 0.303400
0.584888 0.766977 0.290112
0.723175 0.769635 0.276825
0.861463 0.772293 0.263538
0.999750 0.774950 0.250250
1.000000 0.777608 0.236963
0.076437 0.890288 0.298563
0.214725 0.892945 0.285275
0.353012 0.895602 0.271988
0.491300 0.898260 0.258700
0.629587 0.900918 0.245413
0.767875 0.903575 0.232125
0.906162 0.906232 0.218838
1.000000 0.908890 0.205550
1.000000 0.911547 0.192263
0.121137 1.000000 0.253863
0.259425 1.000000 0.240575
0.397712 1.000000 0.227288
0.536000 1.000000 0.214000
0.674287 1.000000 0.200713
0.812575 1.000000 0.187425
0.950862 1.000000 0.174138
1.000000 1.000000 0.160850
1.000000 1.000000 0.147563
0.000000 0.000000 0.731950
0.000000 0.000000 0.718662
0.044625 0.000000 0.705375
0.182913 0.000000 0.692087
0.321200 0.000000 0.678800
0.459487 0.000000 0.665512
0.597775 0.000000 0.652225
0.736063 0.000000 0.638937
0.874350 0.000000 0.625650
0.000000 0.087550 0.687250
0.000000 0.090207 0.673963
0.089325 0.092865 0.660675
0.227612 0.095522 0.647388
0.365900 0.098180 0.634100
0.504188 0.100837 0.620812
0.642475 0.103495 0.607525
0.780763 0.106152 0.594237
0.919050 0.108810 0.580950
0.000000 0.221490 0.642550
0.000000 0.224147 0.629263
0.134025 0.226805 0.615975
0.272313 0.229463 0.602688
0.410600 0.232120 0.589400
0.548887 0.234778 0.576113
0.687175 0.237435 0.562825
0.825462 0.240092 0.549538
0.963750 0.242750 0.536250
0.000000 0.355430 0.597850
0.040438 0.358088 0.584562
0.178725 0.360745 0.571275
0.317013 0.363403 0.557987
0.455300 0.366060 0.544700
0.593588 0.368718 0.531412
0.731875 0.371375 0.518125
0.870162 0.374032 0.504838
1.000000 0.376690 0.491550
0.000000 0.489370 0.553150
0.085138 0.492028 0.539863
0.223425 0.494685 0.526575
0.361712 0.497343 0.513288
0.500000 0.500000 0.500000
0.638288 0.502657 0.486712
0.776575 0.505315 0.473425
0.914863 0.507973 0.460137
1.000000 0.510630 0.446850
0.000000 0.623310 0.508450
0.129837 0.625968 0.495163
0.268125 0.628625 0.481875
0.406413 0.631282 0.468587
0.544700 0.633940 0.455300
0.682987 0.636598 0.442013
0.821275 0.639255 0.428725
0.959562 0.641912 0.415438
1.000000 0.644570 0.402150
0.036250 0.757250 0.463750
0.174538 0.759907 0.450462
0.312825 0.762565 0.437175
0.451113 0.765223 0.423887
0.589400 0.767880 0.410600
0.727688 0.770537 0.397312
0.865975 0.773195 0.384025
1.000000 0.775853 0.370737
1.000000 0.778510 0.357450
0.080950 0.891190 0.419050
0.219237 0.893848 0.405763
0.357525 0.896505 0.392475
0.495812 0.899162 0.379188
0.634100 0.901820 0.365900
0.772388 0.904478 0.352612
0.910675 0.907135 0.339325
1.000000 0.909793 0.326038
1.000000 0.912450 0.312750
0.125650 1.000000 0.374350
0.263937 1.000000 0.361063
0.402225 1.000000 0.347775
0.540512 1.000000 0.334487
0.678800 1.000000 0.321200
0.817087 1.000000 0.307913
0.955375 1.000000 0.294625
1.000000 1.000000 0.281338
1.000000 1.000000 0.268050
0.000000 0.000000 0.852437
0.000000 0.000000 0.839150
0.049138 0.000000 0.825862
0.187425 0.000000 0.812575
0.325713 0.000000 0.799287
0.464000 0.000000 0.786000
0.602287 0.000000 0.772713
0.740575 0.000000 0.759425
0.878862 0.000000 0.746138
0.000000 0.088452 0.807737
0.000000 0.091110 0.794450
0.093838 0.093768 0.781162
0.232125 0.096425 0.767875
0.370412 0.099082 0.754587
0.508700 0.101740 0.741300
0.646988 0.104398 0.728012
0.785275 0.107055 0.714725
0.923563 0.109713 0.701437
0.000000 0.222392 0.763038
0.000250 0.225050 0.749750
0.138537 0.227708 0.736463
0.276825 0.230365 0.723175
0.415112 0.233022 0.709888
0.553400 0.235680 0.696600
0.691688 0.238338 0.683312
0.829975 0.240995 0.670025
0.968263 0.243652 0.656737
0.000000 0.356332 0.718338
0.044950 0.358990 0.705050
0.183237 0.361648 0.691763
0.321525 0.364305 0.678475
0.459813 0.366963 0.665188
0.598100 0.369620 0.651900
0.736387 0.372277 0.638613
0.874675 0.374935 0.625325
1.000000 0.377592 0.612038
0.000000 0.490272 0.673638
0.089650 0.492930 0.660350
0.227937 0.495588 0.647063
0.366225 0.498245 0.633775
0.504512 0.500903 0.620488
0.642800 0.503560 0.607200
0.781087 0.506217 0.593913
0.919375 0.508875 0.580625
1.000000 0.511532 0.567338
0.000000 0.624212 0.628938
0.134350 0.626870 0.615650
0.272637 0.629528 0.602363
0.410925 0.632185 0.589075
0.549212 0.634842 0.575788
0.687500 0.637500 0.562500
0.825787 0.640157 0.549213
0.964075 0.642815 0.535925
1.000000 0.645473 0.522638
0.040762 0.758153 0.584237
0.179050 0.760810 0.570950
0.317337 0.763467 0.557662
0.455625 0.766125 0.544375
0.593913 0.768783 0.531087
0.732200 0.771440 0.517800
0.870487 0.774097 0.504513
1.000000 0.776755 0.491225
1.000000 0.779412 0.477938
0.085462 0.892092 0.539538
0.223750 0.894750 0.526250
0.362037 0.897408 0.512962
0.500325 0.900065 0.499675
0.638613 0.902722 0.486388
0.776900 0.905380 0.473100
0.915187 0.908037 0.459813
1.000000 0.910695 0.446525
1.000000 0.913353 0.433238
0.130162 1.000000 0.494838
0.268450 1.000000 0.481550
0.406737 1.000000 0.468263
0.545025 1.000000 0.454975
0.683312 1.000000 0.441688
0.821600 1.000000 0.428400
0.959888 1.000000 0.415113
1.000000 1.000000 0.401825
1.000000 1.000000 0.388538
0.000000 0.000000 0.972925
0.000000 0.000000 0.959638
0.053650 0.000000 0.946350
0.191938 0.000000 0.933063
0.330225 0.000000 0.919775
0.468512 0.000000 0.906488
0.606800 0.000000 0.893200
0.745088 0.000000 0.879912
0.883375 0.000000 0.866625
0.000000 0.089355 0.928225
0.000000 0.092012 0.914937
0.098350 0.094670 0.901650
0.236638 0.097327 0.888362
0.374925 0.099985 0.875075
0.513213 0.102642 0.861787
0.651500 0.105300 0.848500
0.789787 0.107957 0.835213
0.928075 0.110615 0.821925
0.000000 0.223295 0.883525
0.004763 0.225953 0.870237
0.143050 0.228610 0.856950
0.281338 0.231268 0.843662
0.419625 0.233925 0.830375
0.557913 0.236583 0.817087
0.696200 0.239240 0.803800
0.834488 0.241897 0.790512
0.972775 0.244555 0.777225
0.000000 0.357235 0.838825
0.049463 0.359893 0.825538
0.187750 0.362550 0.812250
0.326037 0.365208 0.798963
0.464325 0.367865 0.785675
0.602612 0.370522 0.772388
0.740900 0.373180 0.759100
0.879188 0.375837 0.745812
1.000000 0.378495 0.732525
0.000000 0.491175 0.794125
0.094162 0.493833 0.780838
0.232450 0.496490 0.767550
0.370737 0.499148 0.754263
0.509025 0.501805 0.740975
0.647312 0.504463 0.727688
0.785600 0.507120 0.714400
0.923887 0.509777 0.701113
1.000000 0.512435 0.687825
0.000575 0.625115 0.749425
0.138862 0.627772 0.736138
0.277150 0.630430 0.722850
0.415438 0.633088 0.709562
0.553725 0.635745 0.696275
0.692012 0.638402 0.682988
0.830300 0.641060 0.669700
0.968587 0.643717 0.656413
1.000000 0.646375 0.643125
0.045275 0.759055 0.704725
0.183563 0.761713 0.691437
0.321850 0.764370 0.678150
0.460138 0.767027 0.664862
0.598425 0.769685 0.651575
0.736713 0.772343 0.638287
0.875000 0.775000 0.625000
1.000000 0.777658 0.611712
1.000000 0.780315 0.598425
0.089975 0.892995 0.660025
0.228262 0.895652 0.646737
0.366550 0.898310 0.633450
0.504838 0.900968 0.620162
0.643125 0.903625 0.606875
0.781413 0.906282 0.593587
0.919700 0.908940 0.580300
1.000000 0.911597 0.567013
1.000000 0.914255 0.553725
0.134675 1.000000 0.615325
0.272962 1.000000 0.602038
0.411250 1.000000 0.588750
0.549538 1.000000 0.575462
0.687825 1.000000 0.562175
0.826113 1.000000 0.548887
0.964400 1.000000 0.535600
1.000000 1.000000 0.522312
1.000000 1.000000 0.509025
0.000000 0.000000 1.000000
0.000000 0.000000 1.000000
0.058163 0.000000 1.000000
0.196450 0.000000 1.000000
0.334738 0.000000 1.000000
0.473025 0.000000 1.000000
0.611313 0.000000 1.000000
0.749600 0.000000 1.000000
0.887887 0.000000 0.987113
0.000000 0.090257 1.000000
0.000000 0.092915 1.000000
0.102862 0.095573 1.000000
0.241150 0.098230 1.000000
0.379437 0.100887 0.995563
0.517725 0.103545 0.982275
0.656012 0.106203 0.968988
0.794300 0.108860 0.955700
0.932588 0.111517 0.942412
0.000000 0.224197 1.000000
0.009275 0.226855 0.990725
0.147562 0.229513 0.977437
0.285850 0.232170 0.964150
0.424138 0.234827 0.950862
0.562425 0.237485 0.937575
0.700712 0.240143 0.924288
0.839000 0.242800 0.911000
0.977287 0.245457 0.897713
0.000000 0.358137 0.959313
0.053975 0.360795 0.946025
0.192263 0.363453 0.932737
0.330550 0.366110 0.919450
0.468838 0.368768 0.906162
0.607125 0.371425 0.892875
0.745413 0.374082 0.879587
0.883700 0.376740 0.866300
1.000000 0.379397 0.853012
0.000000 0.492078 0.914613
0.098675 0.494735 0.901325
0.236962 0.497393 0.888038
0.375250 0.500050 0.874750
0.513537 0.502707 0.861463
0.651825 0.505365 0.848175
0.790112 0.508023 0.834888
0.928400 0.510680 0.821600
1.000000 0.513338 0.808312
0.005087 0.626018 0.869913
0.143375 0.628675 0.856625
0.281662 0.631332 0.843338
0.419950 0.633990 0.830050
0.558237 0.636648 0.816763
0.696525 0.639305 0.803475
0.834812 0.641962 0.790188
0.973100 0.644620 0.776900
1.000000 0.647277 0.763613
0.049787 0.759957 0.825213
0.188075 0.762615 0.811925
0.326362 0.765273 0.798638
0.464650 0.767930 0.785350
0.602938 0.770587 0.772062
0.741225 0.773245 0.758775
0.879512 0.775902 0.745488
1.000000 0.778560 0.732200
1.000000 0.781218 0.718913
0.094487 0.893898 0.780513
0.232775 0.896555 0.767225
0.371062 0.899212 0.753938
0.509350 0.901870 0.740650
0.647637 0.904528 0.727363
0.785925 0.907185 0.714075
0.924212 0.909842 0.700788
1.000000 0.912500 0.687500
1.000000 0.915157 0.674213
0.139187 1.000000 0.735812
0.277475 1.000000 0.722525
0.415762 1.000000 0.709237
0.554050 1.000000 0.695950
0.692337 1.000000 0.682663
0.830625 1.000000 0.669375
0.968912 1.000000 0.656088
1.000000 1.000000 0.642800
1.000000 1.000000 0.629513
0.000000 0.000000 1.000000
0.000000 0.000000 1.000000
0.062675 0.000000 1.000000
0.200962 0.000000 1.000000
0.339250 0.000000 1.000000
0.477538 0.000000 1.000000
0.615825 0.000000 1.000000
0.754112 0.000000 1.000000
0.892400 0.000000 1.000000
0.000000 0.091160 1.000000
0.000000 0.093817 1.000000
0.107375 0.096475 1.000000
0.245663 0.099132 1.000000
0.383950 0.101790 1.000000
0.522238 0.104447 1.000000
0.660525 0.107105 1.000000
0.798812 0.109762 1.000000
0.937100 0.112420 1.000000
0.000000 0.225100 1.000000
0.013787 0.227758 1.000000
0.152075 0.230415 1.000000
0.290362 0.233072 1.000000
0.428650 0.235730 1.000000
0.566937 0.238388 1.000000
0.705225 0.241045 1.000000
0.843512 0.243702 1.000000
0.981800 0.246360 1.000000
0.000000 0.359040 1.000000
0.058487 0.361698 1.000000
0.196775 0.364355 1.000000
0.335062 0.367013 1.000000
0.473350 0.369670 1.000000
0.611638 0.372327 1.000000
0.749925 0.374985 1.000000
0.888213 0.377642 0.986787
1.000000 0.380300 0.973500
0.000000 0.492980 1.000000
0.103187 0.495638 1.000000
0.241475 0.498295 1.000000
0.379763 0.500953 0.995237
0.518050 0.503610 0.981950
0.656338 0.506267 0.968662
0.794625 0.508925 0.955375
0.932913 0.511583 0.942087
1.000000 0.514240 0.928800
0.009600 0.626920 0.990400
0.147888 0.629578 0.977113
0.286175 0.632235 0.963825
0.424463 0.634892 0.950538
0.562750 0.637550 0.937250
0.701037 0.640208 0.923963
0.839325 0.642865 0.910675
0.977612 0.645522 0.897388
1.000000 0.648180 0.884100
0.054300 0.760860 0.945700
0.192588 0.763517 0.932412
0.330875 0.766175 0.919125
0.469163 0.768833 0.905837
0.607450 0.771490 0.892550
0.745738 0.774147 0.879262
0.884025 0.776805 0.865975
1.000000 0.779462 0.852688
1.000000 0.782120 0.839400
0.099000 0.894800 0.901000
0.237287 0.897458 0.887713
0.375575 0.900115 0.874425
0.513862 0.902772 0.861138
0.652150 0.905430 0.847850
0.790438 0.908088 0.834562
0.928725 0.910745 0.821275
1.000000 0.913403 0.807988
1.000000 0.916060 0.794700
0.143700 1.000000 0.856300
0.281988 1.000000 0.843012
0.420275 1.000000 0.829725
0.558563 1.000000 0.816437
0.696850 1.000000 0.803150
0.835137 1.000000 0.789863
0.973425 1.000000 0.776575
1.000000 1.000000 0.763288
1.000000 1.000000 0.750000
