tests/assets/LUTs/generated/teal_orange_strong_33.cube
# teal_orange_strong_33.cube
# Generated by generate-luts.py for CodeBrix.VideoPlayback.
# PUBLIC DOMAIN (CC0 1.0 Universal). No rights reserved.
# Definition: luma = 0.2126*r + 0.7152*g + 0.0722*b (Rec.709); shift = (luma - 0.5) * 2; out = clamp(r + 0.25*shift, g + 0.05*shift, b - 0.25*shift).
TITLE "Teal and Orange Strong 33"
LUT_3D_SIZE 33
0.000000 0.000000 0.250000
0.000000 0.000000 0.246678
0.000000 0.000000 0.243356
0.000000 0.000000 0.240034
0.000000 0.000000 0.236712
0.000000 0.000000 0.233391
0.000000 0.000000 0.230069
0.000000 0.000000 0.226747
0.026575 0.000000 0.223425
0.061147 0.000000 0.220103
0.095719 0.000000 0.216781
0.130291 0.000000 0.213459
0.164862 0.000000 0.210138
0.199434 0.000000 0.206816
0.234006 0.000000 0.203494
0.268578 0.000000 0.200172
0.303150 0.000000 0.196850
0.337722 0.000000 0.193528
0.372294 0.000000 0.190206
0.406866 0.000000 0.186884
0.441438 0.000000 0.183562
0.476009 0.000000 0.180241
0.510581 0.000000 0.176919
0.545153 0.000000 0.173597
0.579725 0.000000 0.170275
0.614297 0.000000 0.166953
0.648869 0.000000 0.163631
0.683441 0.000000 0.160309
0.718012 0.000000 0.156988
0.752584 0.000000 0.153666
0.787156 0.000000 0.150344
0.821728 0.000000 0.147022
0.856300 0.000000 0.143700
0.000000 0.000000 0.238825
0.000000 0.000000 0.235503
0.000000 0.000000 0.232181
0.000000 0.000000 0.228859
0.000000 0.000000 0.225538
0.000000 0.000000 0.222216
0.000000 0.000000 0.218894
0.003178 0.000000 0.215572
0.037750 0.000000 0.212250
0.072322 0.000000 0.208928
0.106894 0.000000 0.205606
0.141466 0.000000 0.202284
0.176038 0.000000 0.198962
0.210609 0.000000 0.195641
0.245181 0.000000 0.192319
0.279753 0.000000 0.188997
0.314325 0.000000 0.185675
0.348897 0.000000 0.182353
0.383469 0.000000 0.179031
0.418041 0.000000 0.175709
0.452613 0.000000 0.172387
0.487184 0.000000 0.169066
0.521756 0.000000 0.165744
0.556328 0.000000 0.162422
0.590900 0.000000 0.159100
0.625472 0.000094 0.155778
0.660044 0.000759 0.152456
0.694616 0.001423 0.149134
0.729187 0.002087 0.145813
0.763759 0.002752 0.142491
0.798331 0.003416 0.139169
0.832903 0.004081 0.135847
0.867475 0.004745 0.132525
0.000000 0.016970 0.227650
0.000000 0.017634 0.224328
0.000000 0.018299 0.221006
0.000000 0.018963 0.217684
0.000000 0.019627 0.214363
0.000000 0.020292 0.211041
0.000000 0.020956 0.207719
0.014353 0.021621 0.204397
0.048925 0.022285 0.201075
0.083497 0.022949 0.197753
0.118069 0.023614 0.194431
0.152641 0.024278 0.191109
0.187213 0.024942 0.187787
0.221784 0.025607 0.184466
0.256356 0.026271 0.181144
0.290928 0.026936 0.177822
0.325500 0.027600 0.174500
0.360072 0.028264 0.171178
0.394644 0.028929 0.167856
0.429216 0.029593 0.164534
0.463788 0.030257 0.161212
0.498359 0.030922 0.157891
0.532931 0.031586 0.154569
0.567503 0.032251 0.151247
0.602075 0.032915 0.147925
0.636647 0.033579 0.144603
0.671219 0.034244 0.141281
0.705791 0.034908 0.137959
0.740363 0.035572 0.134638
0.774934 0.036237 0.131316
0.809506 0.036901 0.127994
0.844078 0.037566 0.124672
0.878650 0.038230 0.121350
0.000000 0.050455 0.216475
0.000000 0.051119 0.213153
0.000000 0.051784 0.209831
0.000000 0.052448 0.206509
0.000000 0.053112 0.203187
0.000000 0.053777 0.199866
0.000000 0.054441 0.196544
0.025528 0.055106 0.193222
0.060100 0.055770 0.189900
0.094672 0.056434 0.186578
0.129244 0.057099 0.183256
0.163816 0.057763 0.179934
0.198387 0.058428 0.176613
0.232959 0.059092 0.173291
0.267531 0.059756 0.169969
0.302103 0.060421 0.166647
0.336675 0.061085 0.163325
0.371247 0.061749 0.160003
0.405819 0.062414 0.156681
0.440391 0.063078 0.153359
0.474963 0.063743 0.150037
0.509534 0.064407 0.146716
0.544106 0.065071 0.143394
0.578678 0.065736 0.140072
0.613250 0.066400 0.136750
0.647822 0.067064 0.133428
0.682394 0.067729 0.130106
0.716966 0.068393 0.126784
0.751537 0.069057 0.123463
0.786109 0.069722 0.120141
0.820681 0.070386 0.116819
0.855253 0.071051 0.113497
0.889825 0.071715 0.110175
0.000000 0.083940 0.205300
0.000000 0.084604 0.201978
0.000000 0.085269 0.198656
0.000000 0.085933 0.195334
0.000000 0.086597 0.192013
0.000000 0.087262 0.188691
0.002131 0.087926 0.185369
0.036703 0.088591 0.182047
0.071275 0.089255 0.178725
0.105847 0.089919 0.175403
0.140419 0.090584 0.172081
0.174991 0.091248 0.168759
0.209562 0.091912 0.165438
0.244134 0.092577 0.162116
0.278706 0.093241 0.158794
0.313278 0.093906 0.155472
0.347850 0.094570 0.152150
0.382422 0.095234 0.148828
0.416994 0.095899 0.145506
0.451566 0.096563 0.142184
0.486138 0.097227 0.138862
0.520709 0.097892 0.135541
0.555281 0.098556 0.132219
0.589853 0.099221 0.128897
0.624425 0.099885 0.125575
0.658997 0.100549 0.122253
0.693569 0.101214 0.118931
0.728141 0.101878 0.115609
0.762713 0.102542 0.112288
0.797284 0.103207 0.108966
0.831856 0.103871 0.105644
0.866428 0.104536 0.102322
0.901000 0.105200 0.099000
0.000000 0.117425 0.194125
0.000000 0.118089 0.190803
0.000000 0.118754 0.187481
0.000000 0.119418 0.184159
0.000000 0.120082 0.180838
0.000000 0.120747 0.177516
0.013306 0.121411 0.174194
0.047878 0.122076 0.170872
0.082450 0.122740 0.167550
0.117022 0.123404 0.164228
0.151594 0.124069 0.160906
0.186166 0.124733 0.157584
0.220738 0.125397 0.154262
0.255309 0.126062 0.150941
0.289881 0.126726 0.147619
0.324453 0.127391 0.144297
0.359025 0.128055 0.140975
0.393597 0.128719 0.137653
0.428169 0.129384 0.134331
0.462741 0.130048 0.131009
0.497312 0.130713 0.127688
0.531884 0.131377 0.124366
0.566456 0.132041 0.121044
0.601028 0.132706 0.117722
0.635600 0.133370 0.114400
0.670172 0.134034 0.111078
0.704744 0.134699 0.107756
0.739316 0.135363 0.104434
0.773888 0.136027 0.101112
0.808459 0.136692 0.097791
0.843031 0.137356 0.094469
0.877603 0.138021 0.091147
0.912175 0.138685 0.087825
0.000000 0.150910 0.182950
0.000000 0.151574 0.179628
0.000000 0.152239 0.176306
0.000000 0.152903 0.172984
0.000000 0.153567 0.169662
0.000000 0.154232 0.166341
0.024481 0.154896 0.163019
0.059053 0.155561 0.159697
0.093625 0.156225 0.156375
0.128197 0.156889 0.153053
0.162769 0.157554 0.149731
0.197341 0.158218 0.146409
0.231912 0.158882 0.143088
0.266484 0.159547 0.139766
0.301056 0.160211 0.136444
0.335628 0.160876 0.133122
0.370200 0.161540 0.129800
0.404772 0.162204 0.126478
0.439344 0.162869 0.123156
0.473916 0.163533 0.119834
0.508487 0.164197 0.116512
0.543059 0.164862 0.113191
0.577631 0.165526 0.109869
0.612203 0.166191 0.106547
0.646775 0.166855 0.103225
0.681347 0.167519 0.099903
0.715919 0.168184 0.096581
0.750491 0.168848 0.093259
0.785062 0.169513 0.089938
0.819634 0.170177 0.086616
0.854206 0.170841 0.083294
0.888778 0.171506 0.079972
0.923350 0.172170 0.076650
0.000000 0.184395 0.171775
0.000000 0.185059 0.168453
0.000000 0.185724 0.165131
0.000000 0.186388 0.161809
0.000000 0.187053 0.158488
0.001084 0.187717 0.155166
0.035656 0.188381 0.151844
0.070228 0.189046 0.148522
0.104800 0.189710 0.145200
0.139372 0.190374 0.141878
0.173944 0.191039 0.138556
0.208516 0.191703 0.135234
0.243087 0.192367 0.131913
0.277659 0.193032 0.128591
0.312231 0.193696 0.125269
0.346803 0.194361 0.121947
0.381375 0.195025 0.118625
0.415947 0.195689 0.115303
0.450519 0.196354 0.111981
0.485091 0.197018 0.108659
0.519663 0.197682 0.105338
0.554234 0.198347 0.102016
0.588806 0.199011 0.098694
0.623378 0.199676 0.095372
0.657950 0.200340 0.092050
0.692522 0.201004 0.088728
0.727094 0.201669 0.085406
0.761666 0.202333 0.082084
0.796237 0.202997 0.078763
0.830809 0.203662 0.075441
0.865381 0.204326 0.072119
0.899953 0.204991 0.068797
0.934525 0.205655 0.065475
0.000000 0.217880 0.160600
0.000000 0.218544 0.157278
0.000000 0.219209 0.153956
0.000000 0.219873 0.150634
0.000000 0.220537 0.147313
0.012259 0.221202 0.143991
0.046831 0.221866 0.140669
0.081403 0.222531 0.137347
0.115975 0.223195 0.134025
0.150547 0.223859 0.130703
0.185119 0.224524 0.127381
0.219691 0.225188 0.124059
0.254263 0.225853 0.120737
0.288834 0.226517 0.117416
0.323406 0.227181 0.114094
0.357978 0.227846 0.110772
0.392550 0.228510 0.107450
0.427122 0.229174 0.104128
0.461694 0.229839 0.100806
0.496266 0.230503 0.097484
0.530838 0.231167 0.094162
0.565409 0.231832 0.090841
0.599981 0.232496 0.087519
0.634553 0.233161 0.084197
0.669125 0.233825 0.080875
0.703697 0.234489 0.077553
0.738269 0.235154 0.074231
0.772841 0.235818 0.070909
0.807412 0.236482 0.067588
0.841984 0.237147 0.064266
0.876556 0.237811 0.060944
0.911128 0.238476 0.057622
0.945700 0.239140 0.054300
0.000000 0.251365 0.149425
0.000000 0.252029 0.146103
0.000000 0.252694 0.142781
0.000000 0.253358 0.139459
0.000000 0.254022 0.136137
0.023434 0.254687 0.132816
0.058006 0.255351 0.129494
0.092578 0.256016 0.126172
0.127150 0.256680 0.122850
0.161722 0.257344 0.119528
0.196294 0.258009 0.116206
0.230866 0.258673 0.112884
0.265437 0.259337 0.109563
0.300009 0.260002 0.106241
0.334581 0.260666 0.102919
0.369153 0.261331 0.099597
0.403725 0.261995 0.096275
0.438297 0.262659 0.092953
0.472869 0.263324 0.089631
0.507441 0.263988 0.086309
0.542013 0.264653 0.082987
0.576584 0.265317 0.079666
0.611156 0.265981 0.076344
0.645728 0.266646 0.073022
0.680300 0.267310 0.069700
0.714872 0.267974 0.066378
0.749444 0.268639 0.063056
0.784016 0.269303 0.059734
0.818588 0.269968 0.056413
0.853159 0.270632 0.053091
0.887731 0.271296 0.049769
0.922303 0.271961 0.046447
0.956875 0.272625 0.043125
0.000000 0.284850 0.138250
0.000000 0.285514 0.134928
0.000000 0.286179 0.131606
0.000000 0.286843 0.128284
0.000037 0.287508 0.124963
0.034609 0.288172 0.121641
0.069181 0.288836 0.118319
0.103753 0.289501 0.114997
0.138325 0.290165 0.111675
0.172897 0.290829 0.108353
0.207469 0.291494 0.105031
0.242041 0.292158 0.101709
0.276612 0.292822 0.098388
0.311184 0.293487 0.095066
0.345756 0.294151 0.091744
0.380328 0.294816 0.088422
0.414900 0.295480 0.085100
0.449472 0.296144 0.081778
0.484044 0.296809 0.078456
0.518616 0.297473 0.075134
0.553187 0.298137 0.071813
0.587759 0.298802 0.068491
0.622331 0.299466 0.065169
0.656903 0.300131 0.061847
0.691475 0.300795 0.058525
0.726047 0.301459 0.055203
0.760619 0.302124 0.051881
0.795191 0.302788 0.048559
0.829762 0.303453 0.045238
0.864334 0.304117 0.041916
0.898906 0.304781 0.038594
0.933478 0.305446 0.035272
0.968050 0.306110 0.031950
0.000000 0.318335 0.127075
0.000000 0.318999 0.123753
0.000000 0.319664 0.120431
0.000000 0.320328 0.117109
0.011212 0.320993 0.113788
0.045784 0.321657 0.110466
0.080356 0.322321 0.107144
0.114928 0.322986 0.103822
0.149500 0.323650 0.100500
0.184072 0.324314 0.097178
0.218644 0.324979 0.093856
0.253216 0.325643 0.090534
0.287787 0.326307 0.087212
0.322359 0.326972 0.083891
0.356931 0.327636 0.080569
0.391503 0.328301 0.077247
0.426075 0.328965 0.073925
0.460647 0.329629 0.070603
0.495219 0.330294 0.067281
0.529791 0.330958 0.063959
0.564362 0.331622 0.060638
0.598934 0.332287 0.057316
0.633506 0.332951 0.053994
0.668078 0.333616 0.050672
0.702650 0.334280 0.047350
0.737222 0.334944 0.044028
0.771794 0.335609 0.040706
0.806366 0.336273 0.037384
0.840938 0.336938 0.034062
0.875509 0.337602 0.030741
0.910081 0.338266 0.027419
0.944653 0.338931 0.024097
0.979225 0.339595 0.020775
0.000000 0.351820 0.115900
0.000000 0.352484 0.112578
0.000000 0.353149 0.109256
0.000000 0.353813 0.105934
0.022388 0.354478 0.102612
0.056959 0.355142 0.099291
0.091531 0.355806 0.095969
0.126103 0.356471 0.092647
0.160675 0.357135 0.089325
0.195247 0.357799 0.086003
0.229819 0.358464 0.082681
0.264391 0.359128 0.079359
0.298963 0.359793 0.076038
0.333534 0.360457 0.072716
0.368106 0.361121 0.069394
0.402678 0.361786 0.066072
0.437250 0.362450 0.062750
0.471822 0.363114 0.059428
0.506394 0.363779 0.056106
0.540966 0.364443 0.052784
0.575538 0.365108 0.049462
0.610109 0.365772 0.046141
0.644681 0.366436 0.042819
0.679253 0.367101 0.039497
0.713825 0.367765 0.036175
0.748397 0.368429 0.032853
0.782969 0.369094 0.029531
0.817541 0.369758 0.026209
0.852113 0.370422 0.022888
0.886684 0.371087 0.019566
0.921256 0.371751 0.016244
0.955828 0.372416 0.012922
0.990400 0.373080 0.009600
0.000000 0.385305 0.104725
0.000000 0.385969 0.101403
0.000000 0.386634 0.098081
0.000000 0.387298 0.094759
0.033562 0.387962 0.091438
0.068134 0.388627 0.088116
0.102706 0.389291 0.084794
0.137278 0.389956 0.081472
0.171850 0.390620 0.078150
0.206422 0.391284 0.074828
0.240994 0.391949 0.071506
0.275566 0.392613 0.068184
0.310137 0.393278 0.064863
0.344709 0.393942 0.061541
0.379281 0.394606 0.058219
0.413853 0.395271 0.054897
0.448425 0.395935 0.051575
0.482997 0.396599 0.048253
0.517569 0.397264 0.044931
0.552141 0.397928 0.041609
0.586712 0.398593 0.038288
0.621284 0.399257 0.034966
0.655856 0.399921 0.031644
0.690428 0.400586 0.028322
0.725000 0.401250 0.025000
0.759572 0.401914 0.021678
0.794144 0.402579 0.018356
0.828716 0.403243 0.015034
0.863287 0.403907 0.011713
0.897859 0.404572 0.008391
0.932431 0.405236 0.005069
0.967003 0.405901 0.001747
1.000000 0.406565 0.000000
0.000000 0.418790 0.093550
0.000000 0.419454 0.090228
0.000000 0.420119 0.086906
0.010166 0.420783 0.083584
0.044737 0.421447 0.080263
0.079309 0.422112 0.076941
0.113881 0.422776 0.073619
0.148453 0.423441 0.070297
0.183025 0.424105 0.066975
0.217597 0.424769 0.063653
0.252169 0.425434 0.060331
0.286741 0.426098 0.057009
0.321313 0.426762 0.053688
0.355884 0.427427 0.050366
0.390456 0.428091 0.047044
0.425028 0.428756 0.043722
0.459600 0.429420 0.040400
0.494172 0.430084 0.037078
0.528744 0.430749 0.033756
0.563316 0.431413 0.030434
0.597888 0.432078 0.027113
0.632459 0.432742 0.023791
0.667031 0.433406 0.020469
0.701603 0.434071 0.017147
0.736175 0.434735 0.013825
0.770747 0.435399 0.010503
0.805319 0.436064 0.007181
0.839891 0.436728 0.003859
0.874462 0.437393 0.000538
0.909034 0.438057 0.000000
0.943606 0.438721 0.000000
0.978178 0.439386 0.000000
1.000000 0.440050 0.000000
0.000000 0.452275 0.082375
0.000000 0.452939 0.079053
0.000000 0.453604 0.075731
0.021341 0.454268 0.072409
0.055913 0.454933 0.069087
0.090484 0.455597 0.065766
0.125056 0.456261 0.062444
0.159628 0.456926 0.059122
0.194200 0.457590 0.055800
0.228772 0.458254 0.052478
0.263344 0.458919 0.049156
0.297916 0.459583 0.045834
0.332487 0.460247 0.042513
0.367059 0.460912 0.039191
0.401631 0.461576 0.035869
0.436203 0.462241 0.032547
0.470775 0.462905 0.029225
0.505347 0.463569 0.025903
0.539919 0.464234 0.022581
0.574491 0.464898 0.019259
0.609063 0.465562 0.015937
0.643634 0.466227 0.012616
0.678206 0.466891 0.009294
0.712778 0.467556 0.005972
0.747350 0.468220 0.002650
0.781922 0.468884 0.000000
0.816494 0.469549 0.000000
0.851066 0.470213 0.000000
0.885637 0.470878 0.000000
0.920209 0.471542 0.000000
0.954781 0.472206 0.000000
0.989353 0.472871 0.000000
1.000000 0.473535 0.000000
0.000000 0.485760 0.071200
0.000000 0.486424 0.067878
0.000000 0.487089 0.064556
0.032516 0.487753 0.061234
0.067087 0.488418 0.057913
0.101659 0.489082 0.054591
0.136231 0.489746 0.051269
0.170803 0.490411 0.047947
0.205375 0.491075 0.044625
0.239947 0.491739 0.041303
0.274519 0.492404 0.037981
0.309091 0.493068 0.034659
0.343662 0.493733 0.031338
0.378234 0.494397 0.028016
0.412806 0.495061 0.024694
0.447378 0.495726 0.021372
0.481950 0.496390 0.018050
0.516522 0.497054 0.014728
0.551094 0.497719 0.011406
0.585666 0.498383 0.008084
0.620237 0.499047 0.004763
0.654809 0.499712 0.001441
0.689381 0.500376 0.000000
0.723953 0.501041 0.000000
0.758525 0.501705 0.000000
0.793097 0.502369 0.000000
0.827669 0.503034 0.000000
0.862241 0.503698 0.000000
0.896813 0.504363 0.000000
0.931384 0.505027 0.000000
0.965956 0.505691 0.000000
1.000000 0.506356 0.000000
1.000000 0.507020 0.000000
0.000000 0.519245 0.060025
0.000000 0.519909 0.056703
0.009119 0.520574 0.053381
0.043691 0.521238 0.050059
0.078262 0.521903 0.046738
0.112834 0.522567 0.043416
0.147406 0.523231 0.040094
0.181978 0.523896 0.036772
0.216550 0.524560 0.033450
0.251122 0.525224 0.030128
0.285694 0.525889 0.026806
0.320266 0.526553 0.023484
0.354837 0.527218 0.020163
0.389409 0.527882 0.016841
0.423981 0.528546 0.013519
0.458553 0.529211 0.010197
0.493125 0.529875 0.006875
0.527697 0.530539 0.003553
0.562269 0.531204 0.000231
0.596841 0.531868 0.000000
0.631412 0.532532 0.000000
0.665984 0.533197 0.000000
0.700556 0.533861 0.000000
0.735128 0.534526 0.000000
0.769700 0.535190 0.000000
0.804272 0.535854 0.000000
0.838844 0.536519 0.000000
0.873416 0.537183 0.000000
0.907987 0.537848 0.000000
0.942559 0.538512 0.000000
0.977131 0.539176 0.000000
1.000000 0.539841 0.000000
1.000000 0.540505 0.000000
0.000000 0.552730 0.048850
0.000000 0.553394 0.045528
0.020294 0.554059 0.042206
0.054866 0.554723 0.038884
0.089438 0.555388 0.035562
0.124009 0.556052 0.032241
0.158581 0.556716 0.028919
0.193153 0.557381 0.025597
0.227725 0.558045 0.022275
0.262297 0.558709 0.018953
0.296869 0.559374 0.015631
0.331441 0.560038 0.012309
0.366012 0.560702 0.008988
0.400584 0.561367 0.005666
0.435156 0.562031 0.002344
0.469728 0.562696 0.000000
0.504300 0.563360 0.000000
0.538872 0.564024 0.000000
0.573444 0.564689 0.000000
0.608016 0.565353 0.000000
0.642587 0.566017 0.000000
0.677159 0.566682 0.000000
0.711731 0.567346 0.000000
0.746303 0.568011 0.000000
0.780875 0.568675 0.000000
0.815447 0.569339 0.000000
0.850019 0.570004 0.000000
0.884591 0.570668 0.000000
0.919162 0.571333 0.000000
0.953734 0.571997 0.000000
0.988306 0.572661 0.000000
1.000000 0.573326 0.000000
1.000000 0.573990 0.000000
0.000000 0.586215 0.037675
0.000000 0.586879 0.034353
0.031469 0.587544 0.031031
0.066041 0.588208 0.027709
0.100612 0.588873 0.024388
0.135184 0.589537 0.021066
0.169756 0.590201 0.017744
0.204328 0.590866 0.014422
0.238900 0.591530 0.011100
0.273472 0.592194 0.007778
0.308044 0.592859 0.004456
0.342616 0.593523 0.001134
0.377188 0.594187 0.000000
0.411759 0.594852 0.000000
0.446331 0.595516 0.000000
0.480903 0.596181 0.000000
0.515475 0.596845 0.000000
0.550047 0.597509 0.000000
0.584619 0.598174 0.000000
0.619191 0.598838 0.000000
0.653763 0.599503 0.000000
0.688334 0.600167 0.000000
0.722906 0.600831 0.000000
0.757478 0.601496 0.000000
0.792050 0.602160 0.000000
0.826622 0.602824 0.000000
0.861194 0.603489 0.000000
0.895766 0.604153 0.000000
0.930338 0.604818 0.000000
0.964909 0.605482 0.000000
0.999481 0.606146 0.000000
1.000000 0.606811 0.000000
1.000000 0.607475 0.000000
0.000000 0.619700 0.026500
0.008072 0.620364 0.023178
0.042644 0.621029 0.019856
0.077216 0.621693 0.016534
0.111787 0.622358 0.013213
0.146359 0.623022 0.009891
0.180931 0.623686 0.006569
0.215503 0.624351 0.003247
0.250075 0.625015 0.000000
0.284647 0.625679 0.000000
0.319219 0.626344 0.000000
0.353791 0.627008 0.000000
0.388362 0.627672 0.000000
0.422934 0.628337 0.000000
0.457506 0.629001 0.000000
0.492078 0.629666 0.000000
0.526650 0.630330 0.000000
0.561222 0.630994 0.000000
0.595794 0.631659 0.000000
0.630366 0.632323 0.000000
0.664937 0.632988 0.000000
0.699509 0.633652 0.000000
0.734081 0.634316 0.000000
0.768653 0.634981 0.000000
0.803225 0.635645 0.000000
0.837797 0.636309 0.000000
0.872369 0.636974 0.000000
0.906941 0.637638 0.000000
0.941512 0.638302 0.000000
0.976084 0.638967 0.000000
1.000000 0.639631 0.000000
1.000000 0.640296 0.000000
1.000000 0.640960 0.000000
0.000000 0.653185 0.015325
0.019247 0.653849 0.012003
0.053819 0.654514 0.008681
0.088391 0.655178 0.005359
0.122963 0.655842 0.002037
0.157534 0.656507 0.000000
0.192106 0.657171 0.000000
0.226678 0.657836 0.000000
0.261250 0.658500 0.000000
0.295822 0.659164 0.000000
0.330394 0.659829 0.000000
0.364966 0.660493 0.000000
0.399537 0.661157 0.000000
0.434109 0.661822 0.000000
0.468681 0.662486 0.000000
0.503253 0.663151 0.000000
0.537825 0.663815 0.000000
0.572397 0.664479 0.000000
0.606969 0.665144 0.000000
0.641541 0.665808 0.000000
0.676113 0.666473 0.000000
0.710684 0.667137 0.000000
0.745256 0.667801 0.000000
0.779828 0.668466 0.000000
0.814400 0.669130 0.000000
0.848972 0.669794 0.000000
0.883544 0.670459 0.000000
0.918116 0.671123 0.000000
0.952688 0.671787 0.000000
0.987259 0.672452 0.000000
1.000000 0.673116 0.000000
1.000000 0.673781 0.000000
1.000000 0.674445 0.000000
0.000000 0.686670 0.004150
0.030422 0.687334 0.000828
0.064994 0.687999 0.000000
0.099566 0.688663 0.000000
0.134137 0.689327 0.000000
0.168709 0.689992 0.000000
0.203281 0.690656 0.000000
0.237853 0.691321 0.000000
0.272425 0.691985 0.000000
0.306997 0.692649 0.000000
0.341569 0.693314 0.000000
0.376141 0.693978 0.000000
0.410712 0.694643 0.000000
0.445284 0.695307 0.000000
0.479856 0.695971 0.000000
0.514428 0.696636 0.000000
0.549000 0.697300 0.000000
0.583572 0.697964 0.000000
0.618144 0.698629 0.000000
0.652716 0.699293 0.000000
0.687288 0.699958 0.000000
0.721859 0.700622 0.000000
0.756431 0.701286 0.000000
0.791003 0.701951 0.000000
0.825575 0.702615 0.000000
0.860147 0.703279 0.000000
0.894719 0.703944 0.000000
0.929291 0.704608 0.000000
0.963862 0.705272 0.000000
0.998434 0.705937 0.000000
1.000000 0.706601 0.000000
1.000000 0.707266 0.000000
1.000000 0.707930 0.000000
0.007025 0.720155 0.000000
0.041597 0.720819 0.000000
0.076169 0.721484 0.000000
0.110741 0.722148 0.000000
0.145313 0.722812 0.000000
0.179884 0.723477 0.000000
0.214456 0.724141 0.000000
0.249028 0.724806 0.000000
0.283600 0.725470 0.000000
0.318172 0.726134 0.000000
0.352744 0.726799 0.000000
0.387316 0.727463 0.000000
0.421888 0.728128 0.000000
0.456459 0.728792 0.000000
0.491031 0.729456 0.000000
0.525603 0.730121 0.000000
0.560175 0.730785 0.000000
0.594747 0.731449 0.000000
0.629319 0.732114 0.000000
0.663891 0.732778 0.000000
0.698462 0.733442 0.000000
0.733034 0.734107 0.000000
0.767606 0.734771 0.000000
0.802178 0.735436 0.000000
0.836750 0.736100 0.000000
0.871322 0.736764 0.000000
0.905894 0.737429 0.000000
0.940466 0.738093 0.000000
0.975038 0.738757 0.000000
1.000000 0.739422 0.000000
1.000000 0.740086 0.000000
1.000000 0.740751 0.000000
1.000000 0.741415 0.000000
0.018200 0.753640 0.000000
0.052772 0.754304 0.000000
0.087344 0.754969 0.000000
0.121916 0.755633 0.000000
0.156488 0.756297 0.000000
0.191059 0.756962 0.000000
0.225631 0.757626 0.000000
0.260203 0.758291 0.000000
0.294775 0.758955 0.000000
0.329347 0.759619 0.000000
0.363919 0.760284 0.000000
0.398491 0.760948 0.000000
0.433063 0.761613 0.000000
0.467634 0.762277 0.000000
0.502206 0.762941 0.000000
0.536778 0.763606 0.000000
0.571350 0.764270 0.000000
0.605922 0.764934 0.000000
0.640494 0.765599 0.000000
0.675066 0.766263 0.000000
0.709638 0.766927 0.000000
0.744209 0.767592 0.000000
0.778781 0.768256 0.000000
0.813353 0.768921 0.000000
0.847925 0.769585 0.000000
0.882497 0.770249 0.000000
0.917069 0.770914 0.000000
0.951641 0.771578 0.000000
0.986212 0.772242 0.000000
1.000000 0.772907 0.000000
1.000000 0.773571 0.000000
1.000000 0.774236 0.000000
1.000000 0.774900 0.000000
0.029375 0.787125 0.000000
0.063947 0.787789 0.000000
0.098519 0.788454 0.000000
0.133091 0.789118 0.000000
0.167662 0.789783 0.000000
0.202234 0.790447 0.000000
0.236806 0.791111 0.000000
0.271378 0.791776 0.000000
0.305950 0.792440 0.000000
0.340522 0.793104 0.000000
0.375094 0.793769 0.000000
0.409666 0.794433 0.000000
0.444238 0.795098 0.000000
0.478809 0.795762 0.000000
0.513381 0.796426 0.000000
0.547953 0.797091 0.000000
0.582525 0.797755 0.000000
0.617097 0.798419 0.000000
0.651669 0.799084 0.000000
0.686241 0.799748 0.000000
0.720812 0.800412 0.000000
0.755384 0.801077 0.000000
0.789956 0.801741 0.000000
0.824528 0.802406 0.000000
0.859100 0.803070 0.000000
0.893672 0.803734 0.000000
0.928244 0.804399 0.000000
0.962816 0.805063 0.000000
0.997387 0.805728 0.000000
1.000000 0.806392 0.000000
1.000000 0.807056 0.000000
1.000000 0.807721 0.000000
1.000000 0.808385 0.000000
0.040550 0.820610 0.000000
0.075122 0.821274 0.000000
0.109694 0.821939 0.000000
0.144266 0.822603 0.000000
0.178837 0.823268 0.000000
0.213409 0.823932 0.000000
0.247981 0.824596 0.000000
0.282553 0.825261 0.000000
0.317125 0.825925 0.000000
0.351697 0.826589 0.000000
0.386269 0.827254 0.000000
0.420841 0.827918 0.000000
0.455412 0.828582 0.000000
0.489984 0.829247 0.000000
0.524556 0.829911 0.000000
0.559128 0.830576 0.000000
0.593700 0.831240 0.000000
0.628272 0.831904 0.000000
