tests/assets/LUTs/generated/teal_orange_strong_33.cube
# teal_orange_strong_33.cube
# Generated by generate-luts.py for CodeBrix.VideoPlayback.
# PUBLIC DOMAIN (CC0 1.0 Universal). No rights reserved.
# Definition: luma = 0.2126*r + 0.7152*g + 0.0722*b (Rec.709); shift = (luma - 0.5) * 2; out = clamp(r + 0.25*shift, g + 0.05*shift, b - 0.25*shift).
TITLE "Teal and Orange Strong 33"
LUT_3D_SIZE 5
0.000000 0.000000 0.250000
0.026575 0.000000 0.223425
0.303150 0.000000 0.196850
0.579725 0.000000 0.170275
0.856300 0.000000 0.143700
0.000000 0.217880 0.160600
0.115975 0.223195 0.134025
0.392550 0.228510 0.107450
0.669125 0.233825 0.080875
0.945700 0.239140 0.054300
0.000000 0.485760 0.071200
0.205375 0.491075 0.044625
0.481950 0.496390 0.018050
0.758525 0.501705 0.000000
1.000000 0.507020 0.000000
0.018200 0.753640 0.000000
0.294775 0.758955 0.000000
0.571350 0.764270 0.000000
0.847925 0.769585 0.000000
1.000000 0.774900 0.000000
0.107600 1.000000 0.000000
0.384175 1.000000 0.000000
0.660750 1.000000 0.000000
0.937325 1.000000 0.000000
1.000000 1.000000 0.000000
0.000000 0.000000 0.490975
0.035600 0.000000 0.464400
0.312175 0.000000 0.437825
0.588750 0.000000 0.411250
0.865325 0.000000 0.384675
0.000000 0.219685 0.401575
0.125000 0.225000 0.375000
0.401575 0.230315 0.348425
0.678150 0.235630 0.321850
0.954725 0.240945 0.295275
0.000000 0.487565 0.312175
0.214400 0.492880 0.285600
0.490975 0.498195 0.259025
0.767550 0.503510 0.232450
1.000000 0.508825 0.205875
0.027225 0.755445 0.222775
0.303800 0.760760 0.196200
0.580375 0.766075 0.169625
0.856950 0.771390 0.143050
1.000000 0.776705 0.116475
0.116625 1.000000 0.133375
0.393200 1.000000 0.106800
0.669775 1.000000 0.080225
0.946350 1.000000 0.053650
1.000000 1.000000 0.027075
0.000000 0.000000 0.731950
0.044625 0.000000 0.705375
0.321200 0.000000 0.678800
0.597775 0.000000 0.652225
0.874350 0.000000 0.625650
0.000000 0.221490 0.642550
0.134025 0.226805 0.615975
0.410600 0.232120 0.589400
0.687175 0.237435 0.562825
0.963750 0.242750 0.536250
0.000000 0.489370 0.553150
0.223425 0.494685 0.526575
0.500000 0.500000 0.500000
0.776575 0.505315 0.473425
1.000000 0.510630 0.446850
0.036250 0.757250 0.463750
0.312825 0.762565 0.437175
0.589400 0.767880 0.410600
0.865975 0.773195 0.384025
1.000000 0.778510 0.357450
0.125650 1.000000 0.374350
0.402225 1.000000 0.347775
0.678800 1.000000 0.321200
0.955375 1.000000 0.294625
1.000000 1.000000 0.268050
0.000000 0.000000 0.972925
0.053650 0.000000 0.946350
0.330225 0.000000 0.919775
0.606800 0.000000 0.893200
0.883375 0.000000 0.866625
0.000000 0.223295 0.883525
0.143050 0.228610 0.856950
0.419625 0.233925 0.830375
0.696200 0.239240 0.803800
0.972775 0.244555 0.777225
0.000000 0.491175 0.794125
0.232450 0.496490 0.767550
0.509025 0.501805 0.740975
0.785600 0.507120 0.714400
1.000000 0.512435 0.687825
0.045275 0.759055 0.704725
0.321850 0.764370 0.678150
0.598425 0.769685 0.651575
0.875000 0.775000 0.625000
1.000000 0.780315 0.598425
0.134675 1.000000 0.615325
0.411250 1.000000 0.588750
0.687825 1.000000 0.562175
0.964400 1.000000 0.535600
1.000000 1.000000 0.509025
0.000000 0.000000 1.000000
0.062675 0.000000 1.000000
0.339250 0.000000 1.000000
0.615825 0.000000 1.000000
0.892400 0.000000 1.000000
0.000000 0.225100 1.000000
0.152075 0.230415 1.000000
0.428650 0.235730 1.000000
0.705225 0.241045 1.000000
0.981800 0.246360 1.000000
0.000000 0.492980 1.000000
0.241475 0.498295 1.000000
0.518050 0.503610 0.981950
0.794625 0.508925 0.955375
1.000000 0.514240 0.928800
0.054300 0.760860 0.945700
0.330875 0.766175 0.919125
0.607450 0.771490 0.892550
0.884025 0.776805 0.865975
1.000000 0.782120 0.839400
0.143700 1.000000 0.856300
0.420275 1.000000 0.829725
0.696850 1.000000 0.803150
0.973425 1.000000 0.776575
1.000000 1.000000 0.750000
