tests/assets/LUTs/generated/warm_33.cube
# warm_33.cube
# Generated by generate-luts.py for CodeBrix.VideoPlayback.
# PUBLIC DOMAIN (CC0 1.0 Universal). No rights reserved.
# Definition: out = clamp(in * (1.06, 1.00, 0.94)) per channel.
TITLE "Warm 33"
LUT_3D_SIZE 33
0.000000 0.000000 0.000000
0.033125 0.000000 0.000000
0.066250 0.000000 0.000000
0.099375 0.000000 0.000000
0.132500 0.000000 0.000000
0.165625 0.000000 0.000000
0.198750 0.000000 0.000000
0.231875 0.000000 0.000000
0.265000 0.000000 0.000000
0.298125 0.000000 0.000000
0.331250 0.000000 0.000000
0.364375 0.000000 0.000000
0.397500 0.000000 0.000000
0.430625 0.000000 0.000000
0.463750 0.000000 0.000000
0.496875 0.000000 0.000000
0.530000 0.000000 0.000000
0.563125 0.000000 0.000000
0.596250 0.000000 0.000000
0.629375 0.000000 0.000000
0.662500 0.000000 0.000000
0.695625 0.000000 0.000000
0.728750 0.000000 0.000000
0.761875 0.000000 0.000000
0.795000 0.000000 0.000000
0.828125 0.000000 0.000000
0.861250 0.000000 0.000000
0.894375 0.000000 0.000000
0.927500 0.000000 0.000000
0.960625 0.000000 0.000000
0.993750 0.000000 0.000000
1.000000 0.000000 0.000000
1.000000 0.000000 0.000000
0.000000 0.031250 0.000000
0.033125 0.031250 0.000000
0.066250 0.031250 0.000000
0.099375 0.031250 0.000000
0.132500 0.031250 0.000000
0.165625 0.031250 0.000000
0.198750 0.031250 0.000000
0.231875 0.031250 0.000000
0.265000 0.031250 0.000000
0.298125 0.031250 0.000000
0.331250 0.031250 0.000000
0.364375 0.031250 0.000000
0.397500 0.031250 0.000000
0.430625 0.031250 0.000000
0.463750 0.031250 0.000000
0.496875 0.031250 0.000000
0.530000 0.031250 0.000000
0.563125 0.031250 0.000000
0.596250 0.031250 0.000000
0.629375 0.031250 0.000000
0.662500 0.031250 0.000000
0.695625 0.031250 0.000000
0.728750 0.031250 0.000000
0.761875 0.031250 0.000000
0.795000 0.031250 0.000000
0.828125 0.031250 0.000000
0.861250 0.031250 0.000000
0.894375 0.031250 0.000000
0.927500 0.031250 0.000000
0.960625 0.031250 0.000000
0.993750 0.031250 0.000000
1.000000 0.031250 0.000000
1.000000 0.031250 0.000000
0.000000 0.062500 0.000000
0.033125 0.062500 0.000000
0.066250 0.062500 0.000000
0.099375 0.062500 0.000000
0.132500 0.062500 0.000000
0.165625 0.062500 0.000000
0.198750 0.062500 0.000000
0.231875 0.062500 0.000000
0.265000 0.062500 0.000000
0.298125 0.062500 0.000000
0.331250 0.062500 0.000000
0.364375 0.062500 0.000000
0.397500 0.062500 0.000000
0.430625 0.062500 0.000000
0.463750 0.062500 0.000000
0.496875 0.062500 0.000000
0.530000 0.062500 0.000000
0.563125 0.062500 0.000000
0.596250 0.062500 0.000000
0.629375 0.062500 0.000000
0.662500 0.062500 0.000000
0.695625 0.062500 0.000000
0.728750 0.062500 0.000000
0.761875 0.062500 0.000000
0.795000 0.062500 0.000000
0.828125 0.062500 0.000000
0.861250 0.062500 0.000000
0.894375 0.062500 0.000000
0.927500 0.062500 0.000000
0.960625 0.062500 0.000000
0.993750 0.062500 0.000000
1.000000 0.062500 0.000000
1.000000 0.062500 0.000000
0.000000 0.093750 0.000000
0.033125 0.093750 0.000000
0.066250 0.093750 0.000000
0.099375 0.093750 0.000000
0.132500 0.093750 0.000000
0.165625 0.093750 0.000000
0.198750 0.093750 0.000000
0.231875 0.093750 0.000000
0.265000 0.093750 0.000000
0.298125 0.093750 0.000000
0.331250 0.093750 0.000000
0.364375 0.093750 0.000000
0.397500 0.093750 0.000000
0.430625 0.093750 0.000000
0.463750 0.093750 0.000000
0.496875 0.093750 0.000000
0.530000 0.093750 0.000000
0.563125 0.093750 0.000000
0.596250 0.093750 0.000000
0.629375 0.093750 0.000000
0.662500 0.093750 0.000000
0.695625 0.093750 0.000000
0.728750 0.093750 0.000000
0.761875 0.093750 0.000000
0.795000 0.093750 0.000000
0.828125 0.093750 0.000000
0.861250 0.093750 0.000000
0.894375 0.093750 0.000000
0.927500 0.093750 0.000000
0.960625 0.093750 0.000000
0.993750 0.093750 0.000000
1.000000 0.093750 0.000000
1.000000 0.093750 0.000000
0.000000 0.125000 0.000000
0.033125 0.125000 0.000000
0.066250 0.125000 0.000000
0.099375 0.125000 0.000000
0.132500 0.125000 0.000000
0.165625 0.125000 0.000000
0.198750 0.125000 0.000000
0.231875 0.125000 0.000000
0.265000 0.125000 0.000000
0.298125 0.125000 0.000000
0.331250 0.125000 0.000000
0.364375 0.125000 0.000000
0.397500 0.125000 0.000000
0.430625 0.125000 0.000000
0.463750 0.125000 0.000000
0.496875 0.125000 0.000000
0.530000 0.125000 0.000000
0.563125 0.125000 0.000000
0.596250 0.125000 0.000000
0.629375 0.125000 0.000000
0.662500 0.125000 0.000000
0.695625 0.125000 0.000000
0.728750 0.125000 0.000000
0.761875 0.125000 0.000000
0.795000 0.125000 0.000000
0.828125 0.125000 0.000000
0.861250 0.125000 0.000000
0.894375 0.125000 0.000000
0.927500 0.125000 0.000000
0.960625 0.125000 0.000000
0.993750 0.125000 0.000000
1.000000 0.125000 0.000000
1.000000 0.125000 0.000000
0.000000 0.156250 0.000000
0.033125 0.156250 0.000000
0.066250 0.156250 0.000000
0.099375 0.156250 0.000000
0.132500 0.156250 0.000000
0.165625 0.156250 0.000000
0.198750 0.156250 0.000000
0.231875 0.156250 0.000000
0.265000 0.156250 0.000000
0.298125 0.156250 0.000000
0.331250 0.156250 0.000000
0.364375 0.156250 0.000000
0.397500 0.156250 0.000000
0.430625 0.156250 0.000000
0.463750 0.156250 0.000000
0.496875 0.156250 0.000000
0.530000 0.156250 0.000000
0.563125 0.156250 0.000000
0.596250 0.156250 0.000000
0.629375 0.156250 0.000000
0.662500 0.156250 0.000000
0.695625 0.156250 0.000000
0.728750 0.156250 0.000000
0.761875 0.156250 0.000000
0.795000 0.156250 0.000000
0.828125 0.156250 0.000000
0.861250 0.156250 0.000000
0.894375 0.156250 0.000000
0.927500 0.156250 0.000000
0.960625 0.156250 0.000000
0.993750 0.156250 0.000000
1.000000 0.156250 0.000000
1.000000 0.156250 0.000000
0.000000 0.187500 0.000000
0.033125 0.187500 0.000000
0.066250 0.187500 0.000000
0.099375 0.187500 0.000000
0.132500 0.187500 0.000000
0.165625 0.187500 0.000000
0.198750 0.187500 0.000000
0.231875 0.187500 0.000000
0.265000 0.187500 0.000000
0.298125 0.187500 0.000000
0.331250 0.187500 0.000000
0.364375 0.187500 0.000000
0.397500 0.187500 0.000000
0.430625 0.187500 0.000000
0.463750 0.187500 0.000000
0.496875 0.187500 0.000000
0.530000 0.187500 0.000000
0.563125 0.187500 0.000000
0.596250 0.187500 0.000000
0.629375 0.187500 0.000000
0.662500 0.187500 0.000000
0.695625 0.187500 0.000000
0.728750 0.187500 0.000000
0.761875 0.187500 0.000000
0.795000 0.187500 0.000000
0.828125 0.187500 0.000000
0.861250 0.187500 0.000000
0.894375 0.187500 0.000000
0.927500 0.187500 0.000000
0.960625 0.187500 0.000000
0.993750 0.187500 0.000000
1.000000 0.187500 0.000000
1.000000 0.187500 0.000000
0.000000 0.218750 0.000000
0.033125 0.218750 0.000000
0.066250 0.218750 0.000000
0.099375 0.218750 0.000000
0.132500 0.218750 0.000000
0.165625 0.218750 0.000000
0.198750 0.218750 0.000000
0.231875 0.218750 0.000000
0.265000 0.218750 0.000000
0.298125 0.218750 0.000000
0.331250 0.218750 0.000000
0.364375 0.218750 0.000000
0.397500 0.218750 0.000000
0.430625 0.218750 0.000000
0.463750 0.218750 0.000000
0.496875 0.218750 0.000000
0.530000 0.218750 0.000000
0.563125 0.218750 0.000000
0.596250 0.218750 0.000000
0.629375 0.218750 0.000000
0.662500 0.218750 0.000000
0.695625 0.218750 0.000000
0.728750 0.218750 0.000000
0.761875 0.218750 0.000000
0.795000 0.218750 0.000000
0.828125 0.218750 0.000000
0.861250 0.218750 0.000000
0.894375 0.218750 0.000000
0.927500 0.218750 0.000000
0.960625 0.218750 0.000000
0.993750 0.218750 0.000000
1.000000 0.218750 0.000000
1.000000 0.218750 0.000000
0.000000 0.250000 0.000000
0.033125 0.250000 0.000000
0.066250 0.250000 0.000000
0.099375 0.250000 0.000000
0.132500 0.250000 0.000000
0.165625 0.250000 0.000000
0.198750 0.250000 0.000000
0.231875 0.250000 0.000000
0.265000 0.250000 0.000000
0.298125 0.250000 0.000000
0.331250 0.250000 0.000000
0.364375 0.250000 0.000000
0.397500 0.250000 0.000000
0.430625 0.250000 0.000000
0.463750 0.250000 0.000000
0.496875 0.250000 0.000000
0.530000 0.250000 0.000000
0.563125 0.250000 0.000000
0.596250 0.250000 0.000000
0.629375 0.250000 0.000000
0.662500 0.250000 0.000000
0.695625 0.250000 0.000000
0.728750 0.250000 0.000000
0.761875 0.250000 0.000000
0.795000 0.250000 0.000000
0.828125 0.250000 0.000000
0.861250 0.250000 0.000000
0.894375 0.250000 0.000000
0.927500 0.250000 0.000000
0.960625 0.250000 0.000000
0.993750 0.250000 0.000000
1.000000 0.250000 0.000000
1.000000 0.250000 0.000000
0.000000 0.281250 0.000000
0.033125 0.281250 0.000000
0.066250 0.281250 0.000000
0.099375 0.281250 0.000000
0.132500 0.281250 0.000000
0.165625 0.281250 0.000000
0.198750 0.281250 0.000000
0.231875 0.281250 0.000000
0.265000 0.281250 0.000000
0.298125 0.281250 0.000000
0.331250 0.281250 0.000000
0.364375 0.281250 0.000000
0.397500 0.281250 0.000000
0.430625 0.281250 0.000000
0.463750 0.281250 0.000000
0.496875 0.281250 0.000000
0.530000 0.281250 0.000000
0.563125 0.281250 0.000000
0.596250 0.281250 0.000000
0.629375 0.281250 0.000000
0.662500 0.281250 0.000000
0.695625 0.281250 0.000000
0.728750 0.281250 0.000000
0.761875 0.281250 0.000000
0.795000 0.281250 0.000000
0.828125 0.281250 0.000000
0.861250 0.281250 0.000000
0.894375 0.281250 0.000000
0.927500 0.281250 0.000000
0.960625 0.281250 0.000000
0.993750 0.281250 0.000000
1.000000 0.281250 0.000000
1.000000 0.281250 0.000000
0.000000 0.312500 0.000000
0.033125 0.312500 0.000000
0.066250 0.312500 0.000000
0.099375 0.312500 0.000000
0.132500 0.312500 0.000000
0.165625 0.312500 0.000000
0.198750 0.312500 0.000000
0.231875 0.312500 0.000000
0.265000 0.312500 0.000000
0.298125 0.312500 0.000000
0.331250 0.312500 0.000000
0.364375 0.312500 0.000000
0.397500 0.312500 0.000000
0.430625 0.312500 0.000000
0.463750 0.312500 0.000000
0.496875 0.312500 0.000000
0.530000 0.312500 0.000000
0.563125 0.312500 0.000000
0.596250 0.312500 0.000000
0.629375 0.312500 0.000000
0.662500 0.312500 0.000000
0.695625 0.312500 0.000000
0.728750 0.312500 0.000000
0.761875 0.312500 0.000000
0.795000 0.312500 0.000000
0.828125 0.312500 0.000000
0.861250 0.312500 0.000000
0.894375 0.312500 0.000000
0.927500 0.312500 0.000000
0.960625 0.312500 0.000000
0.993750 0.312500 0.000000
1.000000 0.312500 0.000000
1.000000 0.312500 0.000000
0.000000 0.343750 0.000000
0.033125 0.343750 0.000000
0.066250 0.343750 0.000000
0.099375 0.343750 0.000000
0.132500 0.343750 0.000000
0.165625 0.343750 0.000000
0.198750 0.343750 0.000000
0.231875 0.343750 0.000000
0.265000 0.343750 0.000000
0.298125 0.343750 0.000000
0.331250 0.343750 0.000000
0.364375 0.343750 0.000000
0.397500 0.343750 0.000000
0.430625 0.343750 0.000000
0.463750 0.343750 0.000000
0.496875 0.343750 0.000000
0.530000 0.343750 0.000000
0.563125 0.343750 0.000000
0.596250 0.343750 0.000000
0.629375 0.343750 0.000000
0.662500 0.343750 0.000000
0.695625 0.343750 0.000000
0.728750 0.343750 0.000000
0.761875 0.343750 0.000000
0.795000 0.343750 0.000000
0.828125 0.343750 0.000000
0.861250 0.343750 0.000000
0.894375 0.343750 0.000000
0.927500 0.343750 0.000000
0.960625 0.343750 0.000000
0.993750 0.343750 0.000000
1.000000 0.343750 0.000000
1.000000 0.343750 0.000000
0.000000 0.375000 0.000000
0.033125 0.375000 0.000000
0.066250 0.375000 0.000000
0.099375 0.375000 0.000000
0.132500 0.375000 0.000000
0.165625 0.375000 0.000000
0.198750 0.375000 0.000000
0.231875 0.375000 0.000000
0.265000 0.375000 0.000000
0.298125 0.375000 0.000000
0.331250 0.375000 0.000000
0.364375 0.375000 0.000000
0.397500 0.375000 0.000000
0.430625 0.375000 0.000000
0.463750 0.375000 0.000000
0.496875 0.375000 0.000000
0.530000 0.375000 0.000000
0.563125 0.375000 0.000000
0.596250 0.375000 0.000000
0.629375 0.375000 0.000000
0.662500 0.375000 0.000000
0.695625 0.375000 0.000000
0.728750 0.375000 0.000000
0.761875 0.375000 0.000000
0.795000 0.375000 0.000000
0.828125 0.375000 0.000000
0.861250 0.375000 0.000000
0.894375 0.375000 0.000000
0.927500 0.375000 0.000000
0.960625 0.375000 0.000000
0.993750 0.375000 0.000000
1.000000 0.375000 0.000000
1.000000 0.375000 0.000000
0.000000 0.406250 0.000000
0.033125 0.406250 0.000000
0.066250 0.406250 0.000000
0.099375 0.406250 0.000000
0.132500 0.406250 0.000000
0.165625 0.406250 0.000000
0.198750 0.406250 0.000000
0.231875 0.406250 0.000000
0.265000 0.406250 0.000000
0.298125 0.406250 0.000000
0.331250 0.406250 0.000000
0.364375 0.406250 0.000000
0.397500 0.406250 0.000000
0.430625 0.406250 0.000000
0.463750 0.406250 0.000000
0.496875 0.406250 0.000000
0.530000 0.406250 0.000000
0.563125 0.406250 0.000000
0.596250 0.406250 0.000000
0.629375 0.406250 0.000000
0.662500 0.406250 0.000000
0.695625 0.406250 0.000000
0.728750 0.406250 0.000000
0.761875 0.406250 0.000000
0.795000 0.406250 0.000000
0.828125 0.406250 0.000000
0.861250 0.406250 0.000000
0.894375 0.406250 0.000000
0.927500 0.406250 0.000000
0.960625 0.406250 0.000000
0.993750 0.406250 0.000000
1.000000 0.406250 0.000000
1.000000 0.406250 0.000000
0.000000 0.437500 0.000000
0.033125 0.437500 0.000000
0.066250 0.437500 0.000000
0.099375 0.437500 0.000000
0.132500 0.437500 0.000000
0.165625 0.437500 0.000000
0.198750 0.437500 0.000000
0.231875 0.437500 0.000000
0.265000 0.437500 0.000000
0.298125 0.437500 0.000000
0.331250 0.437500 0.000000
0.364375 0.437500 0.000000
0.397500 0.437500 0.000000
0.430625 0.437500 0.000000
0.463750 0.437500 0.000000
0.496875 0.437500 0.000000
0.530000 0.437500 0.000000
0.563125 0.437500 0.000000
0.596250 0.437500 0.000000
0.629375 0.437500 0.000000
0.662500 0.437500 0.000000
0.695625 0.437500 0.000000
0.728750 0.437500 0.000000
0.761875 0.437500 0.000000
0.795000 0.437500 0.000000
0.828125 0.437500 0.000000
0.861250 0.437500 0.000000
0.894375 0.437500 0.000000
0.927500 0.437500 0.000000
0.960625 0.437500 0.000000
0.993750 0.437500 0.000000
1.000000 0.437500 0.000000
1.000000 0.437500 0.000000
0.000000 0.468750 0.000000
0.033125 0.468750 0.000000
0.066250 0.468750 0.000000
0.099375 0.468750 0.000000
0.132500 0.468750 0.000000
0.165625 0.468750 0.000000
0.198750 0.468750 0.000000
0.231875 0.468750 0.000000
0.265000 0.468750 0.000000
0.298125 0.468750 0.000000
0.331250 0.468750 0.000000
0.364375 0.468750 0.000000
0.397500 0.468750 0.000000
0.430625 0.468750 0.000000
0.463750 0.468750 0.000000
0.496875 0.468750 0.000000
0.530000 0.468750 0.000000
0.563125 0.468750 0.000000
0.596250 0.468750 0.000000
0.629375 0.468750 0.000000
0.662500 0.468750 0.000000
0.695625 0.468750 0.000000
0.728750 0.468750 0.000000
0.761875 0.468750 0.000000
0.795000 0.468750 0.000000
0.828125 0.468750 0.000000
0.861250 0.468750 0.000000
0.894375 0.468750 0.000000
0.927500 0.468750 0.000000
0.960625 0.468750 0.000000
0.993750 0.468750 0.000000
1.000000 0.468750 0.000000
1.000000 0.468750 0.000000
0.000000 0.500000 0.000000
0.033125 0.500000 0.000000
0.066250 0.500000 0.000000
0.099375 0.500000 0.000000
0.132500 0.500000 0.000000
0.165625 0.500000 0.000000
0.198750 0.500000 0.000000
0.231875 0.500000 0.000000
0.265000 0.500000 0.000000
0.298125 0.500000 0.000000
0.331250 0.500000 0.000000
0.364375 0.500000 0.000000
0.397500 0.500000 0.000000
0.430625 0.500000 0.000000
0.463750 0.500000 0.000000
0.496875 0.500000 0.000000
0.530000 0.500000 0.000000
0.563125 0.500000 0.000000
0.596250 0.500000 0.000000
0.629375 0.500000 0.000000
0.662500 0.500000 0.000000
0.695625 0.500000 0.000000
0.728750 0.500000 0.000000
0.761875 0.500000 0.000000
0.795000 0.500000 0.000000
0.828125 0.500000 0.000000
0.861250 0.500000 0.000000
0.894375 0.500000 0.000000
0.927500 0.500000 0.000000
0.960625 0.500000 0.000000
0.993750 0.500000 0.000000
1.000000 0.500000 0.000000
1.000000 0.500000 0.000000
0.000000 0.531250 0.000000
0.033125 0.531250 0.000000
0.066250 0.531250 0.000000
0.099375 0.531250 0.000000
0.132500 0.531250 0.000000
0.165625 0.531250 0.000000
0.198750 0.531250 0.000000
0.231875 0.531250 0.000000
0.265000 0.531250 0.000000
0.298125 0.531250 0.000000
0.331250 0.531250 0.000000
0.364375 0.531250 0.000000
0.397500 0.531250 0.000000
0.430625 0.531250 0.000000
0.463750 0.531250 0.000000
0.496875 0.531250 0.000000
0.530000 0.531250 0.000000
0.563125 0.531250 0.000000
0.596250 0.531250 0.000000
0.629375 0.531250 0.000000
0.662500 0.531250 0.000000
0.695625 0.531250 0.000000
0.728750 0.531250 0.000000
0.761875 0.531250 0.000000
0.795000 0.531250 0.000000
0.828125 0.531250 0.000000
0.861250 0.531250 0.000000
0.894375 0.531250 0.000000
0.927500 0.531250 0.000000
0.960625 0.531250 0.000000
0.993750 0.531250 0.000000
1.000000 0.531250 0.000000
1.000000 0.531250 0.000000
0.000000 0.562500 0.000000
0.033125 0.562500 0.000000
0.066250 0.562500 0.000000
0.099375 0.562500 0.000000
0.132500 0.562500 0.000000
0.165625 0.562500 0.000000
0.198750 0.562500 0.000000
0.231875 0.562500 0.000000
0.265000 0.562500 0.000000
0.298125 0.562500 0.000000
0.331250 0.562500 0.000000
0.364375 0.562500 0.000000
0.397500 0.562500 0.000000
0.430625 0.562500 0.000000
0.463750 0.562500 0.000000
0.496875 0.562500 0.000000
0.530000 0.562500 0.000000
0.563125 0.562500 0.000000
0.596250 0.562500 0.000000
0.629375 0.562500 0.000000
0.662500 0.562500 0.000000
0.695625 0.562500 0.000000
0.728750 0.562500 0.000000
0.761875 0.562500 0.000000
0.795000 0.562500 0.000000
0.828125 0.562500 0.000000
0.861250 0.562500 0.000000
0.894375 0.562500 0.000000
0.927500 0.562500 0.000000
0.960625 0.562500 0.000000
0.993750 0.562500 0.000000
1.000000 0.562500 0.000000
1.000000 0.562500 0.000000
0.000000 0.593750 0.000000
0.033125 0.593750 0.000000
0.066250 0.593750 0.000000
0.099375 0.593750 0.000000
0.132500 0.593750 0.000000
0.165625 0.593750 0.000000
0.198750 0.593750 0.000000
0.231875 0.593750 0.000000
0.265000 0.593750 0.000000
0.298125 0.593750 0.000000
0.331250 0.593750 0.000000
0.364375 0.593750 0.000000
0.397500 0.593750 0.000000
0.430625 0.593750 0.000000
0.463750 0.593750 0.000000
0.496875 0.593750 0.000000
0.530000 0.593750 0.000000
0.563125 0.593750 0.000000
0.596250 0.593750 0.000000
0.629375 0.593750 0.000000
0.662500 0.593750 0.000000
0.695625 0.593750 0.000000
0.728750 0.593750 0.000000
0.761875 0.593750 0.000000
0.795000 0.593750 0.000000
0.828125 0.593750 0.000000
0.861250 0.593750 0.000000
0.894375 0.593750 0.000000
0.927500 0.593750 0.000000
0.960625 0.593750 0.000000
0.993750 0.593750 0.000000
1.000000 0.593750 0.000000
1.000000 0.593750 0.000000
0.000000 0.625000 0.000000
0.033125 0.625000 0.000000
0.066250 0.625000 0.000000
0.099375 0.625000 0.000000
0.132500 0.625000 0.000000
0.165625 0.625000 0.000000
0.198750 0.625000 0.000000
0.231875 0.625000 0.000000
0.265000 0.625000 0.000000
0.298125 0.625000 0.000000
0.331250 0.625000 0.000000
0.364375 0.625000 0.000000
0.397500 0.625000 0.000000
0.430625 0.625000 0.000000
0.463750 0.625000 0.000000
0.496875 0.625000 0.000000
0.530000 0.625000 0.000000
0.563125 0.625000 0.000000
0.596250 0.625000 0.000000
0.629375 0.625000 0.000000
0.662500 0.625000 0.000000
0.695625 0.625000 0.000000
0.728750 0.625000 0.000000
0.761875 0.625000 0.000000
0.795000 0.625000 0.000000
0.828125 0.625000 0.000000
0.861250 0.625000 0.000000
0.894375 0.625000 0.000000
0.927500 0.625000 0.000000
0.960625 0.625000 0.000000
0.993750 0.625000 0.000000
1.000000 0.625000 0.000000
1.000000 0.625000 0.000000
0.000000 0.656250 0.000000
0.033125 0.656250 0.000000
0.066250 0.656250 0.000000
0.099375 0.656250 0.000000
0.132500 0.656250 0.000000
0.165625 0.656250 0.000000
0.198750 0.656250 0.000000
0.231875 0.656250 0.000000
0.265000 0.656250 0.000000
0.298125 0.656250 0.000000
0.331250 0.656250 0.000000
0.364375 0.656250 0.000000
0.397500 0.656250 0.000000
0.430625 0.656250 0.000000
0.463750 0.656250 0.000000
0.496875 0.656250 0.000000
0.530000 0.656250 0.000000
0.563125 0.656250 0.000000
0.596250 0.656250 0.000000
0.629375 0.656250 0.000000
0.662500 0.656250 0.000000
0.695625 0.656250 0.000000
0.728750 0.656250 0.000000
0.761875 0.656250 0.000000
0.795000 0.656250 0.000000
0.828125 0.656250 0.000000
0.861250 0.656250 0.000000
0.894375 0.656250 0.000000
0.927500 0.656250 0.000000
0.960625 0.656250 0.000000
0.993750 0.656250 0.000000
1.000000 0.656250 0.000000
1.000000 0.656250 0.000000
0.000000 0.687500 0.000000
0.033125 0.687500 0.000000
0.066250 0.687500 0.000000
0.099375 0.687500 0.000000
0.132500 0.687500 0.000000
0.165625 0.687500 0.000000
0.198750 0.687500 0.000000
0.231875 0.687500 0.000000
0.265000 0.687500 0.000000
0.298125 0.687500 0.000000
0.331250 0.687500 0.000000
0.364375 0.687500 0.000000
0.397500 0.687500 0.000000
0.430625 0.687500 0.000000
0.463750 0.687500 0.000000
0.496875 0.687500 0.000000
0.530000 0.687500 0.000000
0.563125 0.687500 0.000000
0.596250 0.687500 0.000000
0.629375 0.687500 0.000000
0.662500 0.687500 0.000000
0.695625 0.687500 0.000000
0.728750 0.687500 0.000000
0.761875 0.687500 0.000000
0.795000 0.687500 0.000000
0.828125 0.687500 0.000000
0.861250 0.687500 0.000000
0.894375 0.687500 0.000000
0.927500 0.687500 0.000000
0.960625 0.687500 0.000000
0.993750 0.687500 0.000000
1.000000 0.687500 0.000000
1.000000 0.687500 0.000000
0.000000 0.718750 0.000000
0.033125 0.718750 0.000000
0.066250 0.718750 0.000000
0.099375 0.718750 0.000000
0.132500 0.718750 0.000000
0.165625 0.718750 0.000000
0.198750 0.718750 0.000000
0.231875 0.718750 0.000000
0.265000 0.718750 0.000000
0.298125 0.718750 0.000000
0.331250 0.718750 0.000000
0.364375 0.718750 0.000000
0.397500 0.718750 0.000000
0.430625 0.718750 0.000000
0.463750 0.718750 0.000000
0.496875 0.718750 0.000000
0.530000 0.718750 0.000000
0.563125 0.718750 0.000000
0.596250 0.718750 0.000000
0.629375 0.718750 0.000000
0.662500 0.718750 0.000000
0.695625 0.718750 0.000000
0.728750 0.718750 0.000000
0.761875 0.718750 0.000000
0.795000 0.718750 0.000000
0.828125 0.718750 0.000000
0.861250 0.718750 0.000000
0.894375 0.718750 0.000000
0.927500 0.718750 0.000000
0.960625 0.718750 0.000000
0.993750 0.718750 0.000000
1.000000 0.718750 0.000000
1.000000 0.718750 0.000000
0.000000 0.750000 0.000000
0.033125 0.750000 0.000000
0.066250 0.750000 0.000000
0.099375 0.750000 0.000000
0.132500 0.750000 0.000000
0.165625 0.750000 0.000000
0.198750 0.750000 0.000000
0.231875 0.750000 0.000000
0.265000 0.750000 0.000000
0.298125 0.750000 0.000000
0.331250 0.750000 0.000000
0.364375 0.750000 0.000000
0.397500 0.750000 0.000000
0.430625 0.750000 0.000000
0.463750 0.750000 0.000000
0.496875 0.750000 0.000000
0.530000 0.750000 0.000000
0.563125 0.750000 0.000000
0.596250 0.750000 0.000000
0.629375 0.750000 0.000000
0.662500 0.750000 0.000000
0.695625 0.750000 0.000000
0.728750 0.750000 0.000000
0.761875 0.750000 0.000000
0.795000 0.750000 0.000000
0.828125 0.750000 0.000000
0.861250 0.750000 0.000000
0.894375 0.750000 0.000000
0.927500 0.750000 0.000000
0.960625 0.750000 0.000000
0.993750 0.750000 0.000000
1.000000 0.750000 0.000000
1.000000 0.750000 0.000000
0.000000 0.781250 0.000000
0.033125 0.781250 0.000000
0.066250 0.781250 0.000000
0.099375 0.781250 0.000000
0.132500 0.781250 0.000000
0.165625 0.781250 0.000000
0.198750 0.781250 0.000000
0.231875 0.781250 0.000000
0.265000 0.781250 0.000000
0.298125 0.781250 0.000000
0.331250 0.781250 0.000000
0.364375 0.781250 0.000000
0.397500 0.781250 0.000000
0.430625 0.781250 0.000000
0.463750 0.781250 0.000000
0.496875 0.781250 0.000000
0.530000 0.781250 0.000000
0.563125 0.781250 0.000000
0.596250 0.781250 0.000000
0.629375 0.781250 0.000000
0.662500 0.781250 0.000000
0.695625 0.781250 0.000000
0.728750 0.781250 0.000000
0.761875 0.781250 0.000000
0.795000 0.781250 0.000000
0.828125 0.781250 0.000000
0.861250 0.781250 0.000000
0.894375 0.781250 0.000000
0.927500 0.781250 0.000000
0.960625 0.781250 0.000000
0.993750 0.781250 0.000000
1.000000 0.781250 0.000000
1.000000 0.781250 0.000000
0.000000 0.812500 0.000000
0.033125 0.812500 0.000000
0.066250 0.812500 0.000000
0.099375 0.812500 0.000000
0.132500 0.812500 0.000000
0.165625 0.812500 0.000000
0.198750 0.812500 0.000000
0.231875 0.812500 0.000000
0.265000 0.812500 0.000000
0.298125 0.812500 0.000000
0.331250 0.812500 0.000000
0.364375 0.812500 0.000000
0.397500 0.812500 0.000000
0.430625 0.812500 0.000000
0.463750 0.812500 0.000000
0.496875 0.812500 0.000000
0.530000 0.812500 0.000000
0.563125 0.812500 0.000000
0.596250 0.812500 0.000000
0.629375 0.812500 0.000000
0.662500 0.812500 0.000000
0.695625 0.812500 0.000000
