tests/assets/LUTs/found/gtgluts/GTG Skin Warmer V2.cube
LUT_3D_SIZE 17
0.0008276840276147032 0.07057461566759218 0.08059804896301394
0.039211052348021025 0.07007371103583583 0.07945352614133486
0.08045902524898682 0.06912574645549643 0.07729189737494527
0.12507348122054934 0.0679240137769538 0.07400491623010241
0.17045936418859808 0.06587313427014854 0.07001834485166214
0.21877574199583466 0.06246966983059735 0.06519960269041497
0.2714408087878432 0.05688870636093292 0.0599643667538064
0.31955222076802486 0.05149772730106611 0.05625829064207333
0.36761503137549545 0.04986812975428067 0.054029332559690856
0.41713768808950435 0.05192481623701117 0.053278259770956425
0.4659108500714454 0.05689037060886288 0.05378230145294567
0.5086652792927088 0.06566894292740652 0.05687570351364636
0.5442255849134413 0.07432869276586393 0.06026094134339577
0.5822990038606699 0.083473833938594 0.06427576035890702
0.6068871390583878 0.08836398422822105 0.06691731286735798
0.6300661237657297 0.09132986762841441 0.06931248106272783
0.6527394564468809 0.09184294463534509 0.07135890565476853
0.0005011750137086247 0.10753868147615823 0.07979344439893614
0.03767346360369366 0.10573090012759324 0.07805195091444932
0.08259410499644051 0.1040678397606545 0.07478367095582414
0.1314391935311022 0.1021294393662239 0.0702670322645523
0.17924545207565074 0.098574831423579 0.0651430787037211
0.22820057331402196 0.09298339751300672 0.05929412462723406
0.28022237538337685 0.08421066119586772 0.05330690790919535
0.32715779009916207 0.07564623130032652 0.049611202172665604
0.37401632403380114 0.07108565371172357 0.04801027853381777
0.42256749119959697 0.07057089296687456 0.048096168382747564
0.4696878436690767 0.07346304270375344 0.04989247209512736
0.5114215883136899 0.07996653952600642 0.05394451525039734
0.546241990386996 0.08668741653803515 0.05789384717390395
0.5836298981769892 0.09405807794960541 0.06244099713282769
0.6077242068627734 0.09784887282160681 0.06541070353229961
0.6303551372195197 0.09981270557296437 0.06810601637478236
0.6524093474431751 0.09939528422003209 0.07044347854963633
0 0.14504929940458866 0.0787229790992379
0.034619279780088885 0.14399630383736683 0.07643872835593095
0.08203419467719868 0.14352456515364848 0.07203418685700907
0.1354810524262651 0.1430491076667449 0.06580530581560586
0.18900311391466 0.14112576832050558 0.058319374149992255
0.24172353715058106 0.13662102879016352 0.05001409140551928
0.2941650916307855 0.12721938741918168 0.04177915251248605
0.34048620012118314 0.11728145253989254 0.03716228807387945
0.38655443872728357 0.11116819572608086 0.03592017170553648
0.4346752380154739 0.10922934685636117 0.03686628745658461
0.47963863951981744 0.11179030609676736 0.04103381357939145
0.5211094235683805 0.11701436580045016 0.046299775307427106
0.5556982770585152 0.12285020484927052 0.05123287256289312
0.592416633322659 0.12945764618257077 0.05672872281637918
0.6159388503230429 0.13286701867458517 0.06033302611551065
0.6377063425984398 0.13453674476804367 0.06363270356378493
0.6585869524494427 0.13394230727121592 0.06656801967849506
0 0.18287500064735926 0.07751250600072077
0.03015044731378424 0.18247018889034042 0.07491280234333159
0.0766155901102675 0.18273119092672313 0.06987217693574825
0.13159792318273197 0.1833819348361272 0.06220783238079689
0.19029795416005651 0.18322772497486406 0.05240679189715017
0.2475911173286188 0.18064488303668144 0.0414936866554282
0.30172954178435635 0.17212592553008454 0.030403254126915365
0.34851195914049393 0.16141778088192993 0.02443264969245878
0.39457329402315683 0.15361465716755332 0.023452260663723273
0.44131965666511047 0.15013668155916254 0.026299184287358827
0.4860982822253284 0.1505505321610821 0.03184261928305555
0.5273154826893707 0.15378386963093735 0.038424995091229645
0.5614647842857006 0.15803114771051674 0.04447681756093403
0.597366705594333 0.1631553030613606 0.05105170940961372
0.6203858029740322 0.1658013497694332 0.055353408621756695
0.6415982643273127 0.16696881864986848 0.05925978858843505
0.6619111755765321 0.16619137787527105 0.06271206913419895
0 0.22069834554168685 0.07628453457811007
0.025877664529906447 0.22084097754691048 0.07353727874786875
0.06947565572737154 0.22183715926369404 0.06815673323595897
0.12232581641113416 0.22336465853816603 0.05970791089555472
0.1816474510222615 0.22446593802265147 0.04852884499799432
0.24030466798764277 0.2236084278962329 0.03596208199428823
0.2985649977195908 0.21762243969681008 0.02222431448011403
0.34781708708787473 0.20732121100764356 0.01425349886015511
0.3950923637369471 0.19811055148792076 0.013096474424608344
0.4421196567902582 0.19222735291002446 0.016737079856297264
0.4872845781628052 0.18986839901312752 0.023254413571226838
0.5285024462203601 0.19051324745400214 0.031011927702177138
0.5623472317153231 0.1926708191304033 0.038144368435001574
0.5975084330218393 0.19577794249980573 0.045800953811166834
0.6202616274544155 0.1973992826449945 0.050789819571845064
0.6413674302013852 0.1979401203538224 0.05524519588261125
0.6615835478128366 0.19718283913104942 0.059286229121123295
0 0.2611671853512888 0.07519411696518485
0.022050948828874425 0.2612134525270836 0.07242975259053516
0.06296129777279051 0.2625818866950071 0.06683390786977816
0.11119557483328334 0.2643960519983085 0.05827597468098711
0.16658876272135542 0.2658573365355955 0.04687419619288631
0.2233435688768574 0.2657631030975794 0.0339298281327661
0.285670631789348 0.2619514991545735 0.018842129559450277
0.33892877620353873 0.25337351100347455 0.008985798358986516
0.38844722135503373 0.24347919017582384 0.006556030277862597
0.4368408715200107 0.23533808797247188 0.009520102835239163
0.48303305654738593 0.2301230074368942 0.016249554035320166
0.5247436604058434 0.2279437949724625 0.024733157977769645
0.558684853013583 0.22779480879494046 0.03269369940035563
0.5935563987377541 0.22869599116698544 0.041218428861484836
0.61642266518688 0.22917139967103242 0.04676727482076637
0.6373053601932049 0.22935169970836874 0.052186122993584334
0.6561145662305978 0.22972590796895 0.058422061753499586
0 0.30668622307098514 0.0744357612799805
0.018261061284789833 0.30693898897096417 0.07184414419860176
0.05678591669301693 0.3091433383879398 0.066202424822069
0.09942193946530214 0.3118470661866986 0.05802587128852956
0.14817405389332428 0.31424161077412405 0.047240130733580035
0.2007294464292623 0.31534583291936885 0.03472634303927982
0.26370568491675606 0.3137984269213709 0.019872738288067425
0.32195751282897045 0.30737638175452714 0.009213338221573872
0.3746925651959588 0.2977337766481077 0.004382065594764513
0.42485840960406396 0.2876885543384973 0.005439985298414751
0.4728669400174377 0.2792812217488572 0.011300294739448796
0.5158761373257819 0.27358047978307765 0.01980047289193859
0.5506225509832496 0.2704341447657069 0.028167258886972017
0.5859499494763939 0.26845115987681545 0.037194085932065975
0.6081608520560472 0.2678475010649305 0.04448165389046155
0.6281677264478893 0.26760321780955243 0.05191511590066632
0.6479445848551236 0.266968584585833 0.05831871419955155
0 0.3510185164966273 0.07427337152460126
0.015520454119683742 0.3512709156198117 0.07197588802061343
0.051616860830651326 0.3539189675101429 0.06668069979594878
0.09102476886826243 0.35718806897141575 0.05907617557335148
0.13472794976300523 0.3603074466592313 0.049253400318084554
0.18238895267934724 0.361902794383104 0.038361382379777764
0.24240627696059286 0.3612641712995133 0.025657328626946495
0.3021768246689041 0.3572148734272189 0.014686959059547245
0.3575683682129906 0.3498105117501052 0.00813586000576067
0.40904801250591005 0.34028209594611974 0.006970937183985369
0.4585934326667756 0.3306869893962034 0.010952962992927364
0.5031988183541399 0.32287756967463366 0.01833397405793932
0.5392701479928714 0.31760408402794726 0.026178862586347468
0.5736817340113193 0.3137901719996895 0.03738216735035575
0.5960056555164132 0.3119819341254325 0.04566011343734634
0.6170938619615816 0.3105002303293139 0.05298624754491694
0.6379695198698201 0.30901354680526927 0.05929000006125299
0 0.3943024537705856 0.0746393711770463
0.013652704996095586 0.39436999193502537 0.0726940814473408
0.048305300343448425 0.397139349604312 0.06793122722774052
0.08486465828940953 0.40065517168297854 0.061164289839046815
0.12540612929820658 0.4029050825859725 0.05352338768260796
0.16948447458636123 0.40421061219023074 0.04489215022987948
0.2250855929166393 0.4046610672584973 0.033897784708108614
0.28313433075544725 0.40246924622253233 0.023615950764701674
0.33911254477820935 0.3972501456709979 0.01640828092872033
0.3924789953164986 0.38953234377075713 0.013498216279556587
0.44332659177437717 0.3803604237378547 0.015367163128448613
0.4892222584852832 0.37178848469294445 0.0208733627527021
0.5252038207925054 0.3651393760379614 0.03001982501171803
0.560449745040133 0.35976829056881793 0.04105064181754484
0.5841937319237075 0.3568650344899914 0.04860649723944303
0.6067530789351948 0.35447078932116594 0.05516322763588295
0.6286177369989898 0.3523773161267752 0.06132852169154858
0 0.43928432457943867 0.075440299830328
0.012283452244362789 0.43889009520315825 0.07387082577273187
0.04657704555464509 0.44109126548789357 0.06985463580644852
0.08222563775491427 0.44215657342763726 0.0656212481535346
0.11969345112778236 0.4437666330041532 0.05987986851591204
0.16024714389821318 0.4452128586950741 0.052837596136733486
0.21135308792952598 0.4462289731839627 0.043732284591558895
0.26660263437282383 0.44526190917239106 0.034649530691844614
0.3215570936230608 0.44171597173603866 0.02755593270182368
0.37537689238418825 0.43575732895446134 0.023596982726133472
0.4281860972607199 0.4279419430146985 0.023436796954935037
0.4749360624955335 0.4189331870391671 0.029743183782059035
0.5125034035107533 0.41181690606823573 0.03760860483135477
0.5496856332586786 0.4057400413832381 0.04650683693424416
0.5752243615265401 0.40225824225767837 0.05245544946078523
0.5991241853490897 0.3993152178169609 0.05813939758976204
0.6220916082207527 0.39673195875220935 0.06377516907755117
0 0.4839461852893319 0.07657320445935825
0.0117821202139734 0.48218522494089394 0.07589310531786467
0.04673944590936709 0.481511010741121 0.0740830414399696
0.08162589765599167 0.48219031929572975 0.0709774948509088
0.11734915999384966 0.4836018092481646 0.06660088657408625
0.1550301572109935 0.4850995392677535 0.061120900936353965
0.20189170889879296 0.48651511582701856 0.05390896349912955
0.2538688345973139 0.4865268307312831 0.046271510836305596
0.30670642619461363 0.4844374498140148 0.03977503571871549
0.3596101042569252 0.4802429871601894 0.03533612864164247
0.41261965552308244 0.4724929551004806 0.036869916698673136
0.46196948540296434 0.46451737252344033 0.04150748053626655
0.5022744358558663 0.4581756352086502 0.046816567190386335
0.5420689577030523 0.45261661901181166 0.052495805828801895
0.5692713902609499 0.4491391116005597 0.05701108116166521
0.5945983214128449 0.4460953839760978 0.06163090450992901
0.6189805466267876 0.4434003230334564 0.06616410281427584
0 0.5256924686644605 0.07916813970776161
0.012250853006545761 0.5236008630824239 0.07883408621824614
0.04706070784640678 0.5221613894765961 0.07791886041441046
0.0815570575721095 0.5221192222140171 0.07590778721621172
0.11628154422405647 0.523041802931684 0.07276024833734919
0.15240275381906673 0.5242961107943193 0.06859609895366837
0.19629510173241949 0.5257874444772332 0.06296454644665785
0.2453930635606359 0.5264544719340223 0.05663475112248005
0.2957872807251435 0.5255236769343243 0.05078763636525536
0.34655847044159843 0.5203793759588606 0.04955914882931204
0.3994254948681878 0.5139226417312617 0.05052190498602054
0.45037849810863106 0.5074918427655991 0.052877746435074965
0.49323485048449456 0.50233177459279 0.05548283742703371
0.5355594614969711 0.49739773022617667 0.05906964496352527
0.564919696887335 0.4942128666004644 0.062117777271468555
0.5922951602891225 0.4914160369557461 0.06518665750656956
0.618570471278926 0.48895010550313167 0.06808390250057071
0.00020283659420436095 0.5535485469052659 0.08027761269146341
0.012062324270268453 0.5511304932412348 0.0801226909819713
0.046934545597217575 0.5491234524763738 0.07970164474891284
0.08140742412845085 0.5484269063573933 0.07835895425575912
0.11580852830245512 0.5488847753165661 0.07591936370372393
0.15109793601437682 0.5498640391062812 0.07250375544939625
0.193470689537924 0.5512731282947212 0.0677103921283639
0.2411139336248061 0.5522252519978605 0.06204692863172728
0.29015280796005 0.5499781900692896 0.05868920864974559
0.3395648043310504 0.5454229557155985 0.057752110420728975
0.392095203957899 0.5400363949328375 0.057933986386997094
0.4436120443709227 0.5344088918474974 0.05921693619990208
0.48754118258962637 0.5296096506918112 0.06103337027527948
0.5312779500299581 0.525051730969356 0.06342944475225032
0.5620757110429769 0.5221244721458067 0.06540918882346147
0.5909223375053606 0.5195810328941813 0.06730183531039352
0.6186131812876203 0.5173840475269931 0.06892460592316665
0.00045633935216552655 0.5864449942416575 0.08064373944273624
0.011168451705974847 0.5835126169003132 0.0806381197483946
0.046217680481385415 0.5805853353537861 0.08060974960402599
0.08089951083078996 0.5786364728768646 0.07996326887860444
0.11525862833483948 0.5781096772336995 0.07820347530881777
0.14989202878857896 0.5783717844930437 0.07547481152168314
0.19087416280392352 0.5792990633512332 0.07139984431524071
0.23738272754594242 0.5790129857168236 0.0673336541258729
0.2852099975047229 0.5756965813718868 0.06556077283502214
0.3333553244144633 0.5716251187022748 0.06448837452693507
0.3853848701903182 0.5665318133057486 0.06440827596119258
0.4371134042251047 0.5609406649750457 0.06530900197675645
0.481875898050407 0.5562537613777684 0.06633531885369681
0.5268184954227719 0.5520824451289701 0.06752811342383022
0.5590009469970102 0.5494385005466436 0.06837622770889214
0.5893407045999388 0.5471869893017561 0.06899351730921482
0.6185117687554298 0.5453192660267884 0.06921129369968601
0.00035544689669753365 0.6200566380332595 0.08065541316973844
0.009806735531472776 0.6171244497212587 0.08065101259741358
0.04484805380040987 0.6141762322904462 0.08063647200316881
0.0797630223370809 0.6115543088190375 0.08041890416493132
0.1142537064189946 0.6103292366112383 0.07921718342527787
0.1487008582587074 0.6100831150653858 0.07706655569320797
0.18851562586180898 0.6102855101306235 0.07401661296586093
0.23420463238915304 0.6077255627609485 0.0725754550727676
0.2807304765614538 0.6045388649519712 0.07141051847665406
0.32758154525106575 0.6006854473510236 0.07083052567159401
0.3787816426794573 0.5959442374267938 0.07088433282338072
0.4303787664701504 0.5907360397514118 0.07141537238168288
0.47566099902989567 0.5864154404084273 0.07163564466842601
0.5216503832372117 0.5824466361975746 0.07143803988774625
0.5551916026914886 0.5799802948696353 0.07095298790860065
0.5870639155407643 0.5779277561115863 0.07005879015591562
0.6176848156626542 0.5761604268253675 0.06895598918612705
0.0002622454323933366 0.6536728816497405 0.08066619801536856
0.008453692050988183 0.650741274911682 0.08066286527395082
0.04347857563364791 0.6477933435886124 0.0806507232836988
0.07849496153213266 0.6448690231091366 0.08062240714945978
0.11316379238246195 0.642962147395274 0.07991625086301622
0.14764501246583026 0.6421350665640573 0.07830646283086584
0.18712735354589638 0.6397767517664487 0.0775867914796468
0.23164011106031643 0.637108954499076 0.07682759362202873
0.276994366704624 0.6339685419426042 0.07622983947225893
0.32265992170734886 0.6303556960212071 0.0760024892229506
0.37283754669221225 0.6260405115111133 0.07607645858140943
0.42400077700754174 0.6212845475946048 0.07616803182889961
0.46939115790056907 0.6173930972750616 0.07561218219266558
0.5158659914656011 0.6139653630390584 0.07408720917698586
0.5503496537274164 0.6119124552214921 0.07232125286327076
0.583227704428236 0.6099189291019016 0.07063240156771146
0.6147750879174949 0.6079239771784811 0.06928518921659495
0.00017964206028558838 0.6872922678356679 0.08067575730316097
0.007112237717117909 0.6843615211531081 0.08067334144219128
0.042120948293527936 0.6814150244586769 0.08066351471767655
0.07713213630218599 0.6784668770635726 0.08065269221916949
0.11201831814779038 0.6758684402410613 0.0804132002490522
0.1469627981010063 0.673185926802582 0.08019443208452977
0.18598851179581824 0.6705072541161268 0.07993179920046607
0.22962933960680107 0.6677250935460146 0.0796861005436113
0.27393765950279364 0.6646640677681587 0.07948987569518133
0.31863143699224616 0.6613320271763975 0.07943461193437129
0.3675674995770944 0.6575620585724916 0.07937281968945288
0.417999262655702 0.6534166570248926 0.07888290309740661
0.46318210829585965 0.6500054846609963 0.07756916420624692
0.5094992987504721 0.6468363397868145 0.07535756988703247
0.5442014794534943 0.6445950979671747 0.07351028653804545
0.5774487101382962 0.6423550417810466 0.07178227562661779
0.6095196275027797 0.6401449430363816 0.0703255906408043
0.0004103885936994397 0.06991346185145055 0.12107233719941915
0.03687916195723003 0.06913561768890315 0.11847601387644459
0.07989630391248895 0.06822762367126338 0.11455959921357481
0.12667368986774102 0.06720396032203542 0.10929142783295788
0.1728262641355137 0.06477931609020965 0.10345039797293967
0.22090048479152324 0.06068438908657667 0.09676687979210083
0.27391732116878353 0.05414311142379842 0.08943880052254743
0.32237990299390734 0.04829211413393932 0.08337854809890498
0.3707906412890798 0.04681345995413153 0.07846977168058146
0.42064841296450695 0.04952824327491454 0.07486261947154511
0.4686919565067965 0.05587094629871002 0.07306515547490346
0.5113274804620002 0.06560426247923556 0.0735707430764188
0.5467823191061579 0.07489358376272186 0.07470857363309494
0.5846474457976636 0.08461395685137814 0.07666022297622503
0.6089244563964057 0.08975964154480658 0.078097185548016
0.6315756244525352 0.09283149618075448 0.07947587884707964
0.6535029360023202 0.09331937746916437 0.08066849330853605
0.00003376975864318564 0.10468636634489543 0.11850975653050766
0.03572471389166239 0.102668454384799 0.11525500259695316
0.08419104508655206 0.10138943706631116 0.10983285886530597
0.1366509054671344 0.09991576892956246 0.10295715412232129
0.18380174178374717 0.0956291259647921 0.09624910963129812
0.23190164023272006 0.08930777462385904 0.08874734897983112
0.28367013864195456 0.07951229148818077 0.08089699229546471
0.3303672490762331 0.070459660477091 0.07500645000395409
0.3769520665205456 0.06600631635780585 0.07084609341240669
0.42542103107652024 0.06613904500531624 0.06814229894615259
0.4716745914455836 0.07034162776782801 0.06762765420406111
0.5133317595618904 0.07760146850445107 0.06900458398738407
0.5480284076884923 0.08491971332680749 0.07079425478787667
0.5848538945181535 0.09274368829278395 0.07330217855604251
0.6086160710365658 0.09676744450345336 0.07508156099064525
0.6307649874660893 0.0988446680478942 0.07675391474303446
0.6521886583921632 0.09844408666785509 0.07820544176848053
0 0.14230615929883864 0.11558447937353046
0.03278423491887682 0.141076818739294 0.11173372157787899
0.08494554760924661 0.14108049001330658 0.1049056319106474
0.1440331614318117 0.14133062668297108 0.09580249832654292
0.19816347432451176 0.13909003691035404 0.08637763623769242
0.2514613177413056 0.13433822949717975 0.07608883650977344
0.30228821985168536 0.12353031104706383 0.06615313230439285
0.3468857575143692 0.11267880274275227 0.05958604430812635
0.39165332338193726 0.10655410897196062 0.056054586626397514
0.4385501575751261 0.10548241370459403 0.054726634695900764
0.4830724966689265 0.10891941639377963 0.056222778233465026
0.524133240827303 0.11487935410981476 0.05897630117953885
0.5582685521840298 0.12123669554256979 0.06189253619708303
0.5942077704510003 0.1282571269706872 0.06546123340997224
0.6172583069770912 0.13185981347557071 0.0679459475232806
0.6384126568467081 0.1335966760321621 0.07028311753216583
0.6585504085955969 0.13297632924200736 0.0723793339728094
0 0.18031677787579156 0.11240777414366414
0.027810677129917086 0.17965918469886175 0.1082772592615191
0.0777013282192744 0.18012519181155065 0.10101420744733683
0.1376152794898359 0.1812351112795379 0.09058446133506334
0.20179511877842937 0.18164906255587918 0.07783674502066107
0.2622264408455862 0.17941126963838872 0.06429623022739579
0.31350087559531703 0.1693899327931878 0.051217224303641604
0.357451067768119 0.15747190725913054 0.04342234265818376
0.4012460032982967 0.14954695802253737 0.040660493377134115
0.4463056256551784 0.14673195637554357 0.0414580601072008
0.49030169478561825 0.14783750536580073 0.04454459270493913
0.5307676347988657 0.15169720825953747 0.04884189047652726
0.5642042763295141 0.15637335473245909 0.053045972108988
0.599069049544842 0.16179915892453658 0.05784362616124275
0.6215049383069463 0.16458822246794913 0.061105283048821915
0.6420395578807047 0.16580218081448994 0.06410398603926751
0.6615930982791677 0.1650123537395595 0.06674636098743164
0 0.21839497286265094 0.10905401413489407
0.022875344277942633 0.21820081400461452 0.10483107775536606
0.06859555613026468 0.21932022574101295 0.09741461806127794
0.12535838346232553 0.2211167006106587 0.08639116357925415
0.19076994099744612 0.22278682138147354 0.0720928800524262
0.253698520333358 0.2224243394753822 0.056559690205563534
0.31038110904790944 0.21573488108688302 0.04014039763426536
0.35709788933688036 0.20429796917637574 0.030082399898775355
0.40185870638978954 0.1947595781504174 0.02758587290002506
0.4472574035595268 0.18910535725938096 0.029201336562049294
0.4913537915890245 0.18719776968249036 0.03357665398078388
0.5315690684367168 0.18829045986167983 0.03930370462782612
0.5645159373638572 0.19075433745225287 0.04476972329010505
0.5984818705949411 0.19406281067145711 0.05079802400829683
0.6206177393101191 0.1957951035753336 0.05482047262395011
0.6410745135076731 0.19639758224948664 0.05841042821186877
0.6607831926618594 0.1955261882695077 0.06149504649116122
0 0.25859051899883934 0.10573306202362487
0.018895781758645494 0.2582864095167986 0.10144681846010895
0.06070302367289358 0.2597870610517133 0.09394724859280243
0.11166568941536334 0.26175296211900767 0.08304568116910142
0.1718667459511227 0.26354994005954174 0.06875887646721557
0.23283311365308873 0.26380160880286235 0.052807003069089066
0.29489268558220894 0.26048857782948576 0.03498126208220987
0.3462055716470206 0.2512077661572599 0.02286794004086238
0.3940597211771874 0.24079235024286563 0.018456960804619196
0.4411130973607801 0.23257281495961563 0.019498674879662822
0.486215084145364 0.22752530087830727 0.024324345786517692
0.526849323103812 0.22559414396635993 0.031001870394197627
0.5598431885800251 0.22563425687951838 0.03745596149076713
0.5935084081252807 0.22667334702596123 0.044474407771961
0.615799079938017 0.22724310534161538 0.04911685518393596
0.6363659409221365 0.2273398771780556 0.0534510965600991
0.6546961290543805 0.2277469340934009 0.0588107092323195
0 0.3044314118682533 0.10263374426827321
0.014914241983579948 0.30437984210216334 0.09844062555231506
0.05383467895972805 0.30678622749999873 0.09087447362355086
0.09773096423106643 0.309622497965655 0.08057710601072592
0.14925513945158064 0.3121781873423047 0.06725905184078806
0.2046362452255123 0.31343869044468337 0.05200174150081797
0.2686242018456002 0.3118355622873178 0.03469727907066378
0.32645571595706974 0.3052020769758909 0.021230258599822235
0.3783213421030858 0.2950884183820096 0.01408387331126302
0.4276889639727467 0.28478363650637223 0.013169817264803447
0.4748291986693156 0.27630009086507973 0.017265094979779842
0.5168622358828903 0.2706719824695023 0.02413467661782888
0.5507313744215747 0.2676275645564135 0.031125166416314756
0.5849390585394891 0.2657617074882669 0.038742287273001094
0.6070026207679934 0.26510043193185884 0.04477345269110368
0.6266163787457089 0.2648963385614873 0.05130831822817712
0.646219919002775 0.2643738550758734 0.05760593024367647
0 0.3490392745799238 0.10010628535312822
0.012016122728880365 0.34900961557780263 0.09616013323528376
0.04832121747960681 0.35190220764534025 0.088897087790875
