tests/assets/LUTs/found/gtgluts/GTG Skin Warmer V2.cube
LUT_3D_SIZE 5
0.0008276840276147032 0.07057461566759218 0.08059804896301394
0.17045936418859808 0.06587313427014854 0.07001834485166214
0.36761503137549545 0.04986812975428067 0.054029332559690856
0.5442255849134413 0.07432869276586393 0.06026094134339577
0.6527394564468809 0.09184294463534509 0.07135890565476853
0 0.22069834554168685 0.07628453457811007
0.1816474510222615 0.22446593802265147 0.04852884499799432
0.3950923637369471 0.19811055148792076 0.013096474424608344
0.5623472317153231 0.1926708191304033 0.038144368435001574
0.6615835478128366 0.19718283913104942 0.059286229121123295
0 0.3943024537705856 0.0746393711770463
0.12540612929820658 0.4029050825859725 0.05352338768260796
0.33911254477820935 0.3972501456709979 0.01640828092872033
0.5252038207925054 0.3651393760379614 0.03001982501171803
0.6286177369989898 0.3523773161267752 0.06132852169154858
0.00020283659420436095 0.5535485469052659 0.08027761269146341
0.11580852830245512 0.5488847753165661 0.07591936370372393
0.29015280796005 0.5499781900692896 0.05868920864974559
0.48754118258962637 0.5296096506918112 0.06103337027527948
0.6186131812876203 0.5173840475269931 0.06892460592316665
0.00017964206028558838 0.6872922678356679 0.08067575730316097
0.11201831814779038 0.6758684402410613 0.0804132002490522
0.27393765950279364 0.6646640677681587 0.07948987569518133
0.46318210829585965 0.6500054846609963 0.07756916420624692
0.6095196275027797 0.6401449430363816 0.0703255906408043
0 0.06750954251107172 0.24292172772874188
0.14682776452011495 0.054791700050990495 0.2377289628784596
0.35917802098026236 0.03364253568920763 0.21451534607725162
0.5531952961023653 0.07230679002884075 0.18842991841384432
0.6627929097758075 0.09554386670666323 0.18470722701099676
0 0.20758341176584594 0.23448869460972924
0.16781573079986642 0.2030990168857468 0.2112236352721632
0.434618281045696 0.18043974487898712 0.16050184063100537
0.6129463691530088 0.1947218236847902 0.1466741492962095
0.6857422879572789 0.20617597475403493 0.16050656195274735
0 0.3828716076027777 0.22038064501393112
0.11454065035079439 0.3881950299568945 0.19911033205804363
0.37053580404574993 0.38739702045431 0.1366029716598008
0.5658880240179854 0.355963898228593 0.12930743453465077
0.6518875785116509 0.3433908629249381 0.15332276299827277
0.00027875726419913303 0.5417918860852122 0.2136334542025351
0.10383931345003854 0.5423938643160825 0.20027019706944185
0.28810928927255874 0.5390912943012977 0.1750970915403401
0.5160064979697234 0.5259931031373808 0.1428752316366242
0.6475856836952376 0.5118387693554334 0.13883335122668744
0.0002875993481457198 0.6741778890284474 0.20889645669084062
0.10344670638827622 0.6626177347751636 0.20090781151788778
0.26664079634141236 0.6517561968496479 0.19056098558348658
0.47130395981634227 0.6433528370461391 0.16382535723505653
0.6349570645637117 0.6306483952790586 0.13704855665573937
0 0.06849499432866141 0.4351414685702008
0.12146557167607469 0.062149849716483664 0.4308472858487787
0.2960881799670453 0.04969232947458023 0.42270461392761005
0.48080892398622166 0.05838106595807268 0.39995768121445807
0.6027716873931919 0.07407715005082044 0.38788581998276694
0 0.1937846443527832 0.425650744324145
0.10869562013287284 0.18012758707301374 0.42379374076699394
0.2993491962382467 0.15706487751031922 0.41069981342442224
0.4974368265798981 0.16090567412394793 0.3776536105671919
0.6134005145089573 0.16957836688213818 0.36729103791767975
0 0.36178665429371354 0.411606602074407
0.09775247370993315 0.3554797107229335 0.40641833164969815
0.30922603120449393 0.34696392911557894 0.3732272142790398
0.5578050964046196 0.3341701444843994 0.32104098859915703
0.6554099579202353 0.31791280051423143 0.32600883708078093
0.00034423288143973466 0.5298040791885555 0.4006819673270903
0.09806184741039806 0.5215829750889531 0.3906681577773555
0.2790556515238917 0.518970399962269 0.3651037002978943
0.5483599764299733 0.5147950073029764 0.28904500259320365
0.6998933334522845 0.51443769815295 0.28730747362304254
0.00022809043466849225 0.6611044546536483 0.3943564848220476
0.0947396434864589 0.6493366540688995 0.3845258783365558
0.25408590045467744 0.6428746868154156 0.36950114248870997
0.48173784892259136 0.6673390802173549 0.33997267898668937
0.6500844107400799 0.6782451476766045 0.35778788897750885
0.00016140121244552556 0.07037306875170943 0.598516287293453
0.11580581375381933 0.07046524473840236 0.5866454877794861
0.27789606040127635 0.068602600405489 0.5765675261019645
0.45204985891661986 0.07051442527642543 0.5635986402689165
0.5807821686571759 0.07049418587755256 0.5569838858232139
0.00032064722996422704 0.18765636180183393 0.5865646860580189
0.10715669968455271 0.1789900599501907 0.5765550924799692
0.2681643610115346 0.16899438500924674 0.5661594906715888
0.4460069911185324 0.16329533637876337 0.5519852504353553
0.5742572999567621 0.15494770528648064 0.5468420164446763
0.0003905206797907225 0.35212992772282725 0.5746680308992582
0.09985290662275334 0.34241831605197603 0.5632313138780898
0.26225921713740186 0.3321479272617871 0.5520859586662437
0.4640734099788035 0.3149776685517893 0.5310688602999432
0.6173902963077709 0.31136224196109596 0.5440069756031276
0.00022638803522091793 0.5205475184023673 0.563975871143739
0.09287048146138056 0.5101751250388019 0.5532849663382363
0.24975987672025896 0.5021263929175216 0.5424027801437975
0.48947436547229844 0.5191716772744258 0.5370507495570815
0.645416279483791 0.5354049124641643 0.5649537210190901
0.00005728779689432169 0.6508430960412948 0.5572531289276571
0.08757916403917979 0.6391075387291782 0.5468205506506023
0.25184467648897796 0.653029137865039 0.554930600809584
0.4808677902154866 0.6877044679472409 0.5817858220045652
0.6429093767694154 0.7098726131932294 0.612768259787066
0.00001970579053598876 0.0703276014782086 0.6976994137838377
0.11184068580042747 0.07036669368040206 0.6859128952412159
0.27281359067626043 0.0704305122594447 0.67407755532068
0.4468620261122183 0.07043652195751905 0.6628859981095576
0.5751007842446546 0.07039156214440587 0.6555529501716375
0.00008396406708942927 0.18391504118390392 0.6857960425541106
0.10405219168696145 0.1761527508337621 0.6739660435271899
0.2631424263021428 0.16841550594955393 0.6620764396982424
0.4366021785747071 0.1606441138742484 0.6511203562976575
0.564989286905695 0.15263951082940858 0.6452522053551069
0.00012436812136873467 0.3475217411039817 0.6739100143504043
0.09621155742071563 0.33782740089192753 0.6620611164745965
0.2531437318561131 0.32788579197910217 0.6506654269003961
0.4426287527025331 0.3178782746809184 0.6592513378584758
0.6057256788197584 0.34024041080211986 0.6786658628946316
0.00005458917851620447 0.5156703260727016 0.6631682567434738
0.08889026972883013 0.5053097859941974 0.6513664533807512
0.24843841334649452 0.5050964832505053 0.65495745417796
0.47388239718848263 0.5355855926895539 0.6867828955906159
0.6362677054064346 0.5607701213249754 0.7113766707699452
9.726717242180449e-7 0.6453199813854743 0.655694827284593
0.08374393059083918 0.6336049947566765 0.6439562704548629
0.2736854041990669 0.6662451246763412 0.6765885999810496
0.4935450806938207 0.7040028005094024 0.7142148942638247
0.6590339999999999 0.7293552784313726 0.7397305490196079
