tests/assets/LUTs/found/opensource-luts/GTG Look LUT (Cold Vs Warm).cube
LUT_3D_SIZE 5
0.1 0.020000000000000004 0
0.1627640343878815 0.016290137706971825 0
0.3070165907887377 0.048826482104150526 0.01438708289970118
0.4673521566312134 0.08319530519458816 0.04702903800086665
0.6375636758531553 0.11199352761063203 0.0743452910454307
0 0.12257622175445768 0.04598018631807163
0.14296218950412973 0.16003210538100146 0.0433840456616776
0.330736369244932 0.1968797804707081 0.06282041517238804
0.5006090636577033 0.23316257509022173 0.08721563439798831
0.6991366027825014 0.2621093259592855 0.10723513897278121
0.020992010137292922 0.27025025418866805 0.07099201013729292
0.17048391547787028 0.31907478637732156 0.09680792556326856
0.34962932769533683 0.35897611063052787 0.11493046843623164
0.5268739949803665 0.39388448556344086 0.13393216639159392
0.7411428236384615 0.4197522849803053 0.16007992316070874
0.06410981283376782 0.421837274422907 0.11410981283376781
0.2084992477146767 0.4785360758434188 0.14120184585003953
0.3783265419618023 0.5219194098505534 0.16329450701905313
0.5550971369285606 0.568766383828265 0.1957970441123644
0.7706217458977279 0.6155198072361455 0.22771618548586284
0.10485977392157074 0.5827132377660287 0.15485977392157074
0.24813141276484482 0.6640966684739044 0.18316328475836263
0.4059906773010861 0.7194190652235671 0.22541962039374341
0.599186828598038 0.7669210488545029 0.2661394871062912
0.8031308723338648 0.8110475705469146 0.313155607349018
0 0 0.06842508342789906
0.16253254353664673 0.042594476691373735 0.11808809909220228
0.33923104247529406 0.0844236552680878 0.15886929736367897
0.5056687351681297 0.11664293119058534 0.1956139892406542
0.701774361984486 0.1413113214453692 0.22443261880847026
0.021289502557876726 0.15732408707381007 0.1452502135495325
0.1633107073976406 0.22343548529516155 0.21331070739764058
0.39487253477610446 0.23068253358279522 0.1956480842637753
0.5526521421383028 0.2667552191123628 0.22998163167359556
0.7544309533738749 0.2982644144930699 0.2612609808331719
0.06432857596872475 0.3155266455575251 0.2028594832200597
0.20630944047515687 0.37526064476731774 0.25630944047515686
0.38581685005827104 0.4039662972622552 0.26954351941750493
0.5807349187703217 0.42605437966986787 0.2866418078609427
0.7944042188504647 0.4615054858309203 0.31556617894049965
0.10509780284830693 0.4720273530708379 0.2511120134889902
0.24816020293263608 0.5293817454795484 0.29816020293263606
0.40679138077751475 0.5823092544851638 0.3321450831268595
0.6128332573495835 0.6272435019192594 0.35575454495382336
0.8212779240399789 0.67375958350065 0.3891098857786958
0.14534445110714045 0.6554325089816974 0.2946144059082739
0.2955030785550193 0.7175189731781103 0.34550307855501927
0.44728497732739414 0.7770741368796912 0.39109264392755505
0.6615271765892193 0.8219812673521225 0.4288433806235742
0.8594768759226055 0.8668401831432384 0.4881018646972106
0.022032709790877333 0.037630135733411584 0.22277158167129307
0.18378549203641834 0.08121048487681706 0.27733706905145317
0.36341062529513746 0.1192651156056962 0.318966180850693
0.5364833625013523 0.15221203968392102 0.3554126093874655
0.7476236480926646 0.1863248848632979 0.3826663472896905
0.06605804836943091 0.1957465978431996 0.28508757806354207
0.21714657041835367 0.2348565808806582 0.33111048774328333
0.40608308735140736 0.2731335927088085 0.3616386429069629
0.5889469110771893 0.31053672468554305 0.38810192453014225
0.7992598464008299 0.3457202187181843 0.41914030600650554
0.10649851512570152 0.3584163425853432 0.34473279419774366
0.2541763733400726 0.40782715291685445 0.39338391892709623
0.4009201554776644 0.46168446601668045 0.45092015547766445
0.6535119756138306 0.46269366131715245 0.42275979836365796
0.8414293068348025 0.5239716142680204 0.4845391582916927
0.14712766537829397 0.5174740892572118 0.39622328857776795
0.29984711323393737 0.5792270973510204 0.4427219018856377
0.4451791114561881 0.6479606021848018 0.4951791114561881
0.6701770635470067 0.6897335598072614 0.5373520773800591
0.875476803851938 0.7311398247345559 0.5828650588338169
0.2040148989013352 0.7072055102006126 0.44087519400157743
0.35341458315799595 0.7697148624498872 0.49232231252675707
0.5188795602415238 0.8289355244755003 0.5688795602415238
0.7225857326105846 0.8848507223272627 0.6353878534025961
0.9215452549671458 0.9306711734270688 0.6906678792126988
0.0673395004066293 0.08362886420367685 0.38180566850863246
0.22160945216690223 0.12211024956209178 0.44163848617469
0.3937476018796794 0.15804973031143507 0.485805302170504
0.5719073063562817 0.20176915070959928 0.5274628619118372
0.7843353578280509 0.24348798844914954 0.5761217694668165
0.10892444641153064 0.23920654570085137 0.4406154213688223
0.2611487618148761 0.2791737769209341 0.49313070622984195
0.42800459988888 0.32345310606942257 0.5421647769093715
0.6315950173461244 0.3622907560802525 0.5871505729016799
0.8341881080773839 0.40661164742038075 0.6358729720726362
0.14979080441061268 0.4004151680939502 0.4954165234884308
0.30902031938769237 0.44223470086451966 0.5491003661134304
0.46855882169340884 0.4910703588248302 0.613420563134105
0.6924700630276107 0.546270219728104 0.6480256185831663
0.8851054467000325 0.6075101793444642 0.6923898676579446
0.20611782704351325 0.5686008893367529 0.549639108183524
0.35932459907012504 0.6344814731262947 0.6165759115919776
0.5315148651816076 0.7013865176192743 0.6847615925924098
0.7109919610524578 0.7730865427150031 0.7609919610524578
0.9469781461806278 0.7844716054031721 0.7497469004108962
0.271008062862761 0.7573710964914454 0.6142930589247135
0.4206395391009523 0.8206880728852803 0.6850706566013214
0.606231695856453 0.8858597882683268 0.7579527398681684
0.7845186973919074 0.9544088898974749 0.8345186973919073
0.9785031214944095 0.9712742801868492 0.8758706220881907
0.11062276226040224 0.12749805591264937 0.5449928208692437
0.260014459680122 0.1633663080899184 0.631313156337446
0.4246140814762044 0.21309348386420224 0.6870002093257424
0.620109465476788 0.26293955935644325 0.7351931638301189
0.8233827858588403 0.31872685815641205 0.7789383414143959
0.1516364933280196 0.2809713789519086 0.623672853923836
0.31106831975016414 0.32771389521612054 0.6874912672550072
0.46857475178594693 0.3791188799869862 0.7502586897576609
0.6853661869767117 0.42714743929870735 0.7927950052622231
0.8802883283346481 0.500929835407338 0.8358438838902037
0.21024311251944913 0.43848699048160655 0.6817991238714234
0.3677534451424064 0.49210261684078677 0.7447433302676947
0.5460537787311449 0.5662806832162005 0.8063740394538091
0.7520379796351838 0.6384402881024036 0.8586403338243508
0.944111966706605 0.7035787049567328 0.8996675222621606
0.27523098652661704 0.6262956875137232 0.7373312420342841
0.42855980531030136 0.6964915596349074 0.8022632836359338
0.6229380090227601 0.7682933508057154 0.8690867878115899
0.825801240932621 0.8436388057074581 0.9405859702586985
1 0.8889562482745036 0.9555555555555555
0.34601264787839886 0.8135081924765569 0.7980593827279094
0.5042130624594742 0.8829058526775925 0.8681440204629436
0.6947495100800384 0.9559533592995781 0.9416003068197004
0.8832018651353033 0.9972984749455338 1
1 0.9199999999999999 0.9
