tests/assets/LUTs/found/opensource-luts/GTG Look LUT (Cold Vs Warm).cube
LUT_3D_SIZE 17
0.1 0.020000000000000004 0
0.1 0.020000000000000004 0
0.1 0.020000000000000004 0
0.12703850528471874 0.018569261789824272 0
0.1627640343878815 0.016290137706971825 0
0.196266129307808 0.01870525581946821 0
0.2308166678882187 0.029084983804384252 0
0.2686206798054772 0.039184779518567914 0.005223699977335634
0.3070165907887377 0.048826482104150526 0.01438708289970118
0.3460724366477804 0.05802977838861947 0.02313458498996398
0.3858161346162469 0.06681243919054349 0.03147882387314414
0.42624893791592977 0.07519358209702703 0.03943653235312751
0.4673521566312134 0.08319530519458816 0.04702903800086665
0.5090907786866639 0.09084356568362639 0.05428252043575749
0.5514155760377467 0.09816866458184488 0.06122813864488927
0.5942644792754284 0.10520548509361662 0.06790204893711198
0.6375636758531553 0.11199352761063203 0.0743452910454307
0.1 0.020000000000000004 0
0.1 0.020000000000000004 0
0.10620038549559889 0.019694463814479583 0
0.12389296652292156 0.029203643429392006 0
0.1573363062514155 0.041993352462640604 0
0.19528650869426675 0.05332970209162269 0
0.23494272373593772 0.06339572659966661 0.007670291466312667
0.2743829204035463 0.07321627911306683 0.016037773085112565
0.3140210254325519 0.08273892509896413 0.024232902808635836
0.35390775798320584 0.09233396731657846 0.03267029497180742
0.3942694507910047 0.1015454300545413 0.04078055008548486
0.4351652206670402 0.1103464620516517 0.048520431721472086
0.4766017228161256 0.11876513813886128 0.05591689163158048
0.518560657772011 0.12683140926500727 0.06300098110923742
0.561004332667189 0.1345781295207241 0.06980804091418337
0.6038792686569744 0.14204155173185404 0.07637766518603062
0.6544452123972688 0.14804656340349284 0.08140608598735846
0 0.04925545002397745 0.04974177563821727
0 0.0639835455605836 0.049016942835339895
0.019943350110429862 0.06357630488752392 0.02996261309158822
0.09318252469822916 0.06985057776152541 0.011042319596505153
0.1503549532869224 0.0807937761649546 0.008447957661110679
0.19588180481477 0.09075031766304247 0.014944139141551318
0.23810233785935628 0.10067261592264092 0.02216523535326182
0.27918146180850534 0.11045856664961014 0.029621551498882515
0.31995547806760616 0.1200278139586332 0.03707919879686638
0.36081273165196315 0.12933199395988612 0.04441849916037177
0.40194846677183904 0.13834582730460132 0.05157860101652765
0.4434592443808247 0.14706022711333988 0.058532621132286605
0.48538415300664345 0.15547802098650404 0.06527527521233245
0.5277251243957564 0.1636113123851585 0.07181616163453702
0.5702865196959036 0.17170830576219248 0.07847050704892389
0.6131713058296338 0.17955601110565464 0.08496123277109348
0.671181122544324 0.18478192486738912 0.08850566043771403
0 0.08581260555324557 0.04791259614613044
0 0.10062789010401624 0.04714416883617081
0.03297763154787861 0.1030798392798076 0.029672915677798797
0.08822085683494085 0.11111179846835686 0.02344775662610902
0.14410895508808352 0.11970719552415506 0.02613592226550287
0.19539331004710983 0.1291823183936962 0.030771829383002235
0.2406371588317492 0.13884827319020895 0.03672289814944222
0.2835351478905332 0.14852176046111887 0.04322797307745456
0.32552220089847833 0.15807893948988305 0.04993205753944991
0.36723205311455526 0.16744291185193605 0.05665474784703826
0.40897891207987475 0.17657006564950062 0.06330179859488158
0.4509239193188453 0.18543916599712665 0.06982680753959901
0.4931443491169725 0.19404459480088573 0.07621250983612878
0.535666509463598 0.20239220438378241 0.0824607294749752
0.5784832228333534 0.21049663897573206 0.08858646447033806
0.6253330979984625 0.21778810350219174 0.09386867952152204
0.687401615226247 0.22240684409016864 0.09605783838390201
0 0.12257622175445768 0.04598018631807163
0.009357603132486708 0.13386805248531158 0.039874729941764636
0.045458949506419245 0.14172503505947295 0.0354490943493135
0.09158359833084334 0.1509490821665725 0.03972439887756041
0.14296218950412973 0.16003210538100146 0.0433840456616776
0.19394709619293268 0.16874541935022713 0.04681079362973792
0.24253624129174925 0.17796325450422973 0.0513866770038855
0.2874521438986261 0.18741264744735084 0.056890104716212024
0.330736369244932 0.1968797804707081 0.06282041517238804
0.37333545849063693 0.20624319660667298 0.0689226525524043
0.41570832761303705 0.21543309786467263 0.07506268216817184
0.4580923370179776 0.22441178041158796 0.08117091121325024
0.5006090636577033 0.23316257509022173 0.08721563439798831
0.5433129404717568 0.24168338959031807 0.09318897884170704
0.586216400226386 0.24998269032215015 0.09909874589995674
0.6405992628485336 0.256327503629363 0.10265755049115033
0.6991366027825014 0.2621093259592855 0.10723513897278121
0 0.15951431635841987 0.04396053728863776
0.021585115180931272 0.1701763816104186 0.04305673628163156
0.057231477999591135 0.18032135917766848 0.04883481998788386
0.09859632526911881 0.19032830162202014 0.05404033641655696
0.14705708319540034 0.2000193583737327 0.05845599816890578
0.19550893787350385 0.20923814775872182 0.0624641239509978
0.24390934505148842 0.21805920518519814 0.06619217036915276
0.2909413433756248 0.22713802845639955 0.0706416076592618
0.33561478693196617 0.23641705757488526 0.07577256670078779
0.37914435052636547 0.24570724092150734 0.08124752873945613
0.422162141624586 0.2549009607578226 0.08688418908129632
0.4649941749868906 0.2639380827155523 0.0925853085914701
0.5078126918952736 0.27278751441150884 0.09830188122704749
0.5507040417048004 0.28143716574232674 0.10401419638763135
0.5939041584249078 0.2898580669106569 0.10967889006385446
0.6529100310352043 0.2957290108447899 0.11377462029578747
0.709834655885003 0.30193237546287977 0.11954015862050078
0 0.1963082207221656 0.048507370463746924
0.03315010651653079 0.20758810402337793 0.05508261579813377
0.06879581391647072 0.21869231549261614 0.06135565202521009
0.10723219565901841 0.2295303973030824 0.06718845461305145
0.1537166871667152 0.23975650880170782 0.07208240014461377
0.20036148773191162 0.24951983488731933 0.07657339377090981
0.247167790286118 0.2588162887272303 0.08068100223272938
0.29408635855166826 0.26769948973114555 0.08450730445457835
0.3401751718490997 0.2766785039605383 0.08881553055496645
0.3846813181189667 0.28581073367801874 0.0936523843590513
0.42836697145666475 0.2949417615549218 0.09878601727328255
0.4716601159110011 0.30398118470554736 0.10408625142045806
0.5147902611282164 0.31287926166673213 0.10948353349694219
0.5578794724724416 0.3216114524701245 0.11494400184894568
0.6066699636965582 0.3291144553198225 0.12074310710604563
0.6638768744465852 0.3352203759953482 0.12637103157633872
0.7203842017741217 0.34152741804563813 0.13242495845957103
0.00983639282114062 0.2331058324141754 0.05983639282114062
0.044519880099985185 0.2451760320593748 0.06672157253976038
0.08016646776454284 0.257051266768232 0.0732948121863036
0.11680894850055194 0.26870035621007626 0.07955449940570261
0.16172298988263947 0.27941036186326834 0.08477053996059528
0.20705087795294047 0.2896516641550277 0.08958247440336757
0.25263748212603876 0.29943096051137696 0.09402539509396728
0.298466750048912 0.3087483845836194 0.09812457523664864
0.3444827388095225 0.3176461252177522 0.10196712149879486
0.38996932779012133 0.32653234123722813 0.10615733739306824
0.43434969337395074 0.33552733233432336 0.11078409782996185
0.47812077616612336 0.34450891912634524 0.11568545425192024
0.5215762078253773 0.35340352037421374 0.12076768700489686
0.5633398527954986 0.3619849659297482 0.12770335047327885
0.6178919489543322 0.3683102589932012 0.13365345000049322
0.6747809750650474 0.37443779376368286 0.13952042698269154
0.7308096807183648 0.3808235292631415 0.14592837643124842
0.020992010137292922 0.27025025418866805 0.07099201013729292
0.05570913280310978 0.28298109214685047 0.07805923362661157
0.09135764087397802 0.2954992221208823 0.08481106199999341
0.12796465048945774 0.30777483055461324 0.09125019267402862
0.17048391547787028 0.31907478637732156 0.09680792556326856
0.214810385978076 0.3297382056716793 0.10183717508549855
0.25945839610934845 0.3399422010188913 0.10651573744574097
0.30440765627278904 0.3496866396441722 0.11087033396614455
0.34962932769533683 0.35897611063052787 0.11493046843623164
0.3950619218544133 0.3678466305726401 0.11877307918307957
0.44013655033643256 0.3766346584828778 0.12289023671582025
0.484405703931341 0.3854951656339997 0.12738988715003516
0.5268739949803665 0.39388448556344086 0.13393216639159392
0.5715048807449882 0.4014420342358468 0.14159512148752285
0.6291315682641601 0.4071923695987092 0.14709167299037676
0.6856421116154946 0.41331614694142976 0.15325964039594625
0.7411428236384615 0.4197522849803053 0.16007992316070874
0.03198550984766319 0.30771891117472466 0.0819855098476632
0.06673195942891108 0.32101599898708966 0.08915131776171925
0.10238343820330811 0.3340834759389138 0.09600307538450434
0.1389618840163137 0.3468928953412294 0.10254729155952666
0.17968490844383037 0.35880061318546896 0.10837142639904992
0.22322431461306627 0.36983876501485585 0.11354983663859754
0.26712703683311506 0.3804183538416705 0.11839786597747229
0.3113697583041791 0.3905393715659083 0.12294324256490988
0.3559214425811544 0.40020647398163794 0.12721595777025996
0.40074421632784124 0.4094286681464918 0.1312476851200552
0.44577321631058997 0.41823880429746274 0.13510684103061912
0.48943300586167515 0.4261963155104178 0.1410321471951132
0.5310755016094861 0.43384590622838437 0.14907023824256235
0.5830584494491313 0.4400453032369266 0.15535258250477632
0.6404044257540588 0.44570076964307065 0.16109263156444167
0.696485857140035 0.4517934381213427 0.1676171523662352
0.7514208761239437 0.45825020648139475 0.17489912642455513
0.04282862185398429 0.34548834356887964 0.0928286218539843
0.07760197323843895 0.35927901375742444 0.1000373993276822
0.1132576536825303 0.37282372230717475 0.10693715542705434
0.149812879997228 0.38609544166838766 0.11353770089087409
0.18914785846426257 0.39861383588042143 0.11957677254679608
0.23205240909491637 0.4099860889083631 0.12485846273958734
0.27534851523511267 0.4208994815177991 0.12983078671234205
0.31901067227401336 0.4313544438655395 0.1345219807167142
0.3630064658994165 0.4413560001202256 0.13896197276536357
0.40729753270022256 0.45091343832562253 0.14318174637050268
0.4509656242082395 0.45902475197799597 0.14909764575770645
0.49359021901310846 0.46614980741415346 0.15670401177714624
0.5359615777118901 0.47339457287937087 0.1646392188123019
0.5947185885235995 0.47824511859507945 0.16964693501988004
0.6516664932346129 0.48401660761316107 0.17569538461185116
0.7054639313073444 0.49679081432679073 0.18298629923176302
0.757994985175571 0.509877246920007 0.1912122572424384
0.05353301288835833 0.3835352179069289 0.10353301288835834
0.08833211073449038 0.39776109864204373 0.11074732046020633
0.12399341063896765 0.41172517772587947 0.1176604066352095
0.16052984061401304 0.4254019383837556 0.12428486017582545
0.19876702266593227 0.4385265734347509 0.1305030629964768
0.2411488103590121 0.45019795170368365 0.13585635016422762
0.28394137614409926 0.4614095568360194 0.14092107432259646
0.32711767792656354 0.4721625231846654 0.14572545541893175
0.37064456437837096 0.4824624978715712 0.150298804703565
0.4138623475983166 0.49100002547187843 0.1566056376233783
0.456315006967613 0.4982716164911678 0.16461524619560977
0.49836481473849786 0.5055202210167232 0.17272765602676263
0.5469940873735938 0.5148955518215939 0.17949830503455305
0.6037258443445317 0.5262349120839976 0.1851594896968207
0.6586623679922781 0.5381834825107168 0.19199308897883705
0.7120802250171089 0.5505772769602371 0.19990297002011484
0.7640840327687001 0.5633335728266341 0.20887191297465516
0.06410981283376782 0.421837274422907 0.11410981283376781
0.09893432258393593 0.43645007364504185 0.12130435827018994
0.1346027689057501 0.45078584877032535 0.12820746651228265
0.17112420653236243 0.4648207132842558 0.13483396934139572
0.2084992477146767 0.4785360758434188 0.14120184585003953
0.2504212625869735 0.4904843961709111 0.14660800409176733
0.29278921745475667 0.5019641479573963 0.15174153752126446
0.33555298547173146 0.5129851701417878 0.1566340689025733
0.3783265419618023 0.5219194098505534 0.16329450701905313
0.4205998884723159 0.5293146389622911 0.1716956992294727
0.4609548907812267 0.5432619952008163 0.18043302320183863
0.5007608772673338 0.5572664801600842 0.18949754429917748
0.5550971369285606 0.568766383828265 0.1957970441123644
0.6113600737414806 0.5798229686587927 0.2020816512186937
0.666084503858087 0.5912305014277249 0.20943186483913592
0.7191220670339956 0.6031652526384984 0.21799327909100227
0.7706217458977279 0.6155198072361455 0.22771618548586284
0.07456918349331822 0.46037418951060355 0.12456918349331822
0.10941923985424765 0.4753332524949893 0.13172684773358376
0.14509635047129268 0.49000087949249105 0.13860414557022038
0.18160609974432532 0.5043549501522729 0.14521761295419197
0.21894614159305426 0.5183786281237658 0.15158643231635888
0.2598090971767476 0.5308523404824287 0.15715821261539892
0.3018143873468843 0.5425753018028756 0.16234196494700281
0.3436101917511744 0.5548843239417361 0.16930767215556763
0.38445077861895005 0.5687987552555052 0.17816021073348928
0.4248044772393881 0.5827025561380407 0.18729671466748846
0.46466206147532885 0.5965857392367813 0.19674742343514146
0.5082629186733919 0.6097770438881542 0.2057037587197758
0.5645599486778234 0.6208568208085149 0.21247935752354977
0.619843648200509 0.6319504209615031 0.21987558093739787
0.6740114033710739 0.6430786905609378 0.22800048411192808
0.7266766484377654 0.6544938878752549 0.23722264377297608
0.7777046580467384 0.6663926468863718 0.24768470095878697
0.08491993858161428 0.4991283357408085 0.13491993858161427
0.11979585964300471 0.5143992195620471 0.14202903353224638
0.1554830103416978 0.5293653026698486 0.14886949424792112
0.19198389691994333 0.5440063717345998 0.1554590278160025
0.22929363578287396 0.5583074782379577 0.1618174663497003
0.2683933334107758 0.5775378144527542 0.16709412739297588
0.3093347740619548 0.59310902718288 0.17464016532224655
0.3501442791854747 0.6068966545302718 0.18388559015464026
0.3904973162033379 0.6206664833365985 0.19340666684667668
0.4303863205066379 0.6344070349359867 0.20323164547123568
0.46979837174831357 0.6481100560693586 0.2133903634970897
0.5198255149545277 0.6601225479260404 0.22184568786788839
0.5751542380947618 0.6712071838828336 0.22970509545030662
0.6294867459064224 0.6822905923113302 0.23822016474699498
0.6827433271569059 0.6933899646946263 0.24746583328070446
0.7348233688414813 0.7045372511034337 0.2575274749165737
0.7854176093752401 0.7159490801340842 0.2686897835288875
0.0951692213101174 0.5380854266905994 0.1451692213101174
0.13007127304969357 0.5536390684510621 0.15222152895833985
0.16552075300890887 0.5715161320022923 0.15879746490637398
0.20135890904695294 0.5927859430610118 0.16482329545399516
0.23788386689060642 0.6138800964190991 0.17061390610021224
0.2766666374385168 0.6300380396589436 0.17943526859600956
0.3174492959156793 0.6436729501820585 0.18905727613501208
0.3578001244608997 0.6572860268182412 0.19894767293875606
0.3977134336749842 0.6708645898747336 0.20913260658177285
0.43717856850878234 0.684399256291072 0.21963949369069716
0.4769800115941397 0.6977719749532844 0.23035414684166144
0.5323105508672656 0.708832377859658 0.23866146748040087
0.586728007325247 0.719872869314741 0.24757971455836456
0.6401630750292502 0.7309053057590312 0.2571770775718988
0.6925420111955651 0.7419517957449844 0.2675152859851947
0.7437925178432907 0.753043685421039 0.27864474109196624
0.7938345436026673 0.7642228617648652 0.2906137980024686
0.10485977392157074 0.5827132377660287 0.15485977392157074
0.13919685059934642 0.6047737340463308 0.1613136735811968
0.17422617370984214 0.6266765852419952 0.16749943207192072
0.20993757442928435 0.648401398674853 0.17343592472728117
0.24813141276484482 0.6640966684739044 0.18316328475836263
0.28653193254310527 0.6789973946804078 0.19371188132803252
0.32653953328987495 0.6926661791840995 0.20404966041719572
0.3664772715282284 0.7060660344740377 0.21457926091132398
0.4059906773010861 0.7194190652235671 0.22541962039374341
0.44506735486879306 0.7327186811672268 0.23659577202372584
0.491164700861849 0.7449637725210612 0.24689164266555713
0.5456273451763074 0.7559540984975437 0.25619966995280835
0.599186828598038 0.7669210488545029 0.2661394871062912
0.6517785259559741 0.7778822786801144 0.2767669112527592
0.7033375354060926 0.7888652641873981 0.2881276972529178
0.7538043610709632 0.7999060637098078 0.30025308819431124
0.8031308723338648 0.8110475705469146 0.313155607349018
0.1 0.020000000000000004 0
0.1 0.020000000000000004 0
0.10620038549559889 0.019694463814479583 0
0.14133688117165394 0.017709856445181006 0
0.170691147604837 0.01889980873172436 0.008742906798111003
0.20753817589225615 0.029619338830017095 0.019374119157666327
0.24461585809219094 0.03981786723601527 0.029599799619478864
0.28219356993656075 0.04955106964109418 0.03942219502251613
0.3203896915574038 0.05884732675846734 0.048844406868232076
0.35925550560208386 0.06772711525914575 0.05787299117940811
0.3988054746510326 0.07620996629550822 0.06651886713056443
0.439030060948719 0.084317378185179 0.0747976769189311
0.47990184224869004 0.09207416485440333 0.08272992805909772
0.5213787537563105 0.09950910438982946 0.09034102244410093
0.5634060349079122 0.106655215274269 0.0976611950275783
0.6059176359545962 0.11354977780429369 0.10472534545919493
0.6561059897201529 0.11894780348632827 0.11030949215806049
0.1 0.020000000000000004 0
0.1 0.020000000000000004 0
0.060884121005553266 0.029697225204951327 0.009204885841159232
0.13652287844009225 0.042035210368785 0.01183827073331415
0.1778196830332058 0.05205112530056909 0.019965049216976737
0.21618321272144084 0.0631047015641098 0.030114684634414284
0.2541178374094325 0.07369776903129467 0.040038052141801575
0.29224228384598544 0.08379044565927571 0.049563772629895135
0.3308018726434699 0.0934334565839248 0.05869932154042566
0.369906472213817 0.10265796302968097 0.06745542983200929
0.40960020096955296 0.11148921344762092 0.07584704208270213
0.4498894170756388 0.1199519504331386 0.08389364439714456
0.4907555816212714 0.1280728002325622 0.09161934108117259
0.5321618922336097 0.13588137017187682 0.09905278827588226
0.5740571562599099 0.14341069470448561 0.10622700186124227
0.6163784499449594 0.15069727559663182 0.11317901645524246
0.6737150874482585 0.15527067457872457 0.11733718373769099
0 0.0639835455605836 0.049016942835339895
0 0.07874838738939363 0.04827373688636057
0.03352541497944355 0.07719820272247857 0.04258828673585844
0.10496436229809773 0.08118766563483897 0.03718962363082952
0.16925338576187493 0.09077620130842269 0.039833078459086485
0.21457228692333263 0.10026487927697028 0.04626599155901823
0.25602337011155374 0.10988325583386326 0.05381533966870193
0.2963625768623325 0.11942670600357576 0.06170592085004446
0.3364829253490282 0.12877759226895474 0.06962771069896921
0.37675881691904634 0.13787665459430193 0.07743844477284444
0.417179094633459 0.14706598854406164 0.08552557322463586
0.45798391968468716 0.15592673866559104 0.09335546849808761
0.49921636334542935 0.1644402107583607 0.10089246698833881
0.5408655174050631 0.172639310709548 0.10816771006944627
0.5828985903827201 0.1805587128772452 0.11521610343768617
0.6289599567589805 0.1876478471003349 0.12142090579010202
0.6900510226883332 0.19204569001506439 0.12475001652040606
0 0.10062789010401624 0.04714416883617081
0.009733757741710853 0.11439978975944051 0.05973375774171085
0.04538816433966085 0.11888092074506862 0.0608168548541222
0.08961352428894358 0.12388788988336656 0.061286478666625406
0.1552692634784011 0.1307942047032452 0.06058749092804901
0.2108808087291823 0.13944492594397162 0.06385464782617521
0.2566741872210048 0.14858349007695446 0.0695752949684074
0.29940057017526905 0.15788294177253534 0.07621902628412068
0.34103798220413456 0.16714076421645715 0.08321034526900589
0.3823510373054706 0.17624719850047701 0.09028966643312199
0.4236888274674939 0.1851456382690971 0.0973298893224863
0.4652199108283264 0.19381038401132664 0.10426946326019743
0.5070206405605542 0.20223504609725484 0.11108331867780602
0.5491143861531566 0.21042619342951147 0.1177685510610116
0.5914914094251027 0.2183995686416968 0.1243365532016006
0.6449998228406143 0.22467815658204876 0.12907129944476547
0.7026426461787392 0.23073484647782166 0.13448287773783413
0 0.13352416061763872 0.05523660938232438
0.02144939350162514 0.15042417464640914 0.07144939350162514
0.05708784495149436 0.1577744234230719 0.07519498065714778
0.09403294862469598 0.16499190145961304 0.07872674220928794
0.1496185314945198 0.1726057621078994 0.08039608415098988
0.2052371109926383 0.17995736367431106 0.08192405289621509
0.2563555494347799 0.18832698117790592 0.08556512502755084
0.30187307350456577 0.19722835445787365 0.09085402173465111
0.3451886430977371 0.20629238625376803 0.09686775998837607
0.3876106648460767 0.21533178178535262 0.10319669918778383
0.42971521505604254 0.22424783873142584 0.10964080457385653
0.4717830791743818 0.2329898731447854 0.11609855326444106
0.513953226334479 0.24153546314727636 0.12252093894206886
0.5562876484756298 0.24988007220995234 0.12888949496553556
0.5990014529699943 0.25800055055392185 0.1351656373643802
0.6573973389897048 0.2638371828582677 0.139759635694242
0.7138441630890162 0.27018387933936283 0.14574125904265833
0 0.16947921294789592 0.06689034933795662
0.032966121728809805 0.18684637459883705 0.08296612172880981
0.06860154961485002 0.1959399760248238 0.0881001310030714
0.10541572805312519 0.20486013940583594 0.09298115131679088
0.1527319504571801 0.2134342493587978 0.09654320903162844
0.20413839164513498 0.22150484559982575 0.09928565073075168
0.2551562573178437 0.22921206190038426 0.10184188873873659
0.3037771846859901 0.2374953042128294 0.10565570251645659
0.3489495584681366 0.24623211777080237 0.1106323909576507
0.39255940661827776 0.2551123278251486 0.11618606942052999
0.43546901529689597 0.2639749827614621 0.12202640282076539
0.47809432163213333 0.27273499264750684 0.12800390266172124
0.5206474274855025 0.28134892633775765 0.13404118203229654
0.5632345323140843 0.28979827865287044 0.14010130930284964
0.6115097149851135 0.29728222711330354 0.14627888091689287
0.6681936093390355 0.3035788994076622 0.15211483959846522
0.7242813310161309 0.31005761573766616 0.1583154870015565
0.009809074123094905 0.20673441857727753 0.07927733363767006
0.04429387912510109 0.22364651621305165 0.0942938791251011
0.07993119871280736 0.23395422700241886 0.10022752097121113
0.11666267534210249 0.2440603880142166 0.10588705181534461
0.1593562397018431 0.2536326536710962 0.11063321638835133
0.2080120964947786 0.26243555894380755 0.1142867413153577
0.25664813192753594 0.2707695534489733 0.11758450803310243
0.3051990421953784 0.27871283966790705 0.12065477003831047
0.3523349579786065 0.28696290707454336 0.12453591500894821
0.39721919193679006 0.295573445491174 0.1292821748444502
0.4409768033818806 0.30430129852759097 0.13450623662807826
0.48418417745179987 0.3130137333032408 0.1400008228147102
0.527137702287506 0.3216397054806365 0.14565499074517654
0.5684694183196062 0.3302062975004253 0.15287049894756988
0.6224993718313252 0.33676318900252467 0.15897564075772075
0.6789345055213546 0.3431034168092642 0.16497710249754732
0.7345967461747682 0.3496903936215866 0.17146317862737911
0.020978675153302914 0.24416417519474934 0.0912746343510681
0.055444055572799446 0.26080181972445216 0.10544405557279946
0.09108563746653825 0.2720288243968969 0.11186096930680611
0.12776010140482572 0.283032329186881 0.11799359128659603
0.16757428343068817 0.293555887135381 0.12353478107675038
0.21435622402425447 0.3029654106697943 0.1277816206334824
0.2612761903482297 0.3119107755230029 0.13167832832041712
0.3083182944986532 0.3203968804589159 0.13524925913040461
0.35541453655640215 0.32848166581473665 0.13859666234109316
0.40161138316189593 0.33670413183063064 0.14250680346797975
0.44626455125668457 0.3452057497630367 0.14709628798736823
